ncols 240
nrows 240
xllcorner -120
yllcorner -120
cellsize 1
NODATA_value -9999
100.0000 100.0000 100.0000 100.0000 100.0000 100.0000 100.0000 100.0000 100.0000 100.0000 100.0000 100.0000 100.0000 100.0000 100.0000 100.0000 100.0000 100.0000 100.0000 100.0000 100.0000 100.0000 100.0000 100.0000 100.0000 100.0000 100.0000 100.0000 100.0000 100.0000 100.0000 100.0000 100.0000 100.0000 100.0000 100.0000 100.0000 100.0000 100.0000 100.0000 100.0000 100.0000 100.0000 100.0000 100.0000 100.0000 100.0000 100.0000 100.0000 100.0000 100.0000 100.0000 100.0000 100.0000 100.0000 100.0000 100.0000 100.0000 100.0000 100.0000 100.0000 100.0000 100.0000 100.0000 100.0000 100.0000 100.0000 100.0000 100.0000 100.0000 100.0000 100.0000 100.0000 100.0000 100.0000 100.0000 100.0000 100.0000 100.0000 100.0000 100.0000 100.0000 100.0000 100.0000 100.0000 100.0000 100.0000 100.0000 100.0000 100.0000 100.0000 100.0000 100.0000 100.0000 100.0000 100.0000 100.0000 100.0000 100.0000 100.0000 100.0000 100.0000 100.0000 100.0000 100.0000 100.0000 100.0000 100.0000 100.0000 100.0000 100.0000 100.0000 100.0000 100.0000 100.0000 100.0000 100.0000 100.0000 100.0000 100.0000 100.0000 100.0000 100.0000 100.0000 100.0000 100.0000 100.0000 100.0000 100.0000 100.0000 100.0000 100.0000 100.0000 100.0000 100.0000 100.0000 100.0000 100.0000 100.0000 100.0000 100.0000 100.0000 100.0000 100.0000 100.0000 100.0000 100.0000 100.0000 100.0000 100.0000 100.0000 100.0000 100.0000 100.0000 100.0000 100.0000 100.0000 100.0000 100.0000 100.0000 100.0000 100.0000 100.0000 100.0000 100.0000 100.0000 100.0000 100.0000 100.0000 100.0000 100.0000 100.0000 100.0000 100.0000 100.0000 100.0000 100.0000 100.0000 100.0000 100.0000 100.0000 100.0000 100.0000 100.0000 100.0000 100.0000 100.0000 100.0000 100.0000 100.0000 100.0000 100.0000 100.0000 100.0000 100.0000 100.0000 100.0000 100.0000 100.0000 100.0000 100.0000 100.0000 100.0000 100.0000 100.0000 100.0000 100.0000 100.0000 100.0000 100.0000 100.0000 100.0000 100.0000 100.0000 100.0000 100.0000 100.0000 100.0000 100.0000 100.0000 100.0000 100.0000 100.0000 100.0000 100.0000 100.0000 100.0000 100.0000 100.0000 100.0000 100.0000 100.0000 100.0000 100.0000 100.0000 100.0000 100.0000 100.0000 100.0000 100.0000
100.0000 100.0000 100.0000 100.0000 100.0000 100.0000 100.0000 100.0000 100.0000 100.0000 100.0000 100.0000 100.0000 100.0000 100.0000 100.0000 100.0000 100.0000 100.0000 100.0000 100.0000 100.0000 100.0000 100.0000 100.0000 100.0000 100.0000 100.0000 100.0000 100.0000 100.0000 100.0000 100.0000 100.0000 100.0000 100.0000 100.0000 100.0000 100.0000 100.0000 100.0000 100.0000 100.0000 100.0000 100.0000 100.0000 100.0000 100.0000 100.0000 100.0000 100.0000 100.0000 100.0000 100.0000 100.0000 100.0000 100.0000 100.0000 100.0000 100.0000 100.0000 100.0000 100.0000 100.0000 100.0000 100.0000 100.0000 100.0000 100.0000 100.0000 100.0000 100.0000 100.0000 100.0000 100.0000 100.0000 100.0000 100.0000 100.0000 100.0000 100.0000 100.0000 100.0000 100.0000 100.0000 100.0000 100.0000 100.0000 100.0000 100.0000 100.0000 100.0000 100.0000 100.0000 100.0000 100.0000 100.0000 100.0000 100.0000 100.0000 100.0000 100.0000 100.0000 100.0000 100.0000 100.0000 100.0000 100.0000 100.0000 100.0000 100.0000 100.0000 100.0000 100.0000 100.0000 100.0000 100.0000 100.0000 100.0000 100.0000 100.0000 100.0000 100.0000 100.0000 100.0000 100.0000 100.0000 100.0000 100.0000 100.0000 100.0000 100.0000 100.0000 100.0000 100.0000 100.0000 100.0000 100.0000 100.0000 100.0000 100.0000 100.0000 100.0000 100.0000 100.0000 100.0000 100.0000 100.0000 100.0000 100.0000 100.0000 100.0000 100.0000 100.0000 100.0000 100.0000 100.0000 100.0000 100.0000 100.0000 100.0000 100.0000 100.0000 100.0000 100.0000 100.0000 100.0000 100.0000 100.0000 100.0000 100.0000 100.0000 100.0000 100.0000 100.0000 100.0000 100.0000 100.0000 100.0000 100.0000 100.0000 100.0000 100.0000 100.0000 100.0000 100.0000 100.0000 100.0000 100.0000 100.0000 100.0000 100.0000 100.0000 100.0000 100.0000 100.0000 100.0000 100.0000 100.0000 100.0000 100.0000 100.0000 100.0000 100.0000 100.0000 100.0000 100.0000 100.0000 100.0000 100.0000 100.0000 100.0000 100.0000 100.0000 100.0000 100.0000 100.0000 100.0000 100.0000 100.0000 100.0000 100.0000 100.0000 100.0000 100.0000 100.0000 100.0000 100.0000 100.0000 100.0000 100.0000 100.0000 100.0000 100.0000 100.0000 100.0000 100.0000 100.0000 100.0000 100.0000
100.0000 100.0000 100.0000 100.0000 100.0000 100.0000 100.0000 100.0000 100.0000 100.0000 100.0000 100.0000 100.0000 100.0000 100.0000 100.0000 100.0000 100.0000 100.0000 100.0000 100.0000 100.0000 100.0000 100.0000 100.0000 100.0000 100.0000 100.0000 100.0000 100.0000 100.0000 100.0000 100.0000 100.0000 100.0000 100.0000 100.0000 100.0000 100.0000 100.0000 100.0000 100.0000 100.0000 100.0000 100.0000 100.0000 100.0000 100.0000 100.0000 100.0000 100.0000 100.0000 100.0000 100.0000 100.0000 100.0000 100.0000 100.0000 100.0000 100.0000 100.0000 100.0000 100.0000 100.0000 100.0000 100.0000 100.0000 100.0000 100.0000 100.0000 100.0000 100.0000 100.0000 100.0000 100.0000 100.0000 100.0000 100.0000 100.0000 100.0000 100.0000 100.0000 100.0000 100.0000 100.0000 100.0000 100.0000 100.0000 100.0000 100.0000 100.0000 100.0000 100.0000 100.0000 100.0000 100.0000 100.0000 100.0000 100.0000 100.0000 100.0000 100.0000 100.0000 100.0000 100.0000 100.0000 100.0000 100.0000 100.0000 100.0000 100.0000 100.0000 100.0000 100.0000 100.0000 100.0000 100.0000 100.0000 100.0000 100.0000 100.0000 100.0000 100.0000 100.0000 100.0000 100.0000 100.0000 100.0000 100.0000 100.0000 100.0000 100.0000 100.0000 100.0000 100.0000 100.0000 100.0000 100.0000 100.0000 100.0000 100.0000 100.0000 100.0000 100.0000 100.0000 100.0000 100.0000 100.0000 100.0000 100.0000 100.0000 100.0000 100.0000 100.0000 100.0000 100.0000 100.0000 100.0000 100.0000 100.0000 100.0000 100.0000 100.0000 100.0000 100.0000 100.0000 100.0000 100.0000 100.0000 100.0000 100.0000 100.0000 100.0000 100.0000 100.0000 100.0000 100.0000 100.0000 100.0000 100.0000 100.0000 100.0000 100.0000 100.0000 100.0000 100.0000 100.0000 100.0000 100.0000 100.0000 100.0000 100.0000 100.0000 100.0000 100.0000 100.0000 100.0000 100.0000 100.0000 100.0000 100.0000 100.0000 100.0000 100.0000 100.0000 100.0000 100.0000 100.0000 100.0000 100.0000 100.0000 100.0000 100.0000 100.0000 100.0000 100.0000 100.0000 100.0000 100.0000 100.0000 100.0000 100.0000 100.0000 100.0000 100.0000 100.0000 100.0000 100.0000 100.0000 100.0000 100.0000 100.0000 100.0000 100.0000 100.0000 100.0000 100.0000 100.0000 100.0000 100.0000
100.0000 100.0000 100.0000 100.0000 100.0000 100.0000 100.0000 100.0000 100.0000 100.0000 100.0000 100.0000 100.0000 100.0000 100.0000 100.0000 100.0000 100.0000 100.0000 100.0000 100.0000 100.0000 100.0000 100.0000 100.0000 100.0000 100.0000 100.0000 100.0000 100.0000 100.0000 100.0000 100.0000 100.0000 100.0000 100.0000 100.0000 100.0000 100.0000 100.0000 100.0000 100.0000 100.0000 100.0000 100.0000 100.0000 100.0000 100.0000 100.0000 100.0000 100.0000 100.0000 100.0000 100.0000 100.0000 100.0000 100.0000 100.0000 100.0000 100.0000 100.0000 100.0000 100.0000 100.0000 100.0000 100.0000 100.0000 100.0000 100.0000 100.0000 100.0000 100.0000 100.0000 100.0000 100.0000 100.0000 100.0000 100.0000 100.0000 100.0000 100.0000 100.0000 100.0000 100.0000 100.0000 100.0000 100.0000 100.0000 100.0000 100.0000 100.0000 100.0000 100.0000 100.0000 100.0000 100.0000 100.0000 100.0000 100.0000 100.0000 100.0000 100.0000 100.0000 100.0000 100.0000 100.0000 100.0000 100.0000 100.0000 100.0000 100.0000 100.0000 100.0000 100.0000 100.0000 100.0000 100.0000 100.0000 100.0000 100.0000 100.0000 100.0000 100.0000 100.0000 100.0000 100.0000 100.0000 100.0000 100.0000 100.0000 100.0000 100.0000 100.0000 100.0000 100.0000 100.0000 100.0000 100.0000 100.0000 100.0000 100.0000 100.0000 100.0000 100.0000 100.0000 100.0000 100.0000 100.0000 100.0000 100.0000 100.0000 100.0000 100.0000 100.0000 100.0000 100.0000 100.0000 100.0000 100.0000 100.0000 100.0000 100.0000 100.0000 100.0000 100.0000 100.0000 100.0000 100.0000 100.0000 100.0000 100.0000 100.0000 100.0000 100.0000 100.0000 100.0000 100.0000 100.0000 100.0000 100.0000 100.0000 100.0000 100.0000 100.0000 100.0000 100.0000 100.0000 100.0000 100.0000 100.0000 100.0000 100.0000 100.0000 100.0000 100.0000 100.0000 100.0000 100.0000 100.0000 100.0000 100.0000 100.0000 100.0000 100.0000 100.0000 100.0000 100.0000 100.0000 100.0000 100.0000 100.0000 100.0000 100.0000 100.0000 100.0000 100.0000 100.0000 100.0000 100.0000 100.0000 100.0000 100.0000 100.0000 100.0000 100.0000 100.0000 100.0000 100.0000 100.0000 100.0000 100.0000 100.0000 100.0000 100.0000 100.0000 100.0000 100.0000 100.0000 100.0000 100.0000
100.0000 100.0000 100.0000 100.0000 100.0000 100.0000 100.0000 100.0000 100.0000 100.0000 100.0000 100.0000 100.0000 100.0000 100.0000 100.0000 100.0000 100.0000 100.0000 100.0000 100.0000 100.0000 100.0000 100.0000 100.0000 100.0000 100.0000 100.0000 100.0000 100.0000 100.0000 100.0000 100.0000 100.0000 100.0000 100.0000 100.0000 100.0000 100.0000 100.0000 100.0000 100.0000 100.0000 100.0000 100.0000 100.0000 100.0000 100.0000 100.0000 100.0000 100.0000 100.0000 100.0000 100.0000 100.0000 100.0000 100.0000 100.0000 100.0000 100.0000 100.0000 100.0000 100.0000 100.0000 100.0000 100.0000 100.0000 100.0000 100.0000 100.0000 100.0000 100.0000 100.0000 100.0000 100.0000 100.0000 100.0000 100.0000 100.0000 100.0000 100.0000 100.0000 100.0000 100.0000 100.0000 100.0000 100.0000 100.0000 100.0000 100.0000 100.0000 100.0000 100.0000 100.0000 100.0000 100.0000 100.0000 100.0000 100.0000 100.0000 100.0000 100.0000 100.0000 100.0000 100.0000 100.0000 100.0000 100.0000 100.0000 100.0000 100.0000 100.0000 100.0000 100.0000 100.0000 100.0000 100.0000 100.0000 100.0000 100.0000 100.0000 100.0000 100.0000 100.0000 100.0000 100.0000 100.0000 100.0000 100.0000 100.0000 100.0000 100.0000 100.0000 100.0000 100.0000 100.0000 100.0000 100.0000 100.0000 100.0000 100.0000 100.0000 100.0000 100.0000 100.0000 100.0000 100.0000 100.0000 100.0000 100.0000 100.0000 100.0000 100.0000 100.0000 100.0000 100.0000 100.0000 100.0000 100.0000 100.0000 100.0000 100.0000 100.0000 100.0000 100.0000 100.0000 100.0000 100.0000 100.0000 100.0000 100.0000 100.0000 100.0000 100.0000 100.0000 100.0000 100.0000 100.0000 100.0000 100.0000 100.0000 100.0000 100.0000 100.0000 100.0000 100.0000 100.0000 100.0000 100.0000 100.0000 100.0000 100.0000 100.0000 100.0000 100.0000 100.0000 100.0000 100.0000 100.0000 100.0000 100.0000 100.0000 100.0000 100.0000 100.0000 100.0000 100.0000 100.0000 100.0000 100.0000 100.0000 100.0000 100.0000 100.0000 100.0000 100.0000 100.0000 100.0000 100.0000 100.0000 100.0000 100.0000 100.0000 100.0000 100.0000 100.0000 100.0000 100.0000 100.0000 100.0000 100.0000 100.0000 100.0000 100.0000 100.0000 100.0000 100.0000 100.0000 100.0000 100.0000
100.0000 100.0000 100.0000 100.0000 100.0000 100.0000 100.0000 100.0000 100.0000 100.0000 100.0000 100.0000 100.0000 100.0000 100.0000 100.0000 100.0000 100.0000 100.0000 100.0000 100.0000 100.0000 100.0000 100.0000 100.0000 100.0000 100.0000 100.0000 100.0000 100.0000 100.0000 100.0000 100.0000 100.0000 100.0000 100.0000 100.0000 100.0000 100.0000 100.0000 100.0000 100.0000 100.0000 100.0000 100.0000 100.0000 100.0000 100.0000 100.0000 100.0000 100.0000 100.0000 100.0000 100.0000 100.0000 100.0000 100.0000 100.0000 100.0000 100.0000 100.0000 100.0000 100.0000 100.0000 100.0000 100.0000 100.0000 100.0000 100.0000 100.0000 100.0000 100.0000 100.0000 100.0000 100.0000 100.0000 100.0000 100.0000 100.0000 100.0000 100.0000 100.0000 100.0000 100.0000 100.0000 100.0000 100.0000 100.0000 100.0000 100.0000 100.0000 100.0000 100.0000 100.0000 100.0000 100.0000 100.0000 100.0000 100.0000 100.0000 100.0000 100.0000 100.0000 100.0000 100.0000 100.0000 100.0000 100.0000 100.0000 100.0000 100.0000 100.0000 100.0000 100.0000 100.0000 100.0000 100.0000 100.0000 100.0000 100.0000 100.0000 100.0000 100.0000 100.0000 100.0000 100.0000 100.0000 100.0000 100.0000 100.0000 100.0000 100.0000 100.0000 100.0000 100.0000 100.0000 100.0000 100.0000 100.0000 100.0000 100.0000 100.0000 100.0000 100.0000 100.0000 100.0000 100.0000 100.0000 100.0000 100.0000 100.0000 100.0000 100.0000 100.0000 100.0000 100.0000 100.0000 100.0000 100.0000 100.0000 100.0000 100.0000 100.0000 100.0000 100.0000 100.0000 100.0000 100.0000 100.0000 100.0000 100.0000 100.0000 100.0000 100.0000 100.0000 100.0000 100.0000 100.0000 100.0000 100.0000 100.0000 100.0000 100.0000 100.0000 100.0000 100.0000 100.0000 100.0000 100.0000 100.0000 100.0000 100.0000 100.0000 100.0000 100.0000 100.0000 100.0000 100.0000 100.0000 100.0000 100.0000 100.0000 100.0000 100.0000 100.0000 100.0000 100.0000 100.0000 100.0000 100.0000 100.0000 100.0000 100.0000 100.0000 100.0000 100.0000 100.0000 100.0000 100.0000 100.0000 100.0000 100.0000 100.0000 100.0000 100.0000 100.0000 100.0000 100.0000 100.0000 100.0000 100.0000 100.0000 100.0000 100.0000 100.0000 100.0000 100.0000 100.0000 100.0000 100.0000
100.0000 100.0000 100.0000 100.0000 100.0000 100.0000 100.0000 100.0000 100.0000 100.0000 100.0000 100.0000 100.0000 100.0000 100.0000 100.0000 100.0000 100.0000 100.0000 100.0000 100.0000 100.0000 100.0000 100.0000 100.0000 100.0000 100.0000 100.0000 100.0000 100.0000 100.0000 100.0000 100.0000 100.0000 100.0000 100.0000 100.0000 100.0000 100.0000 100.0000 100.0000 100.0000 100.0000 100.0000 100.0000 100.0000 100.0000 100.0000 100.0000 100.0000 100.0000 100.0000 100.0000 100.0000 100.0000 100.0000 100.0000 100.0000 100.0000 100.0000 100.0000 100.0000 100.0000 100.0000 100.0000 100.0000 100.0000 100.0000 100.0000 100.0000 100.0000 100.0000 100.0000 100.0000 100.0000 100.0000 100.0000 100.0000 100.0000 100.0000 100.0000 100.0000 100.0000 100.0000 100.0000 100.0000 100.0000 100.0000 100.0000 100.0000 100.0000 100.0000 100.0000 100.0000 100.0000 100.0000 100.0000 100.0000 100.0000 100.0000 100.0000 100.0000 100.0000 100.0000 100.0000 100.0000 100.0000 100.0000 100.0000 100.0000 100.0000 100.0000 100.0000 100.0000 100.0000 100.0000 100.0000 100.0000 100.0000 100.0000 100.0000 100.0000 100.0000 100.0000 100.0000 100.0000 100.0000 100.0000 100.0000 100.0000 100.0000 100.0000 100.0000 100.0000 100.0000 100.0000 100.0000 100.0000 100.0000 100.0000 100.0000 100.0000 100.0000 100.0000 100.0000 100.0000 100.0000 100.0000 100.0000 100.0000 100.0000 100.0000 100.0000 100.0000 100.0000 100.0000 100.0000 100.0000 100.0000 100.0000 100.0000 100.0000 100.0000 100.0000 100.0000 100.0000 100.0000 100.0000 100.0000 100.0000 100.0000 100.0000 100.0000 100.0000 100.0000 100.0000 100.0000 100.0000 100.0000 100.0000 100.0000 100.0000 100.0000 100.0000 100.0000 100.0000 100.0000 100.0000 100.0000 100.0000 100.0000 100.0000 100.0000 100.0000 100.0000 100.0000 100.0000 100.0000 100.0000 100.0000 100.0000 100.0000 100.0000 100.0000 100.0000 100.0000 100.0000 100.0000 100.0000 100.0000 100.0000 100.0000 100.0000 100.0000 100.0000 100.0000 100.0000 100.0000 100.0000 100.0000 100.0000 100.0000 100.0000 100.0000 100.0000 100.0000 100.0000 100.0000 100.0000 100.0000 100.0000 100.0000 100.0000 100.0000 100.0000 100.0000 100.0000 100.0000 100.0000 100.0000
100.0000 100.0000 100.0000 100.0000 100.0000 100.0000 100.0000 100.0000 100.0000 100.0000 100.0000 100.0000 100.0000 100.0000 100.0000 100.0000 100.0000 100.0000 100.0000 100.0000 100.0000 100.0000 100.0000 100.0000 100.0000 100.0000 100.0000 100.0000 100.0000 100.0000 100.0000 100.0000 100.0000 100.0000 100.0000 100.0000 100.0000 100.0000 100.0000 100.0000 100.0000 100.0000 100.0000 100.0000 100.0000 100.0000 100.0000 100.0000 100.0000 100.0000 100.0000 100.0000 100.0000 100.0000 100.0000 100.0000 100.0000 100.0000 100.0000 100.0000 100.0000 100.0000 100.0000 100.0000 100.0000 100.0000 100.0000 100.0000 100.0000 100.0000 100.0000 100.0000 100.0000 100.0000 100.0000 100.0000 100.0000 100.0000 100.0000 100.0000 100.0000 100.0000 100.0000 100.0000 100.0000 100.0000 100.0000 100.0000 100.0000 100.0000 100.0000 100.0000 100.0000 100.0000 100.0000 100.0000 100.0000 100.0000 100.0000 100.0000 100.0000 100.0000 100.0000 100.0000 100.0000 100.0000 100.0000 100.0000 100.0000 100.0000 100.0000 100.0000 100.0000 100.0000 100.0000 100.0000 100.0000 100.0000 100.0000 100.0000 100.0000 100.0000 100.0000 100.0000 100.0000 100.0000 100.0000 100.0000 100.0000 100.0000 100.0000 100.0000 100.0000 100.0000 100.0000 100.0000 100.0000 100.0000 100.0000 100.0000 100.0000 100.0000 100.0000 100.0000 100.0000 100.0000 100.0000 100.0000 100.0000 100.0000 100.0000 100.0000 100.0000 100.0000 100.0000 100.0000 100.0000 100.0000 100.0000 100.0000 100.0000 100.0000 100.0000 100.0000 100.0000 100.0000 100.0000 100.0000 100.0000 100.0000 100.0000 100.0000 100.0000 100.0000 100.0000 100.0000 100.0000 100.0000 100.0000 100.0000 100.0000 100.0000 100.0000 100.0000 100.0000 100.0000 100.0000 100.0000 100.0000 100.0000 100.0000 100.0000 100.0000 100.0000 100.0000 100.0000 100.0000 100.0000 100.0000 100.0000 100.0000 100.0000 100.0000 100.0000 100.0000 100.0000 100.0000 100.0000 100.0000 100.0000 100.0000 100.0000 100.0000 100.0000 100.0000 100.0000 100.0000 100.0000 100.0000 100.0000 100.0000 100.0000 100.0000 100.0000 100.0000 100.0000 100.0000 100.0000 100.0000 100.0000 100.0000 100.0000 100.0000 100.0000 100.0000 100.0000 100.0000 100.0000 100.0000 100.0000
100.0000 100.0000 100.0000 100.0000 100.0000 100.0000 100.0000 100.0000 100.0000 100.0000 100.0000 100.0000 100.0000 100.0000 100.0000 100.0000 100.0000 100.0000 100.0000 100.0000 100.0000 100.0000 100.0000 100.0000 100.0000 100.0000 100.0000 100.0000 100.0000 100.0000 100.0000 100.0000 100.0000 100.0000 100.0000 100.0000 100.0000 100.0000 100.0000 100.0000 100.0000 100.0000 100.0000 100.0000 100.0000 100.0000 100.0000 100.0000 100.0000 100.0000 100.0000 100.0000 100.0000 100.0000 100.0000 100.0000 100.0000 100.0000 100.0000 100.0000 100.0000 100.0000 100.0000 100.0000 100.0000 100.0000 100.0000 100.0000 100.0000 100.0000 100.0000 100.0000 100.0000 100.0000 100.0000 100.0000 100.0000 100.0000 100.0000 100.0000 100.0000 100.0000 100.0000 100.0000 100.0000 100.0000 100.0000 100.0000 100.0000 100.0000 100.0000 100.0000 100.0000 100.0000 100.0000 100.0000 100.0000 100.0000 100.0000 100.0000 100.0000 100.0000 100.0000 100.0000 100.0000 100.0000 100.0000 100.0000 100.0000 100.0000 100.0000 100.0000 100.0000 100.0000 100.0000 100.0000 100.0000 100.0000 100.0000 100.0000 100.0000 100.0000 100.0000 100.0000 100.0000 100.0000 100.0000 100.0000 100.0000 100.0000 100.0000 100.0000 100.0000 100.0000 100.0000 100.0000 100.0000 100.0000 100.0000 100.0000 100.0000 100.0000 100.0000 100.0000 100.0000 100.0000 100.0000 100.0000 100.0000 100.0000 100.0000 100.0000 100.0000 100.0000 100.0000 100.0000 100.0000 100.0000 100.0000 100.0000 100.0000 100.0000 100.0000 100.0000 100.0000 100.0000 100.0000 100.0000 100.0000 100.0000 100.0000 100.0000 100.0000 100.0000 100.0000 100.0000 100.0000 100.0000 100.0000 100.0000 100.0000 100.0000 100.0000 100.0000 100.0000 100.0000 100.0000 100.0000 100.0000 100.0000 100.0000 100.0000 100.0000 100.0000 100.0000 100.0000 100.0000 100.0000 100.0000 100.0000 100.0000 100.0000 100.0000 100.0000 100.0000 100.0000 100.0000 100.0000 100.0000 100.0000 100.0000 100.0000 100.0000 100.0000 100.0000 100.0000 100.0000 100.0000 100.0000 100.0000 100.0000 100.0000 100.0000 100.0000 100.0000 100.0000 100.0000 100.0000 100.0000 100.0000 100.0000 100.0000 100.0000 100.0000 100.0000 100.0000 100.0000 100.0000 100.0000 100.0000
100.0000 100.0000 100.0000 100.0000 100.0000 100.0000 100.0000 100.0000 100.0000 100.0000 100.0000 100.0000 100.0000 100.0000 100.0000 100.0000 100.0000 100.0000 100.0000 100.0000 100.0000 100.0000 100.0000 100.0000 100.0000 100.0000 100.0000 100.0000 100.0000 100.0000 100.0000 100.0000 100.0000 100.0000 100.0000 100.0000 100.0000 100.0000 100.0000 100.0000 100.0000 100.0000 100.0000 100.0000 100.0000 100.0000 100.0000 100.0000 100.0000 100.0000 100.0000 100.0000 100.0000 100.0000 100.0000 100.0000 100.0000 100.0000 100.0000 100.0000 100.0000 100.0000 100.0000 100.0000 100.0000 100.0000 100.0000 100.0000 100.0000 100.0000 100.0000 100.0000 100.0000 100.0000 100.0000 100.0000 100.0000 100.0000 100.0000 100.0000 100.0000 100.0000 100.0000 100.0000 100.0000 100.0000 100.0000 100.0000 100.0000 100.0000 100.0000 100.0000 100.0000 100.0000 100.0000 100.0000 100.0000 100.0000 100.0000 100.0000 100.0000 100.0000 100.0000 100.0000 100.0000 100.0000 100.0000 100.0000 100.0000 100.0000 100.0000 100.0000 100.0000 100.0000 100.0000 100.0000 100.0000 100.0000 100.0000 100.0000 100.0000 100.0000 100.0000 100.0000 100.0000 100.0000 100.0000 100.0000 100.0000 100.0000 100.0000 100.0000 100.0000 100.0000 100.0000 100.0000 100.0000 100.0000 100.0000 100.0000 100.0000 100.0000 100.0000 100.0000 100.0000 100.0000 100.0000 100.0000 100.0000 100.0000 100.0000 100.0000 100.0000 100.0000 100.0000 100.0000 100.0000 100.0000 100.0000 100.0000 100.0000 100.0000 100.0000 100.0000 100.0000 100.0000 100.0000 100.0000 100.0000 100.0000 100.0000 100.0000 100.0000 100.0000 100.0000 100.0000 100.0000 100.0000 100.0000 100.0000 100.0000 100.0000 100.0000 100.0000 100.0000 100.0000 100.0000 100.0000 100.0000 100.0000 100.0000 100.0000 100.0000 100.0000 100.0000 100.0000 100.0000 100.0000 100.0000 100.0000 100.0000 100.0000 100.0000 100.0000 100.0000 100.0000 100.0000 100.0000 100.0000 100.0000 100.0000 100.0000 100.0000 100.0000 100.0000 100.0000 100.0000 100.0000 100.0000 100.0000 100.0000 100.0000 100.0000 100.0000 100.0000 100.0000 100.0000 100.0000 100.0000 100.0000 100.0000 100.0000 100.0000 100.0000 100.0000 100.0000 100.0000 100.0000 100.0000 100.0000
100.0000 100.0000 100.0000 100.0000 100.0000 100.0000 100.0000 100.0000 100.0000 100.0000 100.0000 100.0000 100.0000 100.0000 100.0000 100.0000 100.0000 100.0000 100.0000 100.0000 100.0000 100.0000 100.0000 100.0000 100.0000 100.0000 100.0000 100.0000 100.0000 100.0000 100.0000 100.0000 100.0000 100.0000 100.0000 100.0000 100.0000 100.0000 100.0000 100.0000 100.0000 100.0000 100.0000 100.0000 100.0000 100.0000 100.0000 100.0000 100.0000 100.0000 100.0000 100.0000 100.0000 100.0000 100.0000 100.0000 100.0000 100.0000 100.0000 100.0000 100.0000 100.0000 100.0000 100.0000 100.0000 100.0000 100.0000 100.0000 100.0000 100.0000 100.0000 100.0000 100.0000 100.0000 100.0000 100.0000 100.0000 100.0000 100.0000 100.0000 100.0000 100.0000 100.0000 100.0000 100.0000 100.0000 100.0000 100.0000 100.0000 100.0000 100.0000 100.0000 100.0000 100.0000 100.0000 100.0000 100.0000 100.0000 100.0000 100.0000 100.0000 100.0000 100.0000 100.0000 100.0000 100.0000 100.0000 100.0000 100.0000 100.0000 100.0000 100.0000 100.0000 100.0000 100.0000 100.0000 100.0000 100.0000 100.0000 100.0000 100.0000 100.0000 100.0000 100.0000 100.0000 100.0000 100.0000 100.0000 100.0000 100.0000 100.0000 100.0000 100.0000 100.0000 100.0000 100.0000 100.0000 100.0000 100.0000 100.0000 100.0000 100.0000 100.0000 100.0000 100.0000 100.0000 100.0000 100.0000 100.0000 100.0000 100.0000 100.0000 100.0000 100.0000 100.0000 100.0000 100.0000 100.0000 100.0000 100.0000 100.0000 100.0000 100.0000 100.0000 100.0000 100.0000 100.0000 100.0000 100.0000 100.0000 100.0000 100.0000 100.0000 100.0000 100.0000 100.0000 100.0000 100.0000 100.0000 100.0000 100.0000 100.0000 100.0000 100.0000 100.0000 100.0000 100.0000 100.0000 100.0000 100.0000 100.0000 100.0000 100.0000 100.0000 100.0000 100.0000 100.0000 100.0000 100.0000 100.0000 100.0000 100.0000 100.0000 100.0000 100.0000 100.0000 100.0000 100.0000 100.0000 100.0000 100.0000 100.0000 100.0000 100.0000 100.0000 100.0000 100.0000 100.0000 100.0000 100.0000 100.0000 100.0000 100.0000 100.0000 100.0000 100.0000 100.0000 100.0000 100.0000 100.0000 100.0000 100.0000 100.0000 100.0000 100.0000 100.0000 100.0000 100.0000 100.0000 100.0000
100.0000 100.0000 100.0000 100.0000 100.0000 100.0000 100.0000 100.0000 100.0000 100.0000 100.0000 100.0000 100.0000 100.0000 100.0000 100.0000 100.0000 100.0000 100.0000 100.0000 100.0000 100.0000 100.0000 100.0000 100.0000 100.0000 100.0000 100.0000 100.0000 100.0000 100.0000 100.0000 100.0000 100.0000 100.0000 100.0000 100.0000 100.0000 100.0000 100.0000 100.0000 100.0000 100.0000 100.0000 100.0000 100.0000 100.0000 100.0000 100.0000 100.0000 100.0000 100.0000 100.0000 100.0000 100.0000 100.0000 100.0000 100.0000 100.0000 100.0000 100.0000 100.0000 100.0000 100.0000 100.0000 100.0000 100.0000 100.0000 100.0000 100.0000 100.0000 100.0000 100.0000 100.0000 100.0000 100.0000 100.0000 100.0000 100.0000 100.0000 100.0000 100.0000 100.0000 100.0000 100.0000 100.0000 100.0000 100.0000 100.0000 100.0000 100.0000 100.0000 100.0000 100.0000 100.0000 100.0000 100.0000 100.0000 100.0000 100.0000 100.0000 100.0000 100.0000 100.0000 100.0000 100.0000 100.0000 100.0000 100.0000 100.0000 100.0000 100.0000 100.0000 100.0000 100.0000 100.0000 100.0000 100.0000 100.0000 100.0000 100.0000 100.0000 100.0000 100.0000 100.0000 100.0000 100.0000 100.0000 100.0000 100.0000 100.0000 100.0000 100.0000 100.0000 100.0000 100.0000 100.0000 100.0000 100.0000 100.0000 100.0000 100.0000 100.0000 100.0000 100.0000 100.0000 100.0000 100.0000 100.0000 100.0000 100.0000 100.0000 100.0000 100.0000 100.0000 100.0000 100.0000 100.0000 100.0000 100.0000 100.0000 100.0000 100.0000 100.0000 100.0000 100.0000 100.0000 100.0000 100.0000 100.0000 100.0000 100.0000 100.0000 100.0000 100.0000 100.0000 100.0000 100.0000 100.0000 100.0000 100.0000 100.0000 100.0000 100.0000 100.0000 100.0000 100.0000 100.0000 100.0000 100.0000 100.0000 100.0000 100.0000 100.0000 100.0000 100.0000 100.0000 100.0000 100.0000 100.0000 100.0000 100.0000 100.0000 100.0000 100.0000 100.0000 100.0000 100.0000 100.0000 100.0000 100.0000 100.0000 100.0000 100.0000 100.0000 100.0000 100.0000 100.0000 100.0000 100.0000 100.0000 100.0000 100.0000 100.0000 100.0000 100.0000 100.0000 100.0000 100.0000 100.0000 100.0000 100.0000 100.0000 100.0000 100.0000 100.0000 100.0000 100.0000 100.0000 100.0000
100.0000 100.0000 100.0000 100.0000 100.0000 100.0000 100.0000 100.0000 100.0000 100.0000 100.0000 100.0000 100.0000 100.0000 100.0000 100.0000 100.0000 100.0000 100.0000 100.0000 100.0000 100.0000 100.0000 100.0000 100.0000 100.0000 100.0000 100.0000 100.0000 100.0000 100.0000 100.0000 100.0000 100.0000 100.0000 100.0000 100.0000 100.0000 100.0000 100.0000 100.0000 100.0000 100.0000 100.0000 100.0000 100.0000 100.0000 100.0000 100.0000 100.0000 100.0000 100.0000 100.0000 100.0000 100.0000 100.0000 100.0000 100.0000 100.0000 100.0000 100.0000 100.0000 100.0000 100.0000 100.0000 100.0000 100.0000 100.0000 100.0000 100.0000 100.0000 100.0000 100.0000 100.0000 100.0000 100.0000 100.0000 100.0000 100.0000 100.0000 100.0000 100.0000 100.0000 100.0000 100.0000 100.0000 100.0000 100.0000 100.0000 100.0000 100.0000 100.0000 100.0000 100.0000 100.0000 100.0000 100.0000 100.0000 100.0000 100.0000 100.0000 100.0000 100.0000 100.0000 100.0000 100.0000 100.0000 100.0000 100.0000 100.0000 100.0000 100.0000 100.0000 100.0000 100.0000 100.0000 100.0000 100.0000 100.0000 100.0000 100.0000 100.0000 100.0000 100.0000 100.0000 100.0000 100.0000 100.0000 100.0000 100.0000 100.0000 100.0000 100.0000 100.0000 100.0000 100.0000 100.0000 100.0000 100.0000 100.0000 100.0000 100.0000 100.0000 100.0000 100.0000 100.0000 100.0000 100.0000 100.0000 100.0000 100.0000 100.0000 100.0000 100.0000 100.0000 100.0000 100.0000 100.0000 100.0000 100.0000 100.0000 100.0000 100.0000 100.0000 100.0000 100.0000 100.0000 100.0000 100.0000 100.0000 100.0000 100.0000 100.0000 100.0000 100.0000 100.0000 100.0000 100.0000 100.0000 100.0000 100.0000 100.0000 100.0000 100.0000 100.0000 100.0000 100.0000 100.0000 100.0000 100.0000 100.0000 100.0000 100.0000 100.0000 100.0000 100.0000 100.0000 100.0000 100.0000 100.0000 100.0000 100.0000 100.0000 100.0000 100.0000 100.0000 100.0000 100.0000 100.0000 100.0000 100.0000 100.0000 100.0000 100.0000 100.0000 100.0000 100.0000 100.0000 100.0000 100.0000 100.0000 100.0000 100.0000 100.0000 100.0000 100.0000 100.0000 100.0000 100.0000 100.0000 100.0000 100.0000 100.0000 100.0000 100.0000 100.0000 100.0000 100.0000 100.0000 100.0000
100.0000 100.0000 100.0000 100.0000 100.0000 100.0000 100.0000 100.0000 100.0000 100.0000 100.0000 100.0000 100.0000 100.0000 100.0000 100.0000 100.0000 100.0000 100.0000 100.0000 100.0000 100.0000 100.0000 100.0000 100.0000 100.0000 100.0000 100.0000 100.0000 100.0000 100.0000 100.0000 100.0000 100.0000 100.0000 100.0000 100.0000 100.0000 100.0000 100.0000 100.0000 100.0000 100.0000 100.0000 100.0000 100.0000 100.0000 100.0000 100.0000 100.0000 100.0000 100.0000 100.0000 100.0000 100.0000 100.0000 100.0000 100.0000 100.0000 100.0000 100.0000 100.0000 100.0000 100.0000 100.0000 100.0000 100.0000 100.0000 100.0000 100.0000 100.0000 100.0000 100.0000 100.0000 100.0000 100.0000 100.0000 100.0000 100.0000 100.0000 100.0000 100.0000 100.0000 100.0000 100.0000 100.0000 100.0000 100.0000 100.0000 100.0000 100.0000 100.0000 100.0000 100.0000 100.0000 100.0000 100.0000 100.0000 100.0000 100.0000 100.0000 100.0000 100.0000 100.0000 100.0000 100.0000 100.0000 100.0000 100.0000 100.0000 100.0000 100.0000 100.0000 100.0000 100.0000 100.0000 100.0000 100.0000 100.0000 100.0000 100.0000 100.0000 100.0000 100.0000 100.0000 100.0000 100.0000 100.0000 100.0000 100.0000 100.0000 100.0000 100.0000 100.0000 100.0000 100.0000 100.0000 100.0000 100.0000 100.0000 100.0000 100.0000 100.0000 100.0000 100.0000 100.0000 100.0000 100.0000 100.0000 100.0000 100.0000 100.0000 100.0000 100.0000 100.0000 100.0000 100.0000 100.0000 100.0000 100.0000 100.0000 100.0000 100.0000 100.0000 100.0000 100.0000 100.0000 100.0000 100.0000 100.0000 100.0000 100.0000 100.0000 100.0000 100.0000 100.0000 100.0000 100.0000 100.0000 100.0000 100.0000 100.0000 100.0000 100.0000 100.0000 100.0000 100.0000 100.0000 100.0000 100.0000 100.0000 100.0000 100.0000 100.0000 100.0000 100.0000 100.0000 100.0000 100.0000 100.0000 100.0000 100.0000 100.0000 100.0000 100.0000 100.0000 100.0000 100.0000 100.0000 100.0000 100.0000 100.0000 100.0000 100.0000 100.0000 100.0000 100.0000 100.0000 100.0000 100.0000 100.0000 100.0000 100.0000 100.0000 100.0000 100.0000 100.0000 100.0000 100.0000 100.0000 100.0000 100.0000 100.0000 100.0000 100.0000 100.0000 100.0000 100.0000 100.0000 100.0000
100.0000 100.0000 100.0000 100.0000 100.0000 100.0000 100.0000 100.0000 100.0000 100.0000 100.0000 100.0000 100.0000 100.0000 100.0000 100.0000 100.0000 100.0000 100.0000 100.0000 100.0000 100.0000 100.0000 100.0000 100.0000 100.0000 100.0000 100.0000 100.0000 100.0000 100.0000 100.0000 100.0000 100.0000 100.0000 100.0000 100.0000 100.0000 100.0000 100.0000 100.0000 100.0000 100.0000 100.0000 100.0000 100.0000 100.0000 100.0000 100.0000 100.0000 100.0000 100.0000 100.0000 100.0000 100.0000 100.0000 100.0000 100.0000 100.0000 100.0000 100.0000 100.0000 100.0000 100.0000 100.0000 100.0000 100.0000 100.0000 100.0000 100.0000 100.0000 100.0000 100.0000 100.0000 100.0000 100.0000 100.0000 100.0000 100.0000 100.0000 100.0000 100.0000 100.0000 100.0000 100.0000 100.0000 100.0000 100.0000 100.0000 100.0000 100.0000 100.0000 100.0000 100.0000 100.0000 100.0000 100.0000 100.0000 100.0000 100.0000 100.0000 100.0000 100.0000 100.0000 100.0000 100.0000 100.0000 100.0000 100.0000 100.0000 100.0000 100.0000 100.0000 100.0000 100.0000 100.0000 100.0000 100.0000 100.0000 100.0000 100.0000 100.0000 100.0000 100.0000 100.0000 100.0000 100.0000 100.0000 100.0000 100.0000 100.0000 100.0000 100.0000 100.0000 100.0000 100.0000 100.0000 100.0000 100.0000 100.0000 100.0000 100.0000 100.0000 100.0000 100.0000 100.0000 100.0000 100.0000 100.0000 100.0000 100.0000 100.0000 100.0000 100.0000 100.0000 100.0000 100.0000 100.0000 100.0000 100.0000 100.0000 100.0000 100.0000 100.0000 100.0000 100.0000 100.0000 100.0000 100.0000 100.0000 100.0000 100.0000 100.0000 100.0000 100.0000 100.0000 100.0000 100.0000 100.0000 100.0000 100.0000 100.0000 100.0000 100.0000 100.0000 100.0000 100.0000 100.0000 100.0000 100.0000 100.0000 100.0000 100.0000 100.0000 100.0000 100.0000 100.0000 100.0000 100.0000 100.0000 100.0000 100.0000 100.0000 100.0000 100.0000 100.0000 100.0000 100.0000 100.0000 100.0000 100.0000 100.0000 100.0000 100.0000 100.0000 100.0000 100.0000 100.0000 100.0000 100.0000 100.0000 100.0000 100.0000 100.0000 100.0000 100.0000 100.0000 100.0000 100.0000 100.0000 100.0000 100.0000 100.0000 100.0000 100.0000 100.0000 100.0000 100.0000 100.0000 100.0000
100.0000 100.0000 100.0000 100.0000 100.0000 100.0000 100.0000 100.0000 100.0000 100.0000 100.0000 100.0000 100.0000 100.0000 100.0000 100.0000 100.0000 100.0000 100.0000 100.0000 100.0000 100.0000 100.0000 100.0000 100.0000 100.0000 100.0000 100.0000 100.0000 100.0000 100.0000 100.0000 100.0000 100.0000 100.0000 100.0000 100.0000 100.0000 100.0000 100.0000 100.0000 100.0000 100.0000 100.0000 100.0000 100.0000 100.0000 100.0000 100.0000 100.0000 100.0000 100.0000 100.0000 100.0000 100.0000 100.0000 100.0000 100.0000 100.0000 100.0000 100.0000 100.0000 100.0000 100.0000 100.0000 100.0000 100.0000 100.0000 100.0000 100.0000 100.0000 100.0000 100.0000 100.0000 100.0000 100.0000 100.0000 100.0000 100.0000 100.0000 100.0000 100.0000 100.0000 100.0000 100.0000 100.0000 100.0000 100.0000 100.0000 100.0000 100.0000 100.0000 100.0000 100.0000 100.0000 100.0000 100.0000 100.0000 100.0000 100.0000 100.0000 100.0000 100.0000 100.0000 100.0000 100.0000 100.0000 100.0000 100.0000 100.0000 100.0000 100.0000 100.0000 100.0000 100.0000 100.0000 100.0000 100.0000 100.0000 100.0000 100.0000 100.0000 100.0000 100.0000 100.0000 100.0000 100.0000 100.0000 100.0000 100.0000 100.0000 100.0000 100.0000 100.0000 100.0000 100.0000 100.0000 100.0000 100.0000 100.0000 100.0000 100.0000 100.0000 100.0000 100.0000 100.0000 100.0000 100.0000 100.0000 100.0000 100.0000 100.0000 100.0000 100.0000 100.0000 100.0000 100.0000 100.0000 100.0000 100.0000 100.0000 100.0000 100.0000 100.0000 100.0000 100.0000 100.0000 100.0000 100.0000 100.0000 100.0000 100.0000 100.0000 100.0000 100.0000 100.0000 100.0000 100.0000 100.0000 100.0000 100.0000 100.0000 100.0000 100.0000 100.0000 100.0000 100.0000 100.0000 100.0000 100.0000 100.0000 100.0000 100.0000 100.0000 100.0000 100.0000 100.0000 100.0000 100.0000 100.0000 100.0000 100.0000 100.0000 100.0000 100.0000 100.0000 100.0000 100.0000 100.0000 100.0000 100.0000 100.0000 100.0000 100.0000 100.0000 100.0000 100.0000 100.0000 100.0000 100.0000 100.0000 100.0000 100.0000 100.0000 100.0000 100.0000 100.0000 100.0000 100.0000 100.0000 100.0000 100.0000 100.0000 100.0000 100.0000 100.0000 100.0000 100.0000 100.0000 100.0000
100.0000 100.0000 100.0000 100.0000 100.0000 100.0000 100.0000 100.0000 100.0000 100.0000 100.0000 100.0000 100.0000 100.0000 100.0000 100.0000 100.0000 100.0000 100.0000 100.0000 100.0000 100.0000 100.0000 100.0000 100.0000 100.0000 100.0000 100.0000 100.0000 100.0000 100.0000 100.0000 100.0000 100.0000 100.0000 100.0000 100.0000 100.0000 100.0000 100.0000 100.0000 100.0000 100.0000 100.0000 100.0000 100.0000 100.0000 100.0000 100.0000 100.0000 100.0000 100.0000 100.0000 100.0000 100.0000 100.0000 100.0000 100.0000 100.0000 100.0000 100.0000 100.0000 100.0000 100.0000 100.0000 100.0000 100.0000 100.0000 100.0000 100.0000 100.0000 100.0000 100.0000 100.0000 100.0000 100.0000 100.0000 100.0000 100.0000 100.0000 100.0000 100.0000 100.0000 100.0000 100.0000 100.0000 100.0000 100.0000 100.0000 100.0000 100.0000 100.0000 100.0000 100.0000 100.0000 100.0000 100.0000 100.0000 100.0000 100.0000 100.0000 100.0000 100.0000 100.0000 100.0000 100.0000 100.0000 100.0000 100.0000 100.0000 100.0000 100.0000 100.0000 100.0000 100.0000 100.0000 100.0000 100.0000 100.0000 100.0000 100.0000 100.0000 100.0000 100.0000 100.0000 100.0000 100.0000 100.0000 100.0000 100.0000 100.0000 100.0000 100.0000 100.0000 100.0000 100.0000 100.0000 100.0000 100.0000 100.0000 100.0000 100.0000 100.0000 100.0000 100.0000 100.0000 100.0000 100.0000 100.0000 100.0000 100.0000 100.0000 100.0000 100.0000 100.0000 100.0000 100.0000 100.0000 100.0000 100.0000 100.0000 100.0000 100.0000 100.0000 100.0000 100.0000 100.0000 100.0000 100.0000 100.0000 100.0000 100.0000 100.0000 100.0000 100.0000 100.0000 100.0000 100.0000 100.0000 100.0000 100.0000 100.0000 100.0000 100.0000 100.0000 100.0000 100.0000 100.0000 100.0000 100.0000 100.0000 100.0000 100.0000 100.0000 100.0000 100.0000 100.0000 100.0000 100.0000 100.0000 100.0000 100.0000 100.0000 100.0000 100.0000 100.0000 100.0000 100.0000 100.0000 100.0000 100.0000 100.0000 100.0000 100.0000 100.0000 100.0000 100.0000 100.0000 100.0000 100.0000 100.0000 100.0000 100.0000 100.0000 100.0000 100.0000 100.0000 100.0000 100.0000 100.0000 100.0000 100.0000 100.0000 100.0000 100.0000 100.0000 100.0000 100.0000 100.0000 100.0000
100.0000 100.0000 100.0000 100.0000 100.0000 100.0000 100.0000 100.0000 100.0000 100.0000 100.0000 100.0000 100.0000 100.0000 100.0000 100.0000 100.0000 100.0000 100.0000 100.0000 100.0000 100.0000 100.0000 100.0000 100.0000 100.0000 100.0000 100.0000 100.0000 100.0000 100.0000 100.0000 100.0000 100.0000 100.0000 100.0000 100.0000 100.0000 100.0000 100.0000 100.0000 100.0000 100.0000 100.0000 100.0000 100.0000 100.0000 100.0000 100.0000 100.0000 100.0000 100.0000 100.0000 100.0000 100.0000 100.0000 100.0000 100.0000 100.0000 100.0000 100.0000 100.0000 100.0000 100.0000 100.0000 100.0000 100.0000 100.0000 100.0000 100.0000 100.0000 100.0000 100.0000 100.0000 100.0000 100.0000 100.0000 100.0000 100.0000 100.0000 100.0000 100.0000 100.0000 100.0000 100.0000 100.0000 100.0000 100.0000 100.0000 100.0000 100.0000 100.0000 100.0000 100.0000 100.0000 100.0000 100.0000 100.0000 100.0000 100.0000 100.0000 100.0000 100.0000 100.0000 100.0000 100.0000 100.0000 100.0000 100.0000 100.0000 100.0000 100.0000 100.0000 100.0000 100.0000 100.0000 100.0000 100.0000 100.0000 100.0000 100.0000 100.0000 100.0000 100.0000 100.0000 100.0000 100.0000 100.0000 100.0000 100.0000 100.0000 100.0000 100.0000 100.0000 100.0000 100.0000 100.0000 100.0000 100.0000 100.0000 100.0000 100.0000 100.0000 100.0000 100.0000 100.0000 100.0000 100.0000 100.0000 100.0000 100.0000 100.0000 100.0000 100.0000 100.0000 100.0000 100.0000 100.0000 100.0000 100.0000 100.0000 100.0000 100.0000 100.0000 100.0000 100.0000 100.0000 100.0000 100.0000 100.0000 100.0000 100.0000 100.0000 100.0000 100.0000 100.0000 100.0000 100.0000 100.0000 100.0000 100.0000 100.0000 100.0000 100.0000 100.0000 100.0000 100.0000 100.0000 100.0000 100.0000 100.0000 100.0000 100.0000 100.0000 100.0000 100.0000 100.0000 100.0000 100.0000 100.0000 100.0000 100.0000 100.0000 100.0000 100.0000 100.0000 100.0000 100.0000 100.0000 100.0000 100.0000 100.0000 100.0000 100.0000 100.0000 100.0000 100.0000 100.0000 100.0000 100.0000 100.0000 100.0000 100.0000 100.0000 100.0000 100.0000 100.0000 100.0000 100.0000 100.0000 100.0000 100.0000 100.0000 100.0000 100.0000 100.0000 100.0000 100.0000 100.0000 100.0000
100.0000 100.0000 100.0000 100.0000 100.0000 100.0000 100.0000 100.0000 100.0000 100.0000 100.0000 100.0000 100.0000 100.0000 100.0000 100.0000 100.0000 100.0000 100.0000 100.0000 100.0000 100.0000 100.0000 100.0000 100.0000 100.0000 100.0000 100.0000 100.0000 100.0000 100.0000 100.0000 100.0000 100.0000 100.0000 100.0000 100.0000 100.0000 100.0000 100.0000 100.0000 100.0000 100.0000 100.0000 100.0000 100.0000 100.0000 100.0000 100.0000 100.0000 100.0000 100.0000 100.0000 100.0000 100.0000 100.0000 100.0000 100.0000 100.0000 100.0000 100.0000 100.0000 100.0000 100.0000 100.0000 100.0000 100.0000 100.0000 100.0000 100.0000 100.0000 100.0000 100.0000 100.0000 100.0000 100.0000 100.0000 100.0000 100.0000 100.0000 100.0000 100.0000 100.0000 100.0000 100.0000 100.0000 100.0000 100.0000 100.0000 100.0000 100.0000 100.0000 100.0000 100.0000 100.0000 100.0000 100.0000 100.0000 100.0000 100.0000 100.0000 100.0000 100.0000 100.0000 100.0000 100.0000 100.0000 100.0000 100.0000 100.0000 100.0000 100.0000 100.0000 100.0000 100.0000 100.0000 100.0000 100.0000 100.0000 100.0000 100.0000 100.0000 100.0000 100.0000 100.0000 100.0000 100.0000 100.0000 100.0000 100.0000 100.0000 100.0000 100.0000 100.0000 100.0000 100.0000 100.0000 100.0000 100.0000 100.0000 100.0000 100.0000 100.0000 100.0000 100.0000 100.0000 100.0000 100.0000 100.0000 100.0000 100.0000 100.0000 100.0000 100.0000 100.0000 100.0000 100.0000 100.0000 100.0000 100.0000 100.0000 100.0000 100.0000 100.0000 100.0000 100.0000 100.0000 100.0000 100.0000 100.0000 100.0000 100.0000 100.0000 100.0000 100.0000 100.0000 100.0000 100.0000 100.0000 100.0000 100.0000 100.0000 100.0000 100.0000 100.0000 100.0000 100.0000 100.0000 100.0000 100.0000 100.0000 100.0000 100.0000 100.0000 100.0000 100.0000 100.0000 100.0000 100.0000 100.0000 100.0000 100.0000 100.0000 100.0000 100.0000 100.0000 100.0000 100.0000 100.0000 100.0000 100.0000 100.0000 100.0000 100.0000 100.0000 100.0000 100.0000 100.0000 100.0000 100.0000 100.0000 100.0000 100.0000 100.0000 100.0000 100.0000 100.0000 100.0000 100.0000 100.0000 100.0000 100.0000 100.0000 100.0000 100.0000 100.0000 100.0000 100.0000 100.0000 100.0000
100.0000 100.0000 100.0000 100.0000 100.0000 100.0000 100.0000 100.0000 100.0000 100.0000 100.0000 100.0000 100.0000 100.0000 100.0000 100.0000 100.0000 100.0000 100.0000 100.0000 100.0000 100.0000 100.0000 100.0000 100.0000 100.0000 100.0000 100.0000 100.0000 100.0000 100.0000 100.0000 100.0000 100.0000 100.0000 100.0000 100.0000 100.0000 100.0000 100.0000 100.0000 100.0000 100.0000 100.0000 100.0000 100.0000 100.0000 100.0000 100.0000 100.0000 100.0000 100.0000 100.0000 100.0000 100.0000 100.0000 100.0000 100.0000 100.0000 100.0000 100.0000 100.0000 100.0000 100.0000 100.0000 100.0000 100.0000 100.0000 100.0000 100.0000 100.0000 100.0000 100.0000 100.0000 100.0000 100.0000 100.0000 100.0000 100.0000 100.0000 100.0000 100.0000 100.0000 100.0000 100.0000 100.0000 100.0000 100.0000 100.0000 100.0000 100.0000 100.0000 100.0000 100.0000 100.0000 100.0000 100.0000 100.0000 100.0000 100.0000 100.0000 100.0000 100.0000 100.0000 100.0000 100.0000 100.0000 100.0000 100.0000 100.0000 100.0000 100.0000 100.0000 100.0000 100.0000 100.0000 100.0000 100.0000 100.0000 100.0000 100.0000 100.0000 100.0000 100.0000 100.0000 100.0000 100.0000 100.0000 100.0000 100.0000 100.0000 100.0000 100.0000 100.0000 100.0000 100.0000 100.0000 100.0000 100.0000 100.0000 100.0000 100.0000 100.0000 100.0000 100.0000 100.0000 100.0000 100.0000 100.0000 100.0000 100.0000 100.0000 100.0000 100.0000 100.0000 100.0000 100.0000 100.0000 100.0000 100.0000 100.0000 100.0000 100.0000 100.0000 100.0000 100.0000 100.0000 100.0000 100.0000 100.0000 100.0000 100.0000 100.0000 100.0000 100.0000 100.0000 100.0000 100.0000 100.0000 100.0000 100.0000 100.0000 100.0000 100.0000 100.0000 100.0000 100.0000 100.0000 100.0000 100.0000 100.0000 100.0000 100.0000 100.0000 100.0000 100.0000 100.0000 100.0000 100.0000 100.0000 100.0000 100.0000 100.0000 100.0000 100.0000 100.0000 100.0000 100.0000 100.0000 100.0000 100.0000 100.0000 100.0000 100.0000 100.0000 100.0000 100.0000 100.0000 100.0000 100.0000 100.0000 100.0000 100.0000 100.0000 100.0000 100.0000 100.0000 100.0000 100.0000 100.0000 100.0000 100.0000 100.0000 100.0000 100.0000 100.0000 100.0000 100.0000 100.0000 100.0000
100.0000 100.0000 100.0000 100.0000 100.0000 100.0000 100.0000 100.0000 100.0000 100.0000 100.0000 100.0000 100.0000 100.0000 100.0000 100.0000 100.0000 100.0000 100.0000 100.0000 100.0000 100.0000 100.0000 100.0000 100.0000 100.0000 100.0000 100.0000 100.0000 100.0000 100.0000 100.0000 100.0000 100.0000 100.0000 100.0000 100.0000 100.0000 100.0000 100.0000 100.0000 100.0000 100.0000 100.0000 100.0000 100.0000 100.0000 100.0000 100.0000 100.0000 100.0000 100.0000 100.0000 100.0000 100.0000 100.0000 100.0000 100.0000 100.0000 100.0000 100.0000 100.0000 100.0000 100.0000 100.0000 100.0000 100.0000 100.0000 100.0000 100.0000 100.0000 100.0000 100.0000 100.0000 100.0000 100.0000 100.0000 100.0000 100.0000 100.0000 100.0000 100.0000 100.0000 100.0000 100.0000 100.0000 100.0000 100.0000 100.0000 100.0000 100.0000 100.0000 100.0000 100.0000 100.0000 100.0000 100.0000 100.0000 100.0000 100.0000 100.0000 100.0000 100.0000 100.0000 100.0000 100.0000 100.0000 100.0000 100.0000 100.0000 99.9972 99.9917 99.9870 99.9827 99.9792 99.9762 99.9737 99.9720 99.9707 99.9702 99.9702 99.9707 99.9720 99.9737 99.9762 99.9792 99.9827 99.9870 99.9917 99.9972 100.0000 100.0000 100.0000 100.0000 100.0000 100.0000 100.0000 100.0000 100.0000 100.0000 100.0000 100.0000 100.0000 100.0000 100.0000 100.0000 100.0000 100.0000 100.0000 100.0000 100.0000 100.0000 100.0000 100.0000 100.0000 100.0000 100.0000 100.0000 100.0000 100.0000 100.0000 100.0000 100.0000 100.0000 100.0000 100.0000 100.0000 100.0000 100.0000 100.0000 100.0000 100.0000 100.0000 100.0000 100.0000 100.0000 100.0000 100.0000 100.0000 100.0000 100.0000 100.0000 100.0000 100.0000 100.0000 100.0000 100.0000 100.0000 100.0000 100.0000 100.0000 100.0000 100.0000 100.0000 100.0000 100.0000 100.0000 100.0000 100.0000 100.0000 100.0000 100.0000 100.0000 100.0000 100.0000 100.0000 100.0000 100.0000 100.0000 100.0000 100.0000 100.0000 100.0000 100.0000 100.0000 100.0000 100.0000 100.0000 100.0000 100.0000 100.0000 100.0000 100.0000 100.0000 100.0000 100.0000 100.0000 100.0000 100.0000 100.0000 100.0000 100.0000 100.0000 100.0000 100.0000 100.0000 100.0000 100.0000 100.0000 100.0000
100.0000 100.0000 100.0000 100.0000 100.0000 100.0000 100.0000 100.0000 100.0000 100.0000 100.0000 100.0000 100.0000 100.0000 100.0000 100.0000 100.0000 100.0000 100.0000 100.0000 100.0000 100.0000 100.0000 100.0000 100.0000 100.0000 100.0000 100.0000 100.0000 100.0000 100.0000 100.0000 100.0000 100.0000 100.0000 100.0000 100.0000 100.0000 100.0000 100.0000 100.0000 100.0000 100.0000 100.0000 100.0000 100.0000 100.0000 100.0000 100.0000 100.0000 100.0000 100.0000 100.0000 100.0000 100.0000 100.0000 100.0000 100.0000 100.0000 100.0000 100.0000 100.0000 100.0000 100.0000 100.0000 100.0000 100.0000 100.0000 100.0000 100.0000 100.0000 100.0000 100.0000 100.0000 100.0000 100.0000 100.0000 100.0000 100.0000 100.0000 100.0000 100.0000 100.0000 100.0000 100.0000 100.0000 100.0000 100.0000 100.0000 100.0000 100.0000 100.0000 100.0000 100.0000 100.0000 100.0000 100.0000 100.0000 100.0000 100.0000 100.0000 100.0000 100.0000 99.9924 99.9827 99.9737 99.9654 99.9575 99.9504 99.9437 99.9377 99.9323 99.9275 99.9233 99.9197 99.9167 99.9143 99.9125 99.9113 99.9107 99.9107 99.9113 99.9125 99.9143 99.9167 99.9197 99.9233 99.9275 99.9323 99.9377 99.9437 99.9504 99.9575 99.9654 99.9737 99.9827 99.9924 100.0000 100.0000 100.0000 100.0000 100.0000 100.0000 100.0000 100.0000 100.0000 100.0000 100.0000 100.0000 100.0000 100.0000 100.0000 100.0000 100.0000 100.0000 100.0000 100.0000 100.0000 100.0000 100.0000 100.0000 100.0000 100.0000 100.0000 100.0000 100.0000 100.0000 100.0000 100.0000 100.0000 100.0000 100.0000 100.0000 100.0000 100.0000 100.0000 100.0000 100.0000 100.0000 100.0000 100.0000 100.0000 100.0000 100.0000 100.0000 100.0000 100.0000 100.0000 100.0000 100.0000 100.0000 100.0000 100.0000 100.0000 100.0000 100.0000 100.0000 100.0000 100.0000 100.0000 100.0000 100.0000 100.0000 100.0000 100.0000 100.0000 100.0000 100.0000 100.0000 100.0000 100.0000 100.0000 100.0000 100.0000 100.0000 100.0000 100.0000 100.0000 100.0000 100.0000 100.0000 100.0000 100.0000 100.0000 100.0000 100.0000 100.0000 100.0000 100.0000 100.0000 100.0000 100.0000 100.0000 100.0000 100.0000 100.0000 100.0000 100.0000 100.0000 100.0000
100.0000 100.0000 100.0000 100.0000 100.0000 100.0000 100.0000 100.0000 100.0000 100.0000 100.0000 100.0000 100.0000 100.0000 100.0000 100.0000 100.0000 100.0000 100.0000 100.0000 100.0000 100.0000 100.0000 100.0000 100.0000 100.0000 100.0000 100.0000 100.0000 100.0000 100.0000 100.0000 100.0000 100.0000 100.0000 100.0000 100.0000 100.0000 100.0000 100.0000 100.0000 100.0000 100.0000 100.0000 100.0000 100.0000 100.0000 100.0000 100.0000 100.0000 100.0000 100.0000 100.0000 100.0000 100.0000 100.0000 100.0000 100.0000 100.0000 100.0000 100.0000 100.0000 100.0000 100.0000 100.0000 100.0000 100.0000 100.0000 100.0000 100.0000 100.0000 100.0000 100.0000 100.0000 100.0000 100.0000 100.0000 100.0000 100.0000 100.0000 100.0000 100.0000 100.0000 100.0000 100.0000 100.0000 100.0000 100.0000 100.0000 100.0000 100.0000 100.0000 100.0000 100.0000 100.0000 100.0000 100.0000 100.0000 99.9905 99.9779 99.9660 99.9545 99.9437 99.9335 99.9240 99.9150 99.9065 99.8988 99.8915 99.8850 99.8790 99.8735 99.8688 99.8645 99.8610 99.8580 99.8555 99.8538 99.8525 99.8520 99.8520 99.8525 99.8538 99.8555 99.8580 99.8610 99.8645 99.8688 99.8735 99.8790 99.8850 99.8915 99.8988 99.9065 99.9150 99.9240 99.9335 99.9437 99.9545 99.9660 99.9779 99.9905 100.0000 100.0000 100.0000 100.0000 100.0000 100.0000 100.0000 100.0000 100.0000 100.0000 100.0000 100.0000 100.0000 100.0000 100.0000 100.0000 100.0000 100.0000 100.0000 100.0000 100.0000 100.0000 100.0000 100.0000 100.0000 100.0000 100.0000 100.0000 100.0000 100.0000 100.0000 100.0000 100.0000 100.0000 100.0000 100.0000 100.0000 100.0000 100.0000 100.0000 100.0000 100.0000 100.0000 100.0000 100.0000 100.0000 100.0000 100.0000 100.0000 100.0000 100.0000 100.0000 100.0000 100.0000 100.0000 100.0000 100.0000 100.0000 100.0000 100.0000 100.0000 100.0000 100.0000 100.0000 100.0000 100.0000 100.0000 100.0000 100.0000 100.0000 100.0000 100.0000 100.0000 100.0000 100.0000 100.0000 100.0000 100.0000 100.0000 100.0000 100.0000 100.0000 100.0000 100.0000 100.0000 100.0000 100.0000 100.0000 100.0000 100.0000 100.0000 100.0000 100.0000 100.0000 100.0000 100.0000 100.0000 100.0000
100.0000 100.0000 100.0000 100.0000 100.0000 100.0000 100.0000 100.0000 100.0000 100.0000 100.0000 100.0000 100.0000 100.0000 100.0000 100.0000 100.0000 100.0000 100.0000 100.0000 100.0000 100.0000 100.0000 100.0000 100.0000 100.0000 100.0000 100.0000 100.0000 100.0000 100.0000 100.0000 100.0000 100.0000 100.0000 100.0000 100.0000 100.0000 100.0000 100.0000 100.0000 100.0000 100.0000 100.0000 100.0000 100.0000 100.0000 100.0000 100.0000 100.0000 100.0000 100.0000 100.0000 100.0000 100.0000 100.0000 100.0000 100.0000 100.0000 100.0000 100.0000 100.0000 100.0000 100.0000 100.0000 100.0000 100.0000 100.0000 100.0000 100.0000 100.0000 100.0000 100.0000 100.0000 100.0000 100.0000 100.0000 100.0000 100.0000 100.0000 100.0000 100.0000 100.0000 100.0000 100.0000 100.0000 100.0000 100.0000 100.0000 100.0000 100.0000 100.0000 100.0000 100.0000 99.9887 99.9737 99.9594 99.9455 99.9323 99.9197 99.9077 99.8963 99.8855 99.8753 99.8658 99.8568 99.8483 99.8405 99.8333 99.8268 99.8208 99.8153 99.8106 99.8063 99.8028 99.7998 99.7973 99.7956 99.7943 99.7938 99.7938 99.7943 99.7956 99.7973 99.7998 99.8028 99.8063 99.8106 99.8153 99.8208 99.8268 99.8333 99.8405 99.8483 99.8568 99.8658 99.8753 99.8855 99.8963 99.9077 99.9197 99.9323 99.9455 99.9594 99.9737 99.9887 100.0000 100.0000 100.0000 100.0000 100.0000 100.0000 100.0000 100.0000 100.0000 100.0000 100.0000 100.0000 100.0000 100.0000 100.0000 100.0000 100.0000 100.0000 100.0000 100.0000 100.0000 100.0000 100.0000 100.0000 100.0000 100.0000 100.0000 100.0000 100.0000 100.0000 100.0000 100.0000 100.0000 100.0000 100.0000 100.0000 100.0000 100.0000 100.0000 100.0000 100.0000 100.0000 100.0000 100.0000 100.0000 100.0000 100.0000 100.0000 100.0000 100.0000 100.0000 100.0000 100.0000 100.0000 100.0000 100.0000 100.0000 100.0000 100.0000 100.0000 100.0000 100.0000 100.0000 100.0000 100.0000 100.0000 100.0000 100.0000 100.0000 100.0000 100.0000 100.0000 100.0000 100.0000 100.0000 100.0000 100.0000 100.0000 100.0000 100.0000 100.0000 100.0000 100.0000 100.0000 100.0000 100.0000 100.0000 100.0000 100.0000 100.0000 100.0000 100.0000 100.0000 100.0000
100.0000 100.0000 100.0000 100.0000 100.0000 100.0000 100.0000 100.0000 100.0000 100.0000 100.0000 100.0000 100.0000 100.0000 100.0000 100.0000 100.0000 100.0000 100.0000 100.0000 100.0000 100.0000 100.0000 100.0000 100.0000 100.0000 100.0000 100.0000 100.0000 100.0000 100.0000 100.0000 100.0000 100.0000 100.0000 100.0000 100.0000 100.0000 100.0000 100.0000 100.0000 100.0000 100.0000 100.0000 100.0000 100.0000 100.0000 100.0000 100.0000 100.0000 100.0000 100.0000 100.0000 100.0000 100.0000 100.0000 100.0000 100.0000 100.0000 100.0000 100.0000 100.0000 100.0000 100.0000 100.0000 100.0000 100.0000 100.0000 100.0000 100.0000 100.0000 100.0000 100.0000 100.0000 100.0000 100.0000 100.0000 100.0000 100.0000 100.0000 100.0000 100.0000 100.0000 100.0000 100.0000 100.0000 100.0000 100.0000 100.0000 100.0000 99.9972 99.9797 99.9630 99.9467 99.9312 99.9162 99.9018 99.8880 99.8748 99.8621 99.8501 99.8388 99.8280 99.8178 99.8081 99.7991 99.7908 99.7829 99.7758 99.7691 99.7631 99.7578 99.7529 99.7488 99.7451 99.7421 99.7398 99.7379 99.7368 99.7361 99.7361 99.7368 99.7379 99.7398 99.7421 99.7451 99.7488 99.7529 99.7578 99.7631 99.7691 99.7758 99.7829 99.7908 99.7991 99.8081 99.8178 99.8280 99.8388 99.8501 99.8621 99.8748 99.8880 99.9018 99.9162 99.9312 99.9467 99.9630 99.9797 99.9972 100.0000 100.0000 100.0000 100.0000 100.0000 100.0000 100.0000 100.0000 100.0000 100.0000 100.0000 100.0000 100.0000 100.0000 100.0000 100.0000 100.0000 100.0000 100.0000 100.0000 100.0000 100.0000 100.0000 100.0000 100.0000 100.0000 100.0000 100.0000 100.0000 100.0000 100.0000 100.0000 100.0000 100.0000 100.0000 100.0000 100.0000 100.0000 100.0000 100.0000 100.0000 100.0000 100.0000 100.0000 100.0000 100.0000 100.0000 100.0000 100.0000 100.0000 100.0000 100.0000 100.0000 100.0000 100.0000 100.0000 100.0000 100.0000 100.0000 100.0000 100.0000 100.0000 100.0000 100.0000 100.0000 100.0000 100.0000 100.0000 100.0000 100.0000 100.0000 100.0000 100.0000 100.0000 100.0000 100.0000 100.0000 100.0000 100.0000 100.0000 100.0000 100.0000 100.0000 100.0000 100.0000 100.0000 100.0000 100.0000 100.0000 100.0000
100.0000 100.0000 100.0000 100.0000 100.0000 100.0000 100.0000 100.0000 100.0000 100.0000 100.0000 100.0000 100.0000 100.0000 100.0000 100.0000 100.0000 100.0000 100.0000 100.0000 100.0000 100.0000 100.0000 100.0000 100.0000 100.0000 100.0000 100.0000 100.0000 100.0000 100.0000 100.0000 100.0000 100.0000 100.0000 100.0000 100.0000 100.0000 100.0000 100.0000 100.0000 100.0000 100.0000 100.0000 100.0000 100.0000 100.0000 100.0000 100.0000 100.0000 100.0000 100.0000 100.0000 100.0000 100.0000 100.0000 100.0000 100.0000 100.0000 100.0000 100.0000 100.0000 100.0000 100.0000 100.0000 100.0000 100.0000 100.0000 100.0000 100.0000 100.0000 100.0000 100.0000 100.0000 100.0000 100.0000 100.0000 100.0000 100.0000 100.0000 100.0000 100.0000 100.0000 100.0000 100.0000 100.0000 100.0000 99.9959 99.9767 99.9582 99.9402 99.9227 99.9060 99.8898 99.8742 99.8591 99.8448 99.8310 99.8178 99.8051 99.7931 99.7818 99.7709 99.7608 99.7511 99.7421 99.7338 99.7259 99.7188 99.7121 99.7061 99.7007 99.6959 99.6917 99.6882 99.6851 99.6827 99.6809 99.6797 99.6791 99.6791 99.6797 99.6809 99.6827 99.6851 99.6882 99.6917 99.6959 99.7007 99.7061 99.7121 99.7188 99.7259 99.7338 99.7421 99.7511 99.7608 99.7709 99.7818 99.7931 99.8051 99.8178 99.8310 99.8448 99.8591 99.8742 99.8898 99.9060 99.9227 99.9402 99.9582 99.9767 99.9959 100.0000 100.0000 100.0000 100.0000 100.0000 100.0000 100.0000 100.0000 100.0000 100.0000 100.0000 100.0000 100.0000 100.0000 100.0000 100.0000 100.0000 100.0000 100.0000 100.0000 100.0000 100.0000 100.0000 100.0000 100.0000 100.0000 100.0000 100.0000 100.0000 100.0000 100.0000 100.0000 100.0000 100.0000 100.0000 100.0000 100.0000 100.0000 100.0000 100.0000 100.0000 100.0000 100.0000 100.0000 100.0000 100.0000 100.0000 100.0000 100.0000 100.0000 100.0000 100.0000 100.0000 100.0000 100.0000 100.0000 100.0000 100.0000 100.0000 100.0000 100.0000 100.0000 100.0000 100.0000 100.0000 100.0000 100.0000 100.0000 100.0000 100.0000 100.0000 100.0000 100.0000 100.0000 100.0000 100.0000 100.0000 100.0000 100.0000 100.0000 100.0000 100.0000 100.0000 100.0000 100.0000 100.0000 100.0000
100.0000 100.0000 100.0000 100.0000 100.0000 100.0000 100.0000 100.0000 100.0000 100.0000 100.0000 100.0000 100.0000 100.0000 100.0000 100.0000 100.0000 100.0000 100.0000 100.0000 100.0000 100.0000 100.0000 100.0000 100.0000 100.0000 100.0000 100.0000 100.0000 100.0000 100.0000 100.0000 100.0000 100.0000 100.0000 100.0000 100.0000 100.0000 100.0000 100.0000 100.0000 100.0000 100.0000 100.0000 100.0000 100.0000 100.0000 100.0000 100.0000 100.0000 100.0000 100.0000 100.0000 100.0000 100.0000 100.0000 100.0000 100.0000 100.0000 100.0000 100.0000 100.0000 100.0000 100.0000 100.0000 100.0000 100.0000 100.0000 100.0000 100.0000 100.0000 100.0000 100.0000 100.0000 100.0000 100.0000 100.0000 100.0000 100.0000 100.0000 100.0000 100.0000 100.0000 100.0000 100.0000 99.9797 99.9594 99.9395 99.9203 99.9018 99.8838 99.8663 99.8495 99.8333 99.8178 99.8028 99.7883 99.7746 99.7613 99.7488 99.7368 99.7254 99.7146 99.7044 99.6947 99.6857 99.6774 99.6696 99.6624 99.6557 99.6497 99.6444 99.6395 99.6354 99.6317 99.6287 99.6264 99.6245 99.6234 99.6227 99.6227 99.6234 99.6245 99.6264 99.6287 99.6317 99.6354 99.6395 99.6444 99.6497 99.6557 99.6624 99.6696 99.6774 99.6857 99.6947 99.7044 99.7146 99.7254 99.7368 99.7488 99.7613 99.7746 99.7883 99.8028 99.8178 99.8333 99.8495 99.8663 99.8838 99.9018 99.9203 99.9395 99.9594 99.9797 100.0000 100.0000 100.0000 100.0000 100.0000 100.0000 100.0000 100.0000 100.0000 100.0000 100.0000 100.0000 100.0000 100.0000 100.0000 100.0000 100.0000 100.0000 100.0000 100.0000 100.0000 100.0000 100.0000 100.0000 100.0000 100.0000 100.0000 100.0000 100.0000 100.0000 100.0000 100.0000 100.0000 100.0000 100.0000 100.0000 100.0000 100.0000 100.0000 100.0000 100.0000 100.0000 100.0000 100.0000 100.0000 100.0000 100.0000 100.0000 100.0000 100.0000 100.0000 100.0000 100.0000 100.0000 100.0000 100.0000 100.0000 100.0000 100.0000 100.0000 100.0000 100.0000 100.0000 100.0000 100.0000 100.0000 100.0000 100.0000 100.0000 100.0000 100.0000 100.0000 100.0000 100.0000 100.0000 100.0000 100.0000 100.0000 100.0000 100.0000 100.0000 100.0000 100.0000 100.0000 100.0000
100.0000 100.0000 100.0000 100.0000 100.0000 100.0000 100.0000 100.0000 100.0000 100.0000 100.0000 100.0000 100.0000 100.0000 100.0000 100.0000 100.0000 100.0000 100.0000 100.0000 100.0000 100.0000 100.0000 100.0000 100.0000 100.0000 100.0000 100.0000 100.0000 100.0000 100.0000 100.0000 100.0000 100.0000 100.0000 100.0000 100.0000 100.0000 100.0000 100.0000 100.0000 100.0000 100.0000 100.0000 100.0000 100.0000 100.0000 100.0000 100.0000 100.0000 100.0000 100.0000 100.0000 100.0000 100.0000 100.0000 100.0000 100.0000 100.0000 100.0000 100.0000 100.0000 100.0000 100.0000 100.0000 100.0000 100.0000 100.0000 100.0000 100.0000 100.0000 100.0000 100.0000 100.0000 100.0000 100.0000 100.0000 100.0000 100.0000 100.0000 100.0000 100.0000 99.9887 99.9665 99.9450 99.9240 99.9035 99.8838 99.8645 99.8460 99.8280 99.8106 99.7938 99.7776 99.7619 99.7469 99.7326 99.7188 99.7056 99.6929 99.6809 99.6696 99.6587 99.6486 99.6389 99.6299 99.6215 99.6137 99.6065 99.6000 99.5940 99.5885 99.5837 99.5795 99.5760 99.5730 99.5705 99.5687 99.5675 99.5670 99.5670 99.5675 99.5687 99.5705 99.5730 99.5760 99.5795 99.5837 99.5885 99.5940 99.6000 99.6065 99.6137 99.6215 99.6299 99.6389 99.6486 99.6587 99.6696 99.6809 99.6929 99.7056 99.7188 99.7326 99.7469 99.7619 99.7776 99.7938 99.8106 99.8280 99.8460 99.8645 99.8838 99.9035 99.9240 99.9450 99.9665 99.9887 100.0000 100.0000 100.0000 100.0000 100.0000 100.0000 100.0000 100.0000 100.0000 100.0000 100.0000 100.0000 100.0000 100.0000 100.0000 100.0000 100.0000 100.0000 100.0000 100.0000 100.0000 100.0000 100.0000 100.0000 100.0000 100.0000 100.0000 100.0000 100.0000 100.0000 100.0000 100.0000 100.0000 100.0000 100.0000 100.0000 100.0000 100.0000 100.0000 100.0000 100.0000 100.0000 100.0000 100.0000 100.0000 100.0000 100.0000 100.0000 100.0000 100.0000 100.0000 100.0000 100.0000 100.0000 100.0000 100.0000 100.0000 100.0000 100.0000 100.0000 100.0000 100.0000 100.0000 100.0000 100.0000 100.0000 100.0000 100.0000 100.0000 100.0000 100.0000 100.0000 100.0000 100.0000 100.0000 100.0000 100.0000 100.0000 100.0000 100.0000 100.0000 100.0000
100.0000 100.0000 100.0000 100.0000 100.0000 100.0000 100.0000 100.0000 100.0000 100.0000 100.0000 100.0000 100.0000 100.0000 100.0000 100.0000 100.0000 100.0000 100.0000 100.0000 100.0000 100.0000 100.0000 100.0000 100.0000 100.0000 100.0000 100.0000 100.0000 100.0000 100.0000 100.0000 100.0000 100.0000 100.0000 100.0000 100.0000 100.0000 100.0000 100.0000 100.0000 100.0000 100.0000 100.0000 100.0000 100.0000 100.0000 100.0000 100.0000 100.0000 100.0000 100.0000 100.0000 100.0000 100.0000 100.0000 100.0000 100.0000 100.0000 100.0000 100.0000 100.0000 100.0000 100.0000 100.0000 100.0000 100.0000 100.0000 100.0000 100.0000 100.0000 100.0000 100.0000 100.0000 100.0000 100.0000 100.0000 100.0000 100.0000 100.0000 99.9797 99.9564 99.9335 99.9113 99.8898 99.8688 99.8483 99.8286 99.8093 99.7908 99.7728 99.7553 99.7386 99.7224 99.7067 99.6917 99.6774 99.6636 99.6504 99.6377 99.6257 99.6144 99.6035 99.5934 99.5837 99.5747 99.5663 99.5585 99.5513 99.5447 99.5387 99.5333 99.5285 99.5243 99.5208 99.5178 99.5153 99.5135 99.5123 99.5118 99.5118 99.5123 99.5135 99.5153 99.5178 99.5208 99.5243 99.5285 99.5333 99.5387 99.5447 99.5513 99.5585 99.5663 99.5747 99.5837 99.5934 99.6035 99.6144 99.6257 99.6377 99.6504 99.6636 99.6774 99.6917 99.7067 99.7224 99.7386 99.7553 99.7728 99.7908 99.8093 99.8286 99.8483 99.8688 99.8898 99.9113 99.9335 99.9564 99.9797 100.0000 100.0000 100.0000 100.0000 100.0000 100.0000 100.0000 100.0000 100.0000 100.0000 100.0000 100.0000 100.0000 100.0000 100.0000 100.0000 100.0000 100.0000 100.0000 100.0000 100.0000 100.0000 100.0000 100.0000 100.0000 100.0000 100.0000 100.0000 100.0000 100.0000 100.0000 100.0000 100.0000 100.0000 100.0000 100.0000 100.0000 100.0000 100.0000 100.0000 100.0000 100.0000 100.0000 100.0000 100.0000 100.0000 100.0000 100.0000 100.0000 100.0000 100.0000 100.0000 100.0000 100.0000 100.0000 100.0000 100.0000 100.0000 100.0000 100.0000 100.0000 100.0000 100.0000 100.0000 100.0000 100.0000 100.0000 100.0000 100.0000 100.0000 100.0000 100.0000 100.0000 100.0000 100.0000 100.0000 100.0000 100.0000 100.0000 100.0000
100.0000 100.0000 100.0000 100.0000 100.0000 100.0000 100.0000 100.0000 100.0000 100.0000 100.0000 100.0000 100.0000 100.0000 100.0000 100.0000 100.0000 100.0000 100.0000 100.0000 100.0000 100.0000 100.0000 100.0000 100.0000 100.0000 100.0000 100.0000 100.0000 100.0000 100.0000 100.0000 100.0000 100.0000 100.0000 100.0000 100.0000 100.0000 100.0000 100.0000 100.0000 100.0000 100.0000 100.0000 100.0000 100.0000 100.0000 100.0000 100.0000 100.0000 100.0000 100.0000 100.0000 100.0000 100.0000 100.0000 100.0000 100.0000 100.0000 100.0000 100.0000 100.0000 100.0000 100.0000 100.0000 100.0000 100.0000 100.0000 100.0000 100.0000 100.0000 100.0000 100.0000 100.0000 100.0000 100.0000 100.0000 99.9989 99.9737 99.9492 99.9252 99.9018 99.8790 99.8568 99.8351 99.8141 99.7938 99.7739 99.7548 99.7361 99.7181 99.7007 99.6839 99.6677 99.6522 99.6372 99.6227 99.6089 99.5957 99.5832 99.5712 99.5597 99.5490 99.5387 99.5292 99.5202 99.5118 99.5040 99.4968 99.4901 99.4841 99.4788 99.4740 99.4698 99.4661 99.4631 99.4608 99.4590 99.4578 99.4571 99.4571 99.4578 99.4590 99.4608 99.4631 99.4661 99.4698 99.4740 99.4788 99.4841 99.4901 99.4968 99.5040 99.5118 99.5202 99.5292 99.5387 99.5490 99.5597 99.5712 99.5832 99.5957 99.6089 99.6227 99.6372 99.6522 99.6677 99.6839 99.7007 99.7181 99.7361 99.7548 99.7739 99.7938 99.8141 99.8351 99.8568 99.8790 99.9018 99.9252 99.9492 99.9737 99.9989 100.0000 100.0000 100.0000 100.0000 100.0000 100.0000 100.0000 100.0000 100.0000 100.0000 100.0000 100.0000 100.0000 100.0000 100.0000 100.0000 100.0000 100.0000 100.0000 100.0000 100.0000 100.0000 100.0000 100.0000 100.0000 100.0000 100.0000 100.0000 100.0000 100.0000 100.0000 100.0000 100.0000 100.0000 100.0000 100.0000 100.0000 100.0000 100.0000 100.0000 100.0000 100.0000 100.0000 100.0000 100.0000 100.0000 100.0000 100.0000 100.0000 100.0000 100.0000 100.0000 100.0000 100.0000 100.0000 100.0000 100.0000 100.0000 100.0000 100.0000 100.0000 100.0000 100.0000 100.0000 100.0000 100.0000 100.0000 100.0000 100.0000 100.0000 100.0000 100.0000 100.0000 100.0000 100.0000 100.0000 100.0000
100.0000 100.0000 100.0000 100.0000 100.0000 100.0000 100.0000 100.0000 100.0000 100.0000 100.0000 100.0000 100.0000 100.0000 100.0000 100.0000 100.0000 100.0000 100.0000 100.0000 100.0000 100.0000 100.0000 100.0000 100.0000 100.0000 100.0000 100.0000 100.0000 100.0000 100.0000 100.0000 100.0000 100.0000 100.0000 100.0000 100.0000 100.0000 100.0000 100.0000 100.0000 100.0000 100.0000 100.0000 100.0000 100.0000 100.0000 100.0000 100.0000 100.0000 100.0000 100.0000 100.0000 100.0000 100.0000 100.0000 100.0000 100.0000 100.0000 100.0000 100.0000 100.0000 100.0000 100.0000 100.0000 100.0000 100.0000 100.0000 100.0000 100.0000 100.0000 100.0000 100.0000 100.0000 100.0000 99.9972 99.9707 99.9450 99.9197 99.8952 99.8712 99.8478 99.8250 99.8028 99.7811 99.7601 99.7398 99.7199 99.7007 99.6822 99.6642 99.6467 99.6299 99.6137 99.5982 99.5832 99.5687 99.5550 99.5417 99.5292 99.5172 99.5058 99.4950 99.4848 99.4751 99.4661 99.4578 99.4500 99.4428 99.4361 99.4301 99.4248 99.4200 99.4158 99.4121 99.4091 99.4068 99.4049 99.4038 99.4031 99.4031 99.4038 99.4049 99.4068 99.4091 99.4121 99.4158 99.4200 99.4248 99.4301 99.4361 99.4428 99.4500 99.4578 99.4661 99.4751 99.4848 99.4950 99.5058 99.5172 99.5292 99.5417 99.5550 99.5687 99.5832 99.5982 99.6137 99.6299 99.6467 99.6642 99.6822 99.7007 99.7199 99.7398 99.7601 99.7811 99.8028 99.8250 99.8478 99.8712 99.8952 99.9197 99.9450 99.9707 99.9972 100.0000 100.0000 100.0000 100.0000 100.0000 100.0000 100.0000 100.0000 100.0000 100.0000 100.0000 100.0000 100.0000 100.0000 100.0000 100.0000 100.0000 100.0000 100.0000 100.0000 100.0000 100.0000 100.0000 100.0000 100.0000 100.0000 100.0000 100.0000 100.0000 100.0000 100.0000 100.0000 100.0000 100.0000 100.0000 100.0000 100.0000 100.0000 100.0000 100.0000 100.0000 100.0000 100.0000 100.0000 100.0000 100.0000 100.0000 100.0000 100.0000 100.0000 100.0000 100.0000 100.0000 100.0000 100.0000 100.0000 100.0000 100.0000 100.0000 100.0000 100.0000 100.0000 100.0000 100.0000 100.0000 100.0000 100.0000 100.0000 100.0000 100.0000 100.0000 100.0000 100.0000 100.0000 100.0000
100.0000 100.0000 100.0000 100.0000 100.0000 100.0000 100.0000 100.0000 100.0000 100.0000 100.0000 100.0000 100.0000 100.0000 100.0000 100.0000 100.0000 100.0000 100.0000 100.0000 100.0000 100.0000 100.0000 100.0000 100.0000 100.0000 100.0000 100.0000 100.0000 100.0000 100.0000 100.0000 100.0000 100.0000 100.0000 100.0000 100.0000 100.0000 100.0000 100.0000 100.0000 100.0000 100.0000 100.0000 100.0000 100.0000 100.0000 100.0000 100.0000 100.0000 100.0000 100.0000 100.0000 100.0000 100.0000 100.0000 100.0000 100.0000 100.0000 100.0000 100.0000 100.0000 100.0000 100.0000 100.0000 100.0000 100.0000 100.0000 100.0000 100.0000 100.0000 100.0000 100.0000 99.9984 99.9707 99.9437 99.9173 99.8915 99.8663 99.8418 99.8178 99.7943 99.7716 99.7493 99.7278 99.7067 99.6864 99.6666 99.6474 99.6287 99.6107 99.5934 99.5765 99.5603 99.5447 99.5298 99.5153 99.5015 99.4883 99.4758 99.4638 99.4523 99.4416 99.4313 99.4218 99.4128 99.4043 99.3966 99.3893 99.3828 99.3768 99.3714 99.3666 99.3624 99.3588 99.3558 99.3534 99.3516 99.3504 99.3498 99.3498 99.3504 99.3516 99.3534 99.3558 99.3588 99.3624 99.3666 99.3714 99.3768 99.3828 99.3893 99.3966 99.4043 99.4128 99.4218 99.4313 99.4416 99.4523 99.4638 99.4758 99.4883 99.5015 99.5153 99.5298 99.5447 99.5603 99.5765 99.5934 99.6107 99.6287 99.6474 99.6666 99.6864 99.7067 99.7278 99.7493 99.7716 99.7943 99.8178 99.8418 99.8663 99.8915 99.9173 99.9437 99.9707 99.9984 100.0000 100.0000 100.0000 100.0000 100.0000 100.0000 100.0000 100.0000 100.0000 100.0000 100.0000 100.0000 100.0000 100.0000 100.0000 100.0000 100.0000 100.0000 100.0000 100.0000 100.0000 100.0000 100.0000 100.0000 100.0000 100.0000 100.0000 100.0000 100.0000 100.0000 100.0000 100.0000 100.0000 100.0000 100.0000 100.0000 100.0000 100.0000 100.0000 100.0000 100.0000 100.0000 100.0000 100.0000 100.0000 100.0000 100.0000 100.0000 100.0000 100.0000 100.0000 100.0000 100.0000 100.0000 100.0000 100.0000 100.0000 100.0000 100.0000 100.0000 100.0000 100.0000 100.0000 100.0000 100.0000 100.0000 100.0000 100.0000 100.0000 100.0000 100.0000 100.0000 100.0000
100.0000 100.0000 100.0000 100.0000 100.0000 100.0000 100.0000 100.0000 100.0000 100.0000 100.0000 100.0000 100.0000 100.0000 100.0000 100.0000 100.0000 100.0000 100.0000 100.0000 100.0000 100.0000 100.0000 100.0000 100.0000 100.0000 100.0000 100.0000 100.0000 100.0000 100.0000 100.0000 100.0000 100.0000 100.0000 100.0000 100.0000 100.0000 100.0000 100.0000 100.0000 100.0000 100.0000 100.0000 100.0000 100.0000 100.0000 100.0000 100.0000 100.0000 100.0000 100.0000 100.0000 100.0000 100.0000 100.0000 100.0000 100.0000 100.0000 100.0000 100.0000 100.0000 100.0000 100.0000 100.0000 100.0000 100.0000 100.0000 100.0000 100.0000 100.0000 100.0000 99.9737 99.9455 99.9180 99.8910 99.8645 99.8388 99.8136 99.7889 99.7649 99.7416 99.7188 99.6966 99.6749 99.6539 99.6335 99.6137 99.5945 99.5760 99.5580 99.5405 99.5238 99.5075 99.4920 99.4770 99.4625 99.4488 99.4356 99.4230 99.4109 99.3996 99.3888 99.3786 99.3689 99.3599 99.3516 99.3438 99.3366 99.3299 99.3239 99.3186 99.3137 99.3096 99.3059 99.3029 99.3006 99.2987 99.2976 99.2969 99.2969 99.2976 99.2987 99.3006 99.3029 99.3059 99.3096 99.3137 99.3186 99.3239 99.3299 99.3366 99.3438 99.3516 99.3599 99.3689 99.3786 99.3888 99.3996 99.4109 99.4230 99.4356 99.4488 99.4625 99.4770 99.4920 99.5075 99.5238 99.5405 99.5580 99.5760 99.5945 99.6137 99.6335 99.6539 99.6749 99.6966 99.7188 99.7416 99.7649 99.7889 99.8136 99.8388 99.8645 99.8910 99.9180 99.9455 99.9737 100.0000 100.0000 100.0000 100.0000 100.0000 100.0000 100.0000 100.0000 100.0000 100.0000 100.0000 100.0000 100.0000 100.0000 100.0000 100.0000 100.0000 100.0000 100.0000 100.0000 100.0000 100.0000 100.0000 100.0000 100.0000 100.0000 100.0000 100.0000 100.0000 100.0000 100.0000 100.0000 100.0000 100.0000 100.0000 100.0000 100.0000 100.0000 100.0000 100.0000 100.0000 100.0000 100.0000 100.0000 100.0000 100.0000 100.0000 100.0000 100.0000 100.0000 100.0000 100.0000 100.0000 100.0000 100.0000 100.0000 100.0000 100.0000 100.0000 100.0000 100.0000 100.0000 100.0000 100.0000 100.0000 100.0000 100.0000 100.0000 100.0000 100.0000 100.0000 100.0000
100.0000 100.0000 100.0000 100.0000 100.0000 100.0000 100.0000 100.0000 100.0000 100.0000 100.0000 100.0000 100.0000 100.0000 100.0000 100.0000 100.0000 100.0000 100.0000 100.0000 100.0000 100.0000 100.0000 100.0000 100.0000 100.0000 100.0000 100.0000 100.0000 100.0000 100.0000 100.0000 100.0000 100.0000 100.0000 100.0000 100.0000 100.0000 100.0000 100.0000 100.0000 100.0000 100.0000 100.0000 100.0000 100.0000 100.0000 100.0000 100.0000 100.0000 100.0000 100.0000 100.0000 100.0000 100.0000 100.0000 100.0000 100.0000 100.0000 100.0000 100.0000 100.0000 100.0000 100.0000 100.0000 100.0000 100.0000 100.0000 100.0000 100.0000 99.9797 99.9504 99.9215 99.8933 99.8658 99.8388 99.8123 99.7866 99.7613 99.7368 99.7127 99.6894 99.6666 99.6444 99.6227 99.6017 99.5814 99.5615 99.5423 99.5238 99.5058 99.4883 99.4715 99.4553 99.4398 99.4248 99.4103 99.3966 99.3834 99.3708 99.3588 99.3474 99.3366 99.3264 99.3167 99.3077 99.2994 99.2916 99.2844 99.2777 99.2717 99.2664 99.2615 99.2574 99.2537 99.2507 99.2484 99.2465 99.2454 99.2447 99.2447 99.2454 99.2465 99.2484 99.2507 99.2537 99.2574 99.2615 99.2664 99.2717 99.2777 99.2844 99.2916 99.2994 99.3077 99.3167 99.3264 99.3366 99.3474 99.3588 99.3708 99.3834 99.3966 99.4103 99.4248 99.4398 99.4553 99.4715 99.4883 99.5058 99.5238 99.5423 99.5615 99.5814 99.6017 99.6227 99.6444 99.6666 99.6894 99.7127 99.7368 99.7613 99.7866 99.8123 99.8388 99.8658 99.8933 99.9215 99.9504 99.9797 100.0000 100.0000 100.0000 100.0000 100.0000 100.0000 100.0000 100.0000 100.0000 100.0000 100.0000 100.0000 100.0000 100.0000 100.0000 100.0000 100.0000 100.0000 100.0000 100.0000 100.0000 100.0000 100.0000 100.0000 100.0000 100.0000 100.0000 100.0000 100.0000 100.0000 100.0000 100.0000 100.0000 100.0000 100.0000 100.0000 100.0000 100.0000 100.0000 100.0000 100.0000 100.0000 100.0000 100.0000 100.0000 100.0000 100.0000 100.0000 100.0000 100.0000 100.0000 100.0000 100.0000 100.0000 100.0000 100.0000 100.0000 100.0000 100.0000 100.0000 100.0000 100.0000 100.0000 100.0000 100.0000 100.0000 100.0000 100.0000 100.0000 100.0000
100.0000 100.0000 100.0000 100.0000 100.0000 100.0000 100.0000 100.0000 100.0000 100.0000 100.0000 100.0000 100.0000 100.0000 100.0000 100.0000 100.0000 100.0000 100.0000 100.0000 100.0000 100.0000 100.0000 100.0000 100.0000 100.0000 100.0000 100.0000 100.0000 100.0000 100.0000 100.0000 100.0000 100.0000 100.0000 100.0000 100.0000 100.0000 100.0000 100.0000 100.0000 100.0000 100.0000 100.0000 100.0000 100.0000 100.0000 100.0000 100.0000 100.0000 100.0000 100.0000 100.0000 100.0000 100.0000 100.0000 100.0000 100.0000 100.0000 100.0000 100.0000 100.0000 100.0000 100.0000 100.0000 100.0000 100.0000 100.0000 99.9887 99.9582 99.9282 99.8988 99.8700 99.8418 99.8141 99.7871 99.7608 99.7349 99.7097 99.6851 99.6612 99.6377 99.6149 99.5927 99.5712 99.5502 99.5298 99.5100 99.4908 99.4721 99.4541 99.4368 99.4200 99.4038 99.3881 99.3731 99.3588 99.3449 99.3317 99.3191 99.3072 99.2957 99.2849 99.2747 99.2652 99.2562 99.2477 99.2399 99.2327 99.2262 99.2202 99.2147 99.2100 99.2057 99.2022 99.1992 99.1967 99.1950 99.1937 99.1932 99.1932 99.1937 99.1950 99.1967 99.1992 99.2022 99.2057 99.2100 99.2147 99.2202 99.2262 99.2327 99.2399 99.2477 99.2562 99.2652 99.2747 99.2849 99.2957 99.3072 99.3191 99.3317 99.3449 99.3588 99.3731 99.3881 99.4038 99.4200 99.4368 99.4541 99.4721 99.4908 99.5100 99.5298 99.5502 99.5712 99.5927 99.6149 99.6377 99.6612 99.6851 99.7097 99.7349 99.7608 99.7871 99.8141 99.8418 99.8700 99.8988 99.9282 99.9582 99.9887 100.0000 100.0000 100.0000 100.0000 100.0000 100.0000 100.0000 100.0000 100.0000 100.0000 100.0000 100.0000 100.0000 100.0000 100.0000 100.0000 100.0000 100.0000 100.0000 100.0000 100.0000 100.0000 100.0000 100.0000 100.0000 100.0000 100.0000 100.0000 100.0000 100.0000 100.0000 100.0000 100.0000 100.0000 100.0000 100.0000 100.0000 100.0000 100.0000 100.0000 100.0000 100.0000 100.0000 100.0000 100.0000 100.0000 100.0000 100.0000 100.0000 100.0000 100.0000 100.0000 100.0000 100.0000 100.0000 100.0000 100.0000 100.0000 100.0000 100.0000 100.0000 100.0000 100.0000 100.0000 100.0000 100.0000 100.0000 100.0000
100.0000 100.0000 100.0000 100.0000 100.0000 100.0000 100.0000 100.0000 100.0000 100.0000 100.0000 100.0000 100.0000 100.0000 100.0000 100.0000 100.0000 100.0000 100.0000 100.0000 100.0000 100.0000 100.0000 100.0000 100.0000 100.0000 100.0000 100.0000 100.0000 100.0000 100.0000 100.0000 100.0000 100.0000 100.0000 100.0000 100.0000 100.0000 100.0000 100.0000 100.0000 100.0000 100.0000 100.0000 100.0000 100.0000 100.0000 100.0000 100.0000 100.0000 100.0000 100.0000 100.0000 100.0000 100.0000 100.0000 100.0000 100.0000 100.0000 100.0000 100.0000 100.0000 100.0000 100.0000 100.0000 100.0000 100.0000 99.9690 99.9377 99.9072 99.8772 99.8478 99.8190 99.7908 99.7631 99.7361 99.7097 99.6839 99.6587 99.6342 99.6102 99.5867 99.5640 99.5417 99.5202 99.4992 99.4788 99.4590 99.4398 99.4211 99.4031 99.3858 99.3689 99.3528 99.3371 99.3221 99.3077 99.2939 99.2807 99.2682 99.2562 99.2447 99.2339 99.2237 99.2142 99.2052 99.1967 99.1890 99.1817 99.1752 99.1692 99.1637 99.1590 99.1548 99.1512 99.1482 99.1458 99.1440 99.1428 99.1422 99.1422 99.1428 99.1440 99.1458 99.1482 99.1512 99.1548 99.1590 99.1637 99.1692 99.1752 99.1817 99.1890 99.1967 99.2052 99.2142 99.2237 99.2339 99.2447 99.2562 99.2682 99.2807 99.2939 99.3077 99.3221 99.3371 99.3528 99.3689 99.3858 99.4031 99.4211 99.4398 99.4590 99.4788 99.4992 99.5202 99.5417 99.5640 99.5867 99.6102 99.6342 99.6587 99.6839 99.7097 99.7361 99.7631 99.7908 99.8190 99.8478 99.8772 99.9072 99.9377 99.9690 100.0000 100.0000 100.0000 100.0000 100.0000 100.0000 100.0000 100.0000 100.0000 100.0000 100.0000 100.0000 100.0000 100.0000 100.0000 100.0000 100.0000 100.0000 100.0000 100.0000 100.0000 100.0000 100.0000 100.0000 100.0000 100.0000 100.0000 100.0000 100.0000 100.0000 100.0000 100.0000 100.0000 100.0000 100.0000 100.0000 100.0000 100.0000 100.0000 100.0000 100.0000 100.0000 100.0000 100.0000 100.0000 100.0000 100.0000 100.0000 100.0000 100.0000 100.0000 100.0000 100.0000 100.0000 100.0000 100.0000 100.0000 100.0000 100.0000 100.0000 100.0000 100.0000 100.0000 100.0000 100.0000 100.0000 100.0000
100.0000 100.0000 100.0000 100.0000 100.0000 100.0000 100.0000 100.0000 100.0000 100.0000 100.0000 100.0000 100.0000 100.0000 100.0000 100.0000 100.0000 100.0000 100.0000 100.0000 100.0000 100.0000 100.0000 100.0000 100.0000 100.0000 100.0000 100.0000 100.0000 100.0000 100.0000 100.0000 100.0000 100.0000 100.0000 100.0000 100.0000 100.0000 100.0000 100.0000 100.0000 100.0000 100.0000 100.0000 100.0000 100.0000 100.0000 100.0000 100.0000 100.0000 100.0000 100.0000 100.0000 100.0000 100.0000 100.0000 100.0000 100.0000 100.0000 100.0000 100.0000 100.0000 100.0000 100.0000 100.0000 99.9827 99.9504 99.9185 99.8873 99.8568 99.8268 99.7973 99.7686 99.7404 99.7127 99.6857 99.6594 99.6335 99.6084 99.5837 99.5597 99.5363 99.5135 99.4913 99.4698 99.4488 99.4283 99.4086 99.3893 99.3708 99.3528 99.3354 99.3186 99.3024 99.2867 99.2717 99.2574 99.2435 99.2304 99.2177 99.2057 99.1944 99.1835 99.1733 99.1637 99.1548 99.1463 99.1385 99.1313 99.1248 99.1188 99.1133 99.1085 99.1043 99.1008 99.0978 99.0953 99.0935 99.0923 99.0918 99.0918 99.0923 99.0935 99.0953 99.0978 99.1008 99.1043 99.1085 99.1133 99.1188 99.1248 99.1313 99.1385 99.1463 99.1548 99.1637 99.1733 99.1835 99.1944 99.2057 99.2177 99.2304 99.2435 99.2574 99.2717 99.2867 99.3024 99.3186 99.3354 99.3528 99.3708 99.3893 99.4086 99.4283 99.4488 99.4698 99.4913 99.5135 99.5363 99.5597 99.5837 99.6084 99.6335 99.6594 99.6857 99.7127 99.7404 99.7686 99.7973 99.8268 99.8568 99.8873 99.9185 99.9504 99.9827 100.0000 100.0000 100.0000 100.0000 100.0000 100.0000 100.0000 100.0000 100.0000 100.0000 100.0000 100.0000 100.0000 100.0000 100.0000 100.0000 100.0000 100.0000 100.0000 100.0000 100.0000 100.0000 100.0000 100.0000 100.0000 100.0000 100.0000 100.0000 100.0000 100.0000 100.0000 100.0000 100.0000 100.0000 100.0000 100.0000 100.0000 100.0000 100.0000 100.0000 100.0000 100.0000 100.0000 100.0000 100.0000 100.0000 100.0000 100.0000 100.0000 100.0000 100.0000 100.0000 100.0000 100.0000 100.0000 100.0000 100.0000 100.0000 100.0000 100.0000 100.0000 100.0000 100.0000 100.0000 100.0000
100.0000 100.0000 100.0000 100.0000 100.0000 100.0000 100.0000 100.0000 100.0000 100.0000 100.0000 100.0000 100.0000 100.0000 100.0000 100.0000 100.0000 100.0000 100.0000 100.0000 100.0000 100.0000 100.0000 100.0000 100.0000 100.0000 100.0000 100.0000 100.0000 100.0000 100.0000 100.0000 100.0000 100.0000 100.0000 100.0000 100.0000 100.0000 100.0000 100.0000 100.0000 100.0000 100.0000 100.0000 100.0000 100.0000 100.0000 100.0000 100.0000 100.0000 100.0000 100.0000 100.0000 100.0000 100.0000 100.0000 100.0000 100.0000 100.0000 100.0000 100.0000 100.0000 100.0000 99.9995 99.9660 99.9330 99.9005 99.8688 99.8375 99.8070 99.7769 99.7476 99.7188 99.6906 99.6629 99.6359 99.6095 99.5837 99.5585 99.5340 99.5100 99.4865 99.4638 99.4416 99.4200 99.3989 99.3786 99.3588 99.3396 99.3209 99.3029 99.2856 99.2687 99.2525 99.2370 99.2220 99.2075 99.1937 99.1805 99.1680 99.1560 99.1445 99.1338 99.1235 99.1140 99.1050 99.0965 99.0888 99.0815 99.0750 99.0690 99.0636 99.0588 99.0546 99.0510 99.0480 99.0456 99.0438 99.0426 99.0419 99.0419 99.0426 99.0438 99.0456 99.0480 99.0510 99.0546 99.0588 99.0636 99.0690 99.0750 99.0815 99.0888 99.0965 99.1050 99.1140 99.1235 99.1338 99.1445 99.1560 99.1680 99.1805 99.1937 99.2075 99.2220 99.2370 99.2525 99.2687 99.2856 99.3029 99.3209 99.3396 99.3588 99.3786 99.3989 99.4200 99.4416 99.4638 99.4865 99.5100 99.5340 99.5585 99.5837 99.6095 99.6359 99.6629 99.6906 99.7188 99.7476 99.7769 99.8070 99.8375 99.8688 99.9005 99.9330 99.9660 99.9995 100.0000 100.0000 100.0000 100.0000 100.0000 100.0000 100.0000 100.0000 100.0000 100.0000 100.0000 100.0000 100.0000 100.0000 100.0000 100.0000 100.0000 100.0000 100.0000 100.0000 100.0000 100.0000 100.0000 100.0000 100.0000 100.0000 100.0000 100.0000 100.0000 100.0000 100.0000 100.0000 100.0000 100.0000 100.0000 100.0000 100.0000 100.0000 100.0000 100.0000 100.0000 100.0000 100.0000 100.0000 100.0000 100.0000 100.0000 100.0000 100.0000 100.0000 100.0000 100.0000 100.0000 100.0000 100.0000 100.0000 100.0000 100.0000 100.0000 100.0000 100.0000 100.0000 100.0000
100.0000 100.0000 100.0000 100.0000 100.0000 100.0000 100.0000 100.0000 100.0000 100.0000 100.0000 100.0000 100.0000 100.0000 100.0000 100.0000 100.0000 100.0000 100.0000 100.0000 100.0000 100.0000 100.0000 100.0000 100.0000 100.0000 100.0000 100.0000 100.0000 100.0000 100.0000 100.0000 100.0000 100.0000 100.0000 100.0000 100.0000 100.0000 100.0000 100.0000 100.0000 100.0000 100.0000 100.0000 100.0000 100.0000 100.0000 100.0000 100.0000 100.0000 100.0000 100.0000 100.0000 100.0000 100.0000 100.0000 100.0000 100.0000 100.0000 100.0000 100.0000 100.0000 99.9845 99.9504 99.9167 99.8838 99.8513 99.8196 99.7883 99.7578 99.7278 99.6984 99.6696 99.6414 99.6137 99.5867 99.5603 99.5345 99.5093 99.4848 99.4608 99.4373 99.4146 99.3923 99.3708 99.3498 99.3294 99.3096 99.2904 99.2717 99.2537 99.2364 99.2195 99.2034 99.1877 99.1727 99.1583 99.1445 99.1313 99.1188 99.1068 99.0953 99.0846 99.0743 99.0648 99.0558 99.0473 99.0396 99.0323 99.0258 99.0198 99.0143 99.0096 99.0053 99.0018 98.9988 98.9964 98.9946 98.9934 98.9928 98.9928 98.9934 98.9946 98.9964 98.9988 99.0018 99.0053 99.0096 99.0143 99.0198 99.0258 99.0323 99.0396 99.0473 99.0558 99.0648 99.0743 99.0846 99.0953 99.1068 99.1188 99.1313 99.1445 99.1583 99.1727 99.1877 99.2034 99.2195 99.2364 99.2537 99.2717 99.2904 99.3096 99.3294 99.3498 99.3708 99.3923 99.4146 99.4373 99.4608 99.4848 99.5093 99.5345 99.5603 99.5867 99.6137 99.6414 99.6696 99.6984 99.7278 99.7578 99.7883 99.8196 99.8513 99.8838 99.9167 99.9504 99.9845 100.0000 100.0000 100.0000 100.0000 100.0000 100.0000 100.0000 100.0000 100.0000 100.0000 100.0000 100.0000 100.0000 100.0000 100.0000 100.0000 100.0000 100.0000 100.0000 100.0000 100.0000 100.0000 100.0000 100.0000 100.0000 100.0000 100.0000 100.0000 100.0000 100.0000 100.0000 100.0000 100.0000 100.0000 100.0000 100.0000 100.0000 100.0000 100.0000 100.0000 100.0000 100.0000 100.0000 100.0000 100.0000 100.0000 100.0000 100.0000 100.0000 100.0000 100.0000 100.0000 100.0000 100.0000 100.0000 100.0000 100.0000 100.0000 100.0000 100.0000 100.0000 100.0000
100.0000 100.0000 100.0000 100.0000 100.0000 100.0000 100.0000 100.0000 100.0000 100.0000 100.0000 100.0000 100.0000 100.0000 100.0000 100.0000 100.0000 100.0000 100.0000 100.0000 100.0000 100.0000 100.0000 100.0000 100.0000 100.0000 100.0000 100.0000 100.0000 100.0000 100.0000 100.0000 100.0000 100.0000 100.0000 100.0000 100.0000 100.0000 100.0000 100.0000 100.0000 100.0000 100.0000 100.0000 100.0000 100.0000 100.0000 100.0000 100.0000 100.0000 100.0000 100.0000 100.0000 100.0000 100.0000 100.0000 100.0000 100.0000 100.0000 100.0000 100.0000 99.9707 99.9360 99.9018 99.8681 99.8351 99.8028 99.7709 99.7398 99.7091 99.6791 99.6497 99.6209 99.5927 99.5652 99.5382 99.5118 99.4860 99.4608 99.4361 99.4121 99.3888 99.3659 99.3438 99.3221 99.3012 99.2807 99.2609 99.2417 99.2232 99.2052 99.1877 99.1710 99.1548 99.1392 99.1242 99.1098 99.0960 99.0828 99.0701 99.0581 99.0468 99.0359 99.0258 99.0161 99.0071 98.9988 98.9909 98.9838 98.9771 98.9711 98.9657 98.9609 98.9567 98.9531 98.9501 98.9477 98.9459 98.9447 98.9441 98.9441 98.9447 98.9459 98.9477 98.9501 98.9531 98.9567 98.9609 98.9657 98.9711 98.9771 98.9838 98.9909 98.9988 99.0071 99.0161 99.0258 99.0359 99.0468 99.0581 99.0701 99.0828 99.0960 99.1098 99.1242 99.1392 99.1548 99.1710 99.1877 99.2052 99.2232 99.2417 99.2609 99.2807 99.3012 99.3221 99.3438 99.3659 99.3888 99.4121 99.4361 99.4608 99.4860 99.5118 99.5382 99.5652 99.5927 99.6209 99.6497 99.6791 99.7091 99.7398 99.7709 99.8028 99.8351 99.8681 99.9018 99.9360 99.9707 100.0000 100.0000 100.0000 100.0000 100.0000 100.0000 100.0000 100.0000 100.0000 100.0000 100.0000 100.0000 100.0000 100.0000 100.0000 100.0000 100.0000 100.0000 100.0000 100.0000 100.0000 100.0000 100.0000 100.0000 100.0000 100.0000 100.0000 100.0000 100.0000 100.0000 100.0000 100.0000 100.0000 100.0000 100.0000 100.0000 100.0000 100.0000 100.0000 100.0000 100.0000 100.0000 100.0000 100.0000 100.0000 100.0000 100.0000 100.0000 100.0000 100.0000 100.0000 100.0000 100.0000 100.0000 100.0000 100.0000 100.0000 100.0000 100.0000 100.0000 100.0000
100.0000 100.0000 100.0000 100.0000 100.0000 100.0000 100.0000 100.0000 100.0000 100.0000 100.0000 100.0000 100.0000 100.0000 100.0000 100.0000 100.0000 100.0000 100.0000 100.0000 100.0000 100.0000 100.0000 100.0000 100.0000 100.0000 100.0000 100.0000 100.0000 100.0000 100.0000 100.0000 100.0000 100.0000 100.0000 100.0000 100.0000 100.0000 100.0000 100.0000 100.0000 100.0000 100.0000 100.0000 100.0000 100.0000 100.0000 100.0000 100.0000 100.0000 100.0000 100.0000 100.0000 100.0000 100.0000 100.0000 100.0000 100.0000 100.0000 99.9942 99.9582 99.9227 99.8880 99.8538 99.8201 99.7871 99.7548 99.7229 99.6917 99.6612 99.6312 99.6017 99.5730 99.5447 99.5172 99.4901 99.4638 99.4380 99.4128 99.3881 99.3641 99.3407 99.3179 99.2957 99.2742 99.2532 99.2327 99.2130 99.1937 99.1752 99.1572 99.1398 99.1230 99.1068 99.0911 99.0761 99.0618 99.0480 99.0348 99.0221 99.0101 98.9988 98.9879 98.9778 98.9681 98.9591 98.9507 98.9429 98.9357 98.9291 98.9232 98.9177 98.9129 98.9087 98.9052 98.9022 98.8997 98.8979 98.8967 98.8962 98.8962 98.8967 98.8979 98.8997 98.9022 98.9052 98.9087 98.9129 98.9177 98.9232 98.9291 98.9357 98.9429 98.9507 98.9591 98.9681 98.9778 98.9879 98.9988 99.0101 99.0221 99.0348 99.0480 99.0618 99.0761 99.0911 99.1068 99.1230 99.1398 99.1572 99.1752 99.1937 99.2130 99.2327 99.2532 99.2742 99.2957 99.3179 99.3407 99.3641 99.3881 99.4128 99.4380 99.4638 99.4901 99.5172 99.5447 99.5730 99.6017 99.6312 99.6612 99.6917 99.7229 99.7548 99.7871 99.8201 99.8538 99.8880 99.9227 99.9582 99.9942 100.0000 100.0000 100.0000 100.0000 100.0000 100.0000 100.0000 100.0000 100.0000 100.0000 100.0000 100.0000 100.0000 100.0000 100.0000 100.0000 100.0000 100.0000 100.0000 100.0000 100.0000 100.0000 100.0000 100.0000 100.0000 100.0000 100.0000 100.0000 100.0000 100.0000 100.0000 100.0000 100.0000 100.0000 100.0000 100.0000 100.0000 100.0000 100.0000 100.0000 100.0000 100.0000 100.0000 100.0000 100.0000 100.0000 100.0000 100.0000 100.0000 100.0000 100.0000 100.0000 100.0000 100.0000 100.0000 100.0000 100.0000 100.0000 100.0000
100.0000 100.0000 100.0000 100.0000 100.0000 100.0000 100.0000 100.0000 100.0000 100.0000 100.0000 100.0000 100.0000 100.0000 100.0000 100.0000 100.0000 100.0000 100.0000 100.0000 100.0000 100.0000 100.0000 100.0000 100.0000 100.0000 100.0000 100.0000 100.0000 100.0000 100.0000 100.0000 100.0000 100.0000 100.0000 100.0000 100.0000 100.0000 100.0000 100.0000 100.0000 100.0000 100.0000 100.0000 100.0000 100.0000 100.0000 100.0000 100.0000 100.0000 100.0000 100.0000 100.0000 100.0000 100.0000 100.0000 100.0000 100.0000 99.9834 99.9467 99.9107 99.8753 99.8405 99.8063 99.7728 99.7398 99.7074 99.6756 99.6444 99.6137 99.5837 99.5543 99.5255 99.4973 99.4698 99.4428 99.4163 99.3906 99.3654 99.3407 99.3167 99.2934 99.2706 99.2484 99.2267 99.2057 99.1853 99.1655 99.1463 99.1278 99.1098 99.0923 99.0755 99.0593 99.0438 99.0288 99.0143 99.0006 98.9874 98.9748 98.9627 98.9514 98.9406 98.9304 98.9207 98.9117 98.9034 98.8956 98.8884 98.8817 98.8757 98.8704 98.8655 98.8614 98.8577 98.8547 98.8524 98.8505 98.8494 98.8487 98.8487 98.8494 98.8505 98.8524 98.8547 98.8577 98.8614 98.8655 98.8704 98.8757 98.8817 98.8884 98.8956 98.9034 98.9117 98.9207 98.9304 98.9406 98.9514 98.9627 98.9748 98.9874 99.0006 99.0143 99.0288 99.0438 99.0593 99.0755 99.0923 99.1098 99.1278 99.1463 99.1655 99.1853 99.2057 99.2267 99.2484 99.2706 99.2934 99.3167 99.3407 99.3654 99.3906 99.4163 99.4428 99.4698 99.4973 99.5255 99.5543 99.5837 99.6137 99.6444 99.6756 99.7074 99.7398 99.7728 99.8063 99.8405 99.8753 99.9107 99.9467 99.9834 100.0000 100.0000 100.0000 100.0000 100.0000 100.0000 100.0000 100.0000 100.0000 100.0000 100.0000 100.0000 100.0000 100.0000 100.0000 100.0000 100.0000 100.0000 100.0000 100.0000 100.0000 100.0000 100.0000 100.0000 100.0000 100.0000 100.0000 100.0000 100.0000 100.0000 100.0000 100.0000 100.0000 100.0000 100.0000 100.0000 100.0000 100.0000 100.0000 100.0000 100.0000 100.0000 100.0000 100.0000 100.0000 100.0000 100.0000 100.0000 100.0000 100.0000 100.0000 100.0000 100.0000 100.0000 100.0000 100.0000 100.0000 100.0000
100.0000 100.0000 100.0000 100.0000 100.0000 100.0000 100.0000 100.0000 100.0000 100.0000 100.0000 100.0000 100.0000 100.0000 100.0000 100.0000 100.0000 100.0000 100.0000 100.0000 100.0000 100.0000 100.0000 100.0000 100.0000 100.0000 100.0000 100.0000 100.0000 100.0000 100.0000 100.0000 100.0000 100.0000 100.0000 100.0000 100.0000 100.0000 100.0000 100.0000 100.0000 100.0000 100.0000 100.0000 100.0000 100.0000 100.0000 100.0000 100.0000 100.0000 100.0000 100.0000 100.0000 100.0000 100.0000 100.0000 100.0000 99.9737 99.9365 99.9000 99.8640 99.8286 99.7938 99.7596 99.7259 99.6929 99.6606 99.6287 99.5975 99.5670 99.5370 99.5075 99.4788 99.4505 99.4230 99.3959 99.3696 99.3438 99.3186 99.2939 99.2699 99.2465 99.2237 99.2015 99.1800 99.1590 99.1385 99.1188 99.0995 99.0810 99.0630 99.0456 99.0288 99.0126 98.9969 98.9819 98.9676 98.9537 98.9406 98.9279 98.9159 98.9046 98.8937 98.8835 98.8739 98.8649 98.8565 98.8487 98.8415 98.8350 98.8290 98.8235 98.8187 98.8145 98.8110 98.8080 98.8055 98.8037 98.8025 98.8020 98.8020 98.8025 98.8037 98.8055 98.8080 98.8110 98.8145 98.8187 98.8235 98.8290 98.8350 98.8415 98.8487 98.8565 98.8649 98.8739 98.8835 98.8937 98.9046 98.9159 98.9279 98.9406 98.9537 98.9676 98.9819 98.9969 99.0126 99.0288 99.0456 99.0630 99.0810 99.0995 99.1188 99.1385 99.1590 99.1800 99.2015 99.2237 99.2465 99.2699 99.2939 99.3186 99.3438 99.3696 99.3959 99.4230 99.4505 99.4788 99.5075 99.5370 99.5670 99.5975 99.6287 99.6606 99.6929 99.7259 99.7596 99.7938 99.8286 99.8640 99.9000 99.9365 99.9737 100.0000 100.0000 100.0000 100.0000 100.0000 100.0000 100.0000 100.0000 100.0000 100.0000 100.0000 100.0000 100.0000 100.0000 100.0000 100.0000 100.0000 100.0000 100.0000 100.0000 100.0000 100.0000 100.0000 100.0000 100.0000 100.0000 100.0000 100.0000 100.0000 100.0000 100.0000 100.0000 100.0000 100.0000 100.0000 100.0000 100.0000 100.0000 100.0000 100.0000 100.0000 100.0000 100.0000 100.0000 100.0000 100.0000 100.0000 100.0000 100.0000 100.0000 100.0000 100.0000 100.0000 100.0000 100.0000 100.0000 100.0000
100.0000 100.0000 100.0000 100.0000 100.0000 100.0000 100.0000 100.0000 100.0000 100.0000 100.0000 100.0000 100.0000 100.0000 100.0000 100.0000 100.0000 100.0000 100.0000 100.0000 100.0000 100.0000 100.0000 100.0000 100.0000 100.0000 100.0000 100.0000 100.0000 100.0000 100.0000 100.0000 100.0000 100.0000 100.0000 100.0000 100.0000 100.0000 100.0000 100.0000 100.0000 100.0000 100.0000 100.0000 100.0000 100.0000 100.0000 100.0000 100.0000 100.0000 100.0000 100.0000 100.0000 100.0000 100.0000 100.0000 99.9654 99.9275 99.8903 99.8538 99.8178 99.7823 99.7476 99.7134 99.6797 99.6467 99.6144 99.5825 99.5513 99.5208 99.4908 99.4613 99.4326 99.4043 99.3768 99.3498 99.3234 99.2976 99.2724 99.2477 99.2237 99.2004 99.1775 99.1553 99.1338 99.1128 99.0923 99.0726 99.0533 99.0348 99.0168 98.9994 98.9826 98.9664 98.9507 98.9357 98.9214 98.9076 98.8944 98.8817 98.8697 98.8584 98.8475 98.8374 98.8277 98.8187 98.8103 98.8025 98.7953 98.7887 98.7827 98.7773 98.7725 98.7683 98.7648 98.7618 98.7593 98.7575 98.7563 98.7558 98.7558 98.7563 98.7575 98.7593 98.7618 98.7648 98.7683 98.7725 98.7773 98.7827 98.7887 98.7953 98.8025 98.8103 98.8187 98.8277 98.8374 98.8475 98.8584 98.8697 98.8817 98.8944 98.9076 98.9214 98.9357 98.9507 98.9664 98.9826 98.9994 99.0168 99.0348 99.0533 99.0726 99.0923 99.1128 99.1338 99.1553 99.1775 99.2004 99.2237 99.2477 99.2724 99.2976 99.3234 99.3498 99.3768 99.4043 99.4326 99.4613 99.4908 99.5208 99.5513 99.5825 99.6144 99.6467 99.6797 99.7134 99.7476 99.7823 99.8178 99.8538 99.8903 99.9275 99.9654 100.0000 100.0000 100.0000 100.0000 100.0000 100.0000 100.0000 100.0000 100.0000 100.0000 100.0000 100.0000 100.0000 100.0000 100.0000 100.0000 100.0000 100.0000 100.0000 100.0000 100.0000 100.0000 100.0000 100.0000 100.0000 100.0000 100.0000 100.0000 100.0000 100.0000 100.0000 100.0000 100.0000 100.0000 100.0000 100.0000 100.0000 100.0000 100.0000 100.0000 100.0000 100.0000 100.0000 100.0000 100.0000 100.0000 100.0000 100.0000 100.0000 100.0000 100.0000 100.0000 100.0000 100.0000 100.0000 100.0000
100.0000 100.0000 100.0000 100.0000 100.0000 100.0000 100.0000 100.0000 100.0000 100.0000 100.0000 100.0000 100.0000 100.0000 100.0000 100.0000 100.0000 100.0000 100.0000 100.0000 100.0000 100.0000 100.0000 100.0000 100.0000 100.0000 100.0000 100.0000 100.0000 100.0000 100.0000 100.0000 100.0000 100.0000 100.0000 100.0000 100.0000 100.0000 100.0000 100.0000 100.0000 100.0000 100.0000 100.0000 100.0000 100.0000 100.0000 100.0000 100.0000 100.0000 100.0000 100.0000 100.0000 100.0000 99.9972 99.9582 99.9197 99.8820 99.8448 99.8081 99.7721 99.7368 99.7019 99.6677 99.6342 99.6012 99.5687 99.5370 99.5058 99.4751 99.4451 99.4158 99.3869 99.3588 99.3311 99.3041 99.2777 99.2519 99.2267 99.2022 99.1782 99.1548 99.1320 99.1098 99.0881 99.0671 99.0468 99.0269 99.0078 98.9891 98.9711 98.9537 98.9369 98.9207 98.9052 98.8902 98.8757 98.8620 98.8487 98.8362 98.8242 98.8127 98.8020 98.7917 98.7822 98.7732 98.7648 98.7570 98.7498 98.7431 98.7371 98.7318 98.7270 98.7228 98.7191 98.7161 98.7138 98.7120 98.7108 98.7101 98.7101 98.7108 98.7120 98.7138 98.7161 98.7191 98.7228 98.7270 98.7318 98.7371 98.7431 98.7498 98.7570 98.7648 98.7732 98.7822 98.7917 98.8020 98.8127 98.8242 98.8362 98.8487 98.8620 98.8757 98.8902 98.9052 98.9207 98.9369 98.9537 98.9711 98.9891 99.0078 99.0269 99.0468 99.0671 99.0881 99.1098 99.1320 99.1548 99.1782 99.2022 99.2267 99.2519 99.2777 99.3041 99.3311 99.3588 99.3869 99.4158 99.4451 99.4751 99.5058 99.5370 99.5687 99.6012 99.6342 99.6677 99.7019 99.7368 99.7721 99.8081 99.8448 99.8820 99.9197 99.9582 99.9972 100.0000 100.0000 100.0000 100.0000 100.0000 100.0000 100.0000 100.0000 100.0000 100.0000 100.0000 100.0000 100.0000 100.0000 100.0000 100.0000 100.0000 100.0000 100.0000 100.0000 100.0000 100.0000 100.0000 100.0000 100.0000 100.0000 100.0000 100.0000 100.0000 100.0000 100.0000 100.0000 100.0000 100.0000 100.0000 100.0000 100.0000 100.0000 100.0000 100.0000 100.0000 100.0000 100.0000 100.0000 100.0000 100.0000 100.0000 100.0000 100.0000 100.0000 100.0000 100.0000 100.0000 100.0000
100.0000 100.0000 100.0000 100.0000 100.0000 100.0000 100.0000 100.0000 100.0000 100.0000 100.0000 100.0000 100.0000 100.0000 100.0000 100.0000 100.0000 100.0000 100.0000 100.0000 100.0000 100.0000 100.0000 100.0000 100.0000 100.0000 100.0000 100.0000 100.0000 100.0000 100.0000 100.0000 100.0000 100.0000 100.0000 100.0000 100.0000 100.0000 100.0000 100.0000 100.0000 100.0000 100.0000 100.0000 100.0000 100.0000 100.0000 100.0000 100.0000 100.0000 100.0000 100.0000 100.0000 99.9917 99.9522 99.9132 99.8748 99.8370 99.7998 99.7631 99.7271 99.6917 99.6569 99.6227 99.5892 99.5562 99.5238 99.4920 99.4608 99.4301 99.4001 99.3708 99.3419 99.3137 99.2862 99.2592 99.2327 99.2070 99.1817 99.1572 99.1332 99.1098 99.0870 99.0648 99.0431 99.0221 99.0018 98.9819 98.9627 98.9441 98.9262 98.9087 98.8919 98.8757 98.8602 98.8452 98.8307 98.8170 98.8037 98.7912 98.7792 98.7678 98.7570 98.7468 98.7371 98.7281 98.7198 98.7120 98.7048 98.6981 98.6921 98.6868 98.6820 98.6778 98.6741 98.6711 98.6688 98.6669 98.6658 98.6651 98.6651 98.6658 98.6669 98.6688 98.6711 98.6741 98.6778 98.6820 98.6868 98.6921 98.6981 98.7048 98.7120 98.7198 98.7281 98.7371 98.7468 98.7570 98.7678 98.7792 98.7912 98.8037 98.8170 98.8307 98.8452 98.8602 98.8757 98.8919 98.9087 98.9262 98.9441 98.9627 98.9819 99.0018 99.0221 99.0431 99.0648 99.0870 99.1098 99.1332 99.1572 99.1817 99.2070 99.2327 99.2592 99.2862 99.3137 99.3419 99.3708 99.4001 99.4301 99.4608 99.4920 99.5238 99.5562 99.5892 99.6227 99.6569 99.6917 99.7271 99.7631 99.7998 99.8370 99.8748 99.9132 99.9522 99.9917 100.0000 100.0000 100.0000 100.0000 100.0000 100.0000 100.0000 100.0000 100.0000 100.0000 100.0000 100.0000 100.0000 100.0000 100.0000 100.0000 100.0000 100.0000 100.0000 100.0000 100.0000 100.0000 100.0000 100.0000 100.0000 100.0000 100.0000 100.0000 100.0000 100.0000 100.0000 100.0000 100.0000 100.0000 100.0000 100.0000 100.0000 100.0000 100.0000 100.0000 100.0000 100.0000 100.0000 100.0000 100.0000 100.0000 100.0000 100.0000 100.0000 100.0000 100.0000 100.0000 100.0000
100.0000 100.0000 100.0000 100.0000 100.0000 100.0000 100.0000 100.0000 100.0000 100.0000 100.0000 100.0000 100.0000 100.0000 100.0000 100.0000 100.0000 100.0000 100.0000 100.0000 100.0000 100.0000 100.0000 100.0000 100.0000 100.0000 100.0000 100.0000 100.0000 100.0000 100.0000 100.0000 100.0000 100.0000 100.0000 100.0000 100.0000 100.0000 100.0000 100.0000 100.0000 100.0000 100.0000 100.0000 100.0000 100.0000 100.0000 100.0000 100.0000 100.0000 100.0000 100.0000 99.9875 99.9474 99.9077 99.8688 99.8303 99.7926 99.7553 99.7188 99.6827 99.6474 99.6125 99.5784 99.5447 99.5118 99.4793 99.4476 99.4163 99.3858 99.3558 99.3264 99.2976 99.2694 99.2417 99.2147 99.1883 99.1625 99.1373 99.1128 99.0888 99.0653 99.0426 99.0203 98.9988 98.9778 98.9574 98.9376 98.9184 98.8997 98.8817 98.8644 98.8475 98.8314 98.8157 98.8007 98.7863 98.7725 98.7593 98.7468 98.7348 98.7233 98.7125 98.7023 98.6928 98.6838 98.6753 98.6676 98.6603 98.6538 98.6478 98.6423 98.6376 98.6334 98.6298 98.6268 98.6244 98.6226 98.6214 98.6208 98.6208 98.6214 98.6226 98.6244 98.6268 98.6298 98.6334 98.6376 98.6423 98.6478 98.6538 98.6603 98.6676 98.6753 98.6838 98.6928 98.7023 98.7125 98.7233 98.7348 98.7468 98.7593 98.7725 98.7863 98.8007 98.8157 98.8314 98.8475 98.8644 98.8817 98.8997 98.9184 98.9376 98.9574 98.9778 98.9988 99.0203 99.0426 99.0653 99.0888 99.1128 99.1373 99.1625 99.1883 99.2147 99.2417 99.2694 99.2976 99.3264 99.3558 99.3858 99.4163 99.4476 99.4793 99.5118 99.5447 99.5784 99.6125 99.6474 99.6827 99.7188 99.7553 99.7926 99.8303 99.8688 99.9077 99.9474 99.9875 100.0000 100.0000 100.0000 100.0000 100.0000 100.0000 100.0000 100.0000 100.0000 100.0000 100.0000 100.0000 100.0000 100.0000 100.0000 100.0000 100.0000 100.0000 100.0000 100.0000 100.0000 100.0000 100.0000 100.0000 100.0000 100.0000 100.0000 100.0000 100.0000 100.0000 100.0000 100.0000 100.0000 100.0000 100.0000 100.0000 100.0000 100.0000 100.0000 100.0000 100.0000 100.0000 100.0000 100.0000 100.0000 100.0000 100.0000 100.0000 100.0000 100.0000 100.0000 100.0000
100.0000 100.0000 100.0000 100.0000 100.0000 100.0000 100.0000 100.0000 100.0000 100.0000 100.0000 100.0000 100.0000 100.0000 100.0000 100.0000 100.0000 100.0000 100.0000 100.0000 100.0000 100.0000 100.0000 100.0000 100.0000 100.0000 100.0000 100.0000 100.0000 100.0000 100.0000 100.0000 100.0000 100.0000 100.0000 100.0000 100.0000 100.0000 100.0000 100.0000 100.0000 100.0000 100.0000 100.0000 100.0000 100.0000 100.0000 100.0000 100.0000 100.0000 100.0000 99.9845 99.9437 99.9035 99.8640 99.8250 99.7866 99.7488 99.7116 99.6749 99.6389 99.6035 99.5687 99.5345 99.5010 99.4680 99.4356 99.4038 99.3726 99.3419 99.3119 99.2826 99.2537 99.2255 99.1980 99.1710 99.1445 99.1188 99.0935 99.0690 99.0450 99.0216 98.9988 98.9766 98.9549 98.9339 98.9136 98.8937 98.8745 98.8560 98.8380 98.8205 98.8037 98.7875 98.7720 98.7570 98.7425 98.7288 98.7155 98.7030 98.6910 98.6796 98.6688 98.6586 98.6489 98.6399 98.6316 98.6238 98.6166 98.6099 98.6039 98.5986 98.5938 98.5896 98.5859 98.5829 98.5806 98.5787 98.5776 98.5769 98.5769 98.5776 98.5787 98.5806 98.5829 98.5859 98.5896 98.5938 98.5986 98.6039 98.6099 98.6166 98.6238 98.6316 98.6399 98.6489 98.6586 98.6688 98.6796 98.6910 98.7030 98.7155 98.7288 98.7425 98.7570 98.7720 98.7875 98.8037 98.8205 98.8380 98.8560 98.8745 98.8937 98.9136 98.9339 98.9549 98.9766 98.9988 99.0216 99.0450 99.0690 99.0935 99.1188 99.1445 99.1710 99.1980 99.2255 99.2537 99.2826 99.3119 99.3419 99.3726 99.4038 99.4356 99.4680 99.5010 99.5345 99.5687 99.6035 99.6389 99.6749 99.7116 99.7488 99.7866 99.8250 99.8640 99.9035 99.9437 99.9845 100.0000 100.0000 100.0000 100.0000 100.0000 100.0000 100.0000 100.0000 100.0000 100.0000 100.0000 100.0000 100.0000 100.0000 100.0000 100.0000 100.0000 100.0000 100.0000 100.0000 100.0000 100.0000 100.0000 100.0000 100.0000 100.0000 100.0000 100.0000 100.0000 100.0000 100.0000 100.0000 100.0000 100.0000 100.0000 100.0000 100.0000 100.0000 100.0000 100.0000 100.0000 100.0000 100.0000 100.0000 100.0000 100.0000 100.0000 100.0000 100.0000 100.0000 100.0000
100.0000 100.0000 100.0000 100.0000 100.0000 100.0000 100.0000 100.0000 100.0000 100.0000 100.0000 100.0000 100.0000 100.0000 100.0000 100.0000 100.0000 100.0000 100.0000 100.0000 100.0000 100.0000 100.0000 100.0000 100.0000 100.0000 100.0000 100.0000 100.0000 100.0000 100.0000 100.0000 100.0000 100.0000 100.0000 100.0000 100.0000 100.0000 100.0000 100.0000 100.0000 100.0000 100.0000 100.0000 100.0000 100.0000 100.0000 100.0000 100.0000 100.0000 99.9827 99.9413 99.9005 99.8603 99.8208 99.7818 99.7434 99.7056 99.6684 99.6317 99.5957 99.5603 99.5255 99.4913 99.4578 99.4248 99.3923 99.3606 99.3294 99.2987 99.2687 99.2394 99.2105 99.1823 99.1548 99.1278 99.1013 99.0755 99.0503 99.0258 99.0018 98.9784 98.9556 98.9334 98.9117 98.8907 98.8704 98.8505 98.8314 98.8127 98.7947 98.7773 98.7605 98.7443 98.7288 98.7138 98.6993 98.6856 98.6723 98.6598 98.6478 98.6363 98.6256 98.6154 98.6058 98.5968 98.5884 98.5806 98.5734 98.5667 98.5607 98.5554 98.5506 98.5464 98.5427 98.5397 98.5374 98.5356 98.5344 98.5337 98.5337 98.5344 98.5356 98.5374 98.5397 98.5427 98.5464 98.5506 98.5554 98.5607 98.5667 98.5734 98.5806 98.5884 98.5968 98.6058 98.6154 98.6256 98.6363 98.6478 98.6598 98.6723 98.6856 98.6993 98.7138 98.7288 98.7443 98.7605 98.7773 98.7947 98.8127 98.8314 98.8505 98.8704 98.8907 98.9117 98.9334 98.9556 98.9784 99.0018 99.0258 99.0503 99.0755 99.1013 99.1278 99.1548 99.1823 99.2105 99.2394 99.2687 99.2987 99.3294 99.3606 99.3923 99.4248 99.4578 99.4913 99.5255 99.5603 99.5957 99.6317 99.6684 99.7056 99.7434 99.7818 99.8208 99.8603 99.9005 99.9413 99.9827 100.0000 100.0000 100.0000 100.0000 100.0000 100.0000 100.0000 100.0000 100.0000 100.0000 100.0000 100.0000 100.0000 100.0000 100.0000 100.0000 100.0000 100.0000 100.0000 100.0000 100.0000 100.0000 100.0000 100.0000 100.0000 100.0000 100.0000 100.0000 100.0000 100.0000 100.0000 100.0000 100.0000 100.0000 100.0000 100.0000 100.0000 100.0000 100.0000 100.0000 100.0000 100.0000 100.0000 100.0000 100.0000 100.0000 100.0000 100.0000 100.0000 100.0000
100.0000 100.0000 100.0000 100.0000 100.0000 100.0000 100.0000 100.0000 100.0000 100.0000 100.0000 100.0000 100.0000 100.0000 100.0000 100.0000 100.0000 100.0000 100.0000 100.0000 100.0000 100.0000 100.0000 100.0000 100.0000 100.0000 100.0000 100.0000 100.0000 100.0000 100.0000 100.0000 100.0000 100.0000 100.0000 100.0000 100.0000 100.0000 100.0000 100.0000 100.0000 100.0000 100.0000 100.0000 100.0000 100.0000 100.0000 100.0000 100.0000 99.9822 99.9402 99.8988 99.8580 99.8178 99.7781 99.7391 99.7007 99.6629 99.6257 99.5892 99.5532 99.5178 99.4830 99.4488 99.4151 99.3821 99.3498 99.3179 99.2867 99.2562 99.2262 99.1967 99.1680 99.1398 99.1121 99.0851 99.0588 99.0329 99.0078 98.9831 98.9591 98.9357 98.9129 98.8907 98.8692 98.8482 98.8277 98.8080 98.7887 98.7702 98.7522 98.7348 98.7180 98.7018 98.6861 98.6711 98.6568 98.6429 98.6298 98.6171 98.6051 98.5938 98.5829 98.5727 98.5631 98.5541 98.5457 98.5379 98.5307 98.5242 98.5182 98.5127 98.5079 98.5037 98.5002 98.4972 98.4947 98.4929 98.4917 98.4912 98.4912 98.4917 98.4929 98.4947 98.4972 98.5002 98.5037 98.5079 98.5127 98.5182 98.5242 98.5307 98.5379 98.5457 98.5541 98.5631 98.5727 98.5829 98.5938 98.6051 98.6171 98.6298 98.6429 98.6568 98.6711 98.6861 98.7018 98.7180 98.7348 98.7522 98.7702 98.7887 98.8080 98.8277 98.8482 98.8692 98.8907 98.9129 98.9357 98.9591 98.9831 99.0078 99.0329 99.0588 99.0851 99.1121 99.1398 99.1680 99.1967 99.2262 99.2562 99.2867 99.3179 99.3498 99.3821 99.4151 99.4488 99.4830 99.5178 99.5532 99.5892 99.6257 99.6629 99.7007 99.7391 99.7781 99.8178 99.8580 99.8988 99.9402 99.9822 100.0000 100.0000 100.0000 100.0000 100.0000 100.0000 100.0000 100.0000 100.0000 100.0000 100.0000 100.0000 100.0000 100.0000 100.0000 100.0000 100.0000 100.0000 100.0000 100.0000 100.0000 100.0000 100.0000 100.0000 100.0000 100.0000 100.0000 100.0000 100.0000 100.0000 100.0000 100.0000 100.0000 100.0000 100.0000 100.0000 100.0000 100.0000 100.0000 100.0000 100.0000 100.0000 100.0000 100.0000 100.0000 100.0000 100.0000 100.0000 100.0000
100.0000 100.0000 100.0000 100.0000 100.0000 100.0000 100.0000 100.0000 100.0000 100.0000 100.0000 100.0000 100.0000 100.0000 100.0000 100.0000 100.0000 100.0000 100.0000 100.0000 100.0000 100.0000 100.0000 100.0000 100.0000 100.0000 100.0000 100.0000 100.0000 100.0000 100.0000 100.0000 100.0000 100.0000 100.0000 100.0000 100.0000 100.0000 100.0000 100.0000 100.0000 100.0000 100.0000 100.0000 100.0000 100.0000 100.0000 100.0000 99.9827 99.9402 99.8982 99.8568 99.8160 99.7758 99.7361 99.6971 99.6587 99.6209 99.5837 99.5472 99.5112 99.4758 99.4410 99.4068 99.3731 99.3401 99.3077 99.2759 99.2447 99.2142 99.1842 99.1548 99.1260 99.0978 99.0701 99.0431 99.0168 98.9909 98.9657 98.9411 98.9172 98.8937 98.8709 98.8487 98.8272 98.8062 98.7857 98.7660 98.7468 98.7281 98.7101 98.6928 98.6760 98.6598 98.6441 98.6291 98.6148 98.6009 98.5877 98.5751 98.5631 98.5517 98.5409 98.5307 98.5212 98.5122 98.5037 98.4959 98.4887 98.4822 98.4762 98.4707 98.4660 98.4617 98.4582 98.4552 98.4527 98.4510 98.4497 98.4492 98.4492 98.4497 98.4510 98.4527 98.4552 98.4582 98.4617 98.4660 98.4707 98.4762 98.4822 98.4887 98.4959 98.5037 98.5122 98.5212 98.5307 98.5409 98.5517 98.5631 98.5751 98.5877 98.6009 98.6148 98.6291 98.6441 98.6598 98.6760 98.6928 98.7101 98.7281 98.7468 98.7660 98.7857 98.8062 98.8272 98.8487 98.8709 98.8937 98.9172 98.9411 98.9657 98.9909 99.0168 99.0431 99.0701 99.0978 99.1260 99.1548 99.1842 99.2142 99.2447 99.2759 99.3077 99.3401 99.3731 99.4068 99.4410 99.4758 99.5112 99.5472 99.5837 99.6209 99.6587 99.6971 99.7361 99.7758 99.8160 99.8568 99.8982 99.9402 99.9827 100.0000 100.0000 100.0000 100.0000 100.0000 100.0000 100.0000 100.0000 100.0000 100.0000 100.0000 100.0000 100.0000 100.0000 100.0000 100.0000 100.0000 100.0000 100.0000 100.0000 100.0000 100.0000 100.0000 100.0000 100.0000 100.0000 100.0000 100.0000 100.0000 100.0000 100.0000 100.0000 100.0000 100.0000 100.0000 100.0000 100.0000 100.0000 100.0000 100.0000 100.0000 100.0000 100.0000 100.0000 100.0000 100.0000 100.0000 100.0000
100.0000 100.0000 100.0000 100.0000 100.0000 100.0000 100.0000 100.0000 100.0000 100.0000 100.0000 100.0000 100.0000 100.0000 100.0000 100.0000 100.0000 100.0000 100.0000 100.0000 100.0000 100.0000 100.0000 100.0000 100.0000 100.0000 100.0000 100.0000 100.0000 100.0000 100.0000 100.0000 100.0000 100.0000 100.0000 100.0000 100.0000 100.0000 100.0000 100.0000 100.0000 100.0000 100.0000 100.0000 100.0000 100.0000 100.0000 99.9845 99.9413 99.8988 99.8568 99.8153 99.7746 99.7344 99.6947 99.6557 99.6174 99.5795 99.5423 99.5058 99.4698 99.4343 99.3996 99.3654 99.3317 99.2987 99.2664 99.2345 99.2034 99.1727 99.1428 99.1133 99.0846 99.0563 99.0288 99.0018 98.9754 98.9496 98.9244 98.8997 98.8757 98.8524 98.8295 98.8073 98.7857 98.7648 98.7443 98.7245 98.7053 98.6868 98.6688 98.6513 98.6346 98.6184 98.6028 98.5877 98.5734 98.5596 98.5464 98.5337 98.5217 98.5104 98.4995 98.4894 98.4797 98.4707 98.4624 98.4545 98.4474 98.4407 98.4347 98.4293 98.4245 98.4203 98.4167 98.4137 98.4113 98.4095 98.4083 98.4077 98.4077 98.4083 98.4095 98.4113 98.4137 98.4167 98.4203 98.4245 98.4293 98.4347 98.4407 98.4474 98.4545 98.4624 98.4707 98.4797 98.4894 98.4995 98.5104 98.5217 98.5337 98.5464 98.5596 98.5734 98.5877 98.6028 98.6184 98.6346 98.6513 98.6688 98.6868 98.7053 98.7245 98.7443 98.7648 98.7857 98.8073 98.8295 98.8524 98.8757 98.8997 98.9244 98.9496 98.9754 99.0018 99.0288 99.0563 99.0846 99.1133 99.1428 99.1727 99.2034 99.2345 99.2664 99.2987 99.3317 99.3654 99.3996 99.4343 99.4698 99.5058 99.5423 99.5795 99.6174 99.6557 99.6947 99.7344 99.7746 99.8153 99.8568 99.8988 99.9413 99.9845 100.0000 100.0000 100.0000 100.0000 100.0000 100.0000 100.0000 100.0000 100.0000 100.0000 100.0000 100.0000 100.0000 100.0000 100.0000 100.0000 100.0000 100.0000 100.0000 100.0000 100.0000 100.0000 100.0000 100.0000 100.0000 100.0000 100.0000 100.0000 100.0000 100.0000 100.0000 100.0000 100.0000 100.0000 100.0000 100.0000 100.0000 100.0000 100.0000 100.0000 100.0000 100.0000 100.0000 100.0000 100.0000 100.0000 100.0000
100.0000 100.0000 100.0000 100.0000 100.0000 100.0000 100.0000 100.0000 100.0000 100.0000 100.0000 100.0000 100.0000 100.0000 100.0000 100.0000 100.0000 100.0000 100.0000 100.0000 100.0000 100.0000 100.0000 100.0000 100.0000 100.0000 100.0000 100.0000 100.0000 100.0000 100.0000 100.0000 100.0000 100.0000 100.0000 100.0000 100.0000 100.0000 100.0000 100.0000 100.0000 100.0000 100.0000 100.0000 100.0000 100.0000 99.9875 99.9437 99.9005 99.8580 99.8160 99.7746 99.7338 99.6936 99.6539 99.6149 99.5765 99.5387 99.5015 99.4650 99.4290 99.3936 99.3588 99.3246 99.2909 99.2579 99.2255 99.1937 99.1625 99.1320 99.1020 99.0726 99.0438 99.0156 98.9879 98.9609 98.9346 98.9087 98.8835 98.8589 98.8350 98.8115 98.7887 98.7665 98.7450 98.7240 98.7036 98.6838 98.6646 98.6459 98.6279 98.6106 98.5938 98.5776 98.5619 98.5469 98.5326 98.5187 98.5055 98.4929 98.4810 98.4695 98.4587 98.4485 98.4390 98.4300 98.4215 98.4137 98.4065 98.4000 98.3940 98.3885 98.3838 98.3795 98.3760 98.3730 98.3705 98.3688 98.3675 98.3670 98.3670 98.3675 98.3688 98.3705 98.3730 98.3760 98.3795 98.3838 98.3885 98.3940 98.4000 98.4065 98.4137 98.4215 98.4300 98.4390 98.4485 98.4587 98.4695 98.4810 98.4929 98.5055 98.5187 98.5326 98.5469 98.5619 98.5776 98.5938 98.6106 98.6279 98.6459 98.6646 98.6838 98.7036 98.7240 98.7450 98.7665 98.7887 98.8115 98.8350 98.8589 98.8835 98.9087 98.9346 98.9609 98.9879 99.0156 99.0438 99.0726 99.1020 99.1320 99.1625 99.1937 99.2255 99.2579 99.2909 99.3246 99.3588 99.3936 99.4290 99.4650 99.5015 99.5387 99.5765 99.6149 99.6539 99.6936 99.7338 99.7746 99.8160 99.8580 99.9005 99.9437 99.9875 100.0000 100.0000 100.0000 100.0000 100.0000 100.0000 100.0000 100.0000 100.0000 100.0000 100.0000 100.0000 100.0000 100.0000 100.0000 100.0000 100.0000 100.0000 100.0000 100.0000 100.0000 100.0000 100.0000 100.0000 100.0000 100.0000 100.0000 100.0000 100.0000 100.0000 100.0000 100.0000 100.0000 100.0000 100.0000 100.0000 100.0000 100.0000 100.0000 100.0000 100.0000 100.0000 100.0000 100.0000 100.0000 100.0000
100.0000 100.0000 100.0000 100.0000 100.0000 100.0000 100.0000 100.0000 100.0000 100.0000 100.0000 100.0000 100.0000 100.0000 100.0000 100.0000 100.0000 100.0000 100.0000 100.0000 100.0000 100.0000 100.0000 100.0000 100.0000 100.0000 100.0000 100.0000 100.0000 100.0000 100.0000 100.0000 100.0000 100.0000 100.0000 100.0000 100.0000 100.0000 100.0000 100.0000 100.0000 100.0000 100.0000 100.0000 100.0000 99.9917 99.9474 99.9035 99.8603 99.8178 99.7758 99.7344 99.6936 99.6534 99.6137 99.5747 99.5363 99.4985 99.4613 99.4248 99.3888 99.3534 99.3186 99.2844 99.2507 99.2177 99.1853 99.1535 99.1223 99.0918 99.0618 99.0323 99.0036 98.9754 98.9477 98.9207 98.8944 98.8685 98.8434 98.8187 98.7947 98.7713 98.7485 98.7263 98.7048 98.6838 98.6633 98.6436 98.6244 98.6058 98.5877 98.5704 98.5536 98.5374 98.5217 98.5067 98.4924 98.4785 98.4654 98.4527 98.4407 98.4293 98.4185 98.4083 98.3988 98.3898 98.3813 98.3735 98.3663 98.3598 98.3538 98.3483 98.3435 98.3393 98.3358 98.3328 98.3303 98.3286 98.3273 98.3268 98.3268 98.3273 98.3286 98.3303 98.3328 98.3358 98.3393 98.3435 98.3483 98.3538 98.3598 98.3663 98.3735 98.3813 98.3898 98.3988 98.4083 98.4185 98.4293 98.4407 98.4527 98.4654 98.4785 98.4924 98.5067 98.5217 98.5374 98.5536 98.5704 98.5877 98.6058 98.6244 98.6436 98.6633 98.6838 98.7048 98.7263 98.7485 98.7713 98.7947 98.8187 98.8434 98.8685 98.8944 98.9207 98.9477 98.9754 99.0036 99.0323 99.0618 99.0918 99.1223 99.1535 99.1853 99.2177 99.2507 99.2844 99.3186 99.3534 99.3888 99.4248 99.4613 99.4985 99.5363 99.5747 99.6137 99.6534 99.6936 99.7344 99.7758 99.8178 99.8603 99.9035 99.9474 99.9917 100.0000 100.0000 100.0000 100.0000 100.0000 100.0000 100.0000 100.0000 100.0000 100.0000 100.0000 100.0000 100.0000 100.0000 100.0000 100.0000 100.0000 100.0000 100.0000 100.0000 100.0000 100.0000 100.0000 100.0000 100.0000 100.0000 100.0000 100.0000 100.0000 100.0000 100.0000 100.0000 100.0000 100.0000 100.0000 100.0000 100.0000 100.0000 100.0000 100.0000 100.0000 100.0000 100.0000 100.0000 100.0000
100.0000 100.0000 100.0000 100.0000 100.0000 100.0000 100.0000 100.0000 100.0000 100.0000 100.0000 100.0000 100.0000 100.0000 100.0000 100.0000 100.0000 100.0000 100.0000 100.0000 100.0000 100.0000 100.0000 100.0000 100.0000 100.0000 100.0000 100.0000 100.0000 100.0000 100.0000 100.0000 100.0000 100.0000 100.0000 100.0000 100.0000 100.0000 100.0000 100.0000 100.0000 100.0000 100.0000 100.0000 99.9972 99.9522 99.9077 99.8640 99.8208 99.7781 99.7361 99.6947 99.6539 99.6137 99.5742 99.5352 99.4968 99.4590 99.4218 99.3851 99.3491 99.3137 99.2789 99.2447 99.2112 99.1782 99.1458 99.1140 99.0828 99.0521 99.0221 98.9928 98.9639 98.9357 98.9082 98.8812 98.8547 98.8290 98.8037 98.7792 98.7552 98.7318 98.7090 98.6868 98.6651 98.6441 98.6238 98.6039 98.5847 98.5661 98.5482 98.5307 98.5139 98.4977 98.4822 98.4672 98.4527 98.4390 98.4257 98.4132 98.4012 98.3898 98.3790 98.3688 98.3591 98.3501 98.3418 98.3340 98.3268 98.3201 98.3141 98.3088 98.3040 98.2998 98.2961 98.2931 98.2908 98.2889 98.2878 98.2871 98.2871 98.2878 98.2889 98.2908 98.2931 98.2961 98.2998 98.3040 98.3088 98.3141 98.3201 98.3268 98.3340 98.3418 98.3501 98.3591 98.3688 98.3790 98.3898 98.4012 98.4132 98.4257 98.4390 98.4527 98.4672 98.4822 98.4977 98.5139 98.5307 98.5482 98.5661 98.5847 98.6039 98.6238 98.6441 98.6651 98.6868 98.7090 98.7318 98.7552 98.7792 98.8037 98.8290 98.8547 98.8812 98.9082 98.9357 98.9639 98.9928 99.0221 99.0521 99.0828 99.1140 99.1458 99.1782 99.2112 99.2447 99.2789 99.3137 99.3491 99.3851 99.4218 99.4590 99.4968 99.5352 99.5742 99.6137 99.6539 99.6947 99.7361 99.7781 99.8208 99.8640 99.9077 99.9522 99.9972 100.0000 100.0000 100.0000 100.0000 100.0000 100.0000 100.0000 100.0000 100.0000 100.0000 100.0000 100.0000 100.0000 100.0000 100.0000 100.0000 100.0000 100.0000 100.0000 100.0000 100.0000 100.0000 100.0000 100.0000 100.0000 100.0000 100.0000 100.0000 100.0000 100.0000 100.0000 100.0000 100.0000 100.0000 100.0000 100.0000 100.0000 100.0000 100.0000 100.0000 100.0000 100.0000 100.0000 100.0000
100.0000 100.0000 100.0000 100.0000 100.0000 100.0000 100.0000 100.0000 100.0000 100.0000 100.0000 100.0000 100.0000 100.0000 100.0000 100.0000 100.0000 100.0000 100.0000 100.0000 100.0000 100.0000 100.0000 100.0000 100.0000 100.0000 100.0000 100.0000 100.0000 100.0000 100.0000 100.0000 100.0000 100.0000 100.0000 100.0000 100.0000 100.0000 100.0000 100.0000 100.0000 100.0000 100.0000 100.0000 99.9582 99.9132 99.8688 99.8250 99.7818 99.7391 99.6971 99.6557 99.6149 99.5747 99.5352 99.4962 99.4578 99.4200 99.3828 99.3461 99.3101 99.2747 99.2399 99.2057 99.1722 99.1392 99.1068 99.0750 99.0438 99.0131 98.9831 98.9537 98.9249 98.8967 98.8692 98.8422 98.8157 98.7900 98.7648 98.7401 98.7161 98.6928 98.6700 98.6478 98.6261 98.6051 98.5847 98.5649 98.5457 98.5272 98.5092 98.4917 98.4750 98.4587 98.4432 98.4282 98.4137 98.4000 98.3868 98.3742 98.3621 98.3508 98.3400 98.3298 98.3201 98.3111 98.3028 98.2950 98.2878 98.2811 98.2751 98.2698 98.2649 98.2608 98.2571 98.2541 98.2518 98.2499 98.2488 98.2481 98.2481 98.2488 98.2499 98.2518 98.2541 98.2571 98.2608 98.2649 98.2698 98.2751 98.2811 98.2878 98.2950 98.3028 98.3111 98.3201 98.3298 98.3400 98.3508 98.3621 98.3742 98.3868 98.4000 98.4137 98.4282 98.4432 98.4587 98.4750 98.4917 98.5092 98.5272 98.5457 98.5649 98.5847 98.6051 98.6261 98.6478 98.6700 98.6928 98.7161 98.7401 98.7648 98.7900 98.8157 98.8422 98.8692 98.8967 98.9249 98.9537 98.9831 99.0131 99.0438 99.0750 99.1068 99.1392 99.1722 99.2057 99.2399 99.2747 99.3101 99.3461 99.3828 99.4200 99.4578 99.4962 99.5352 99.5747 99.6149 99.6557 99.6971 99.7391 99.7818 99.8250 99.8688 99.9132 99.9582 100.0000 100.0000 100.0000 100.0000 100.0000 100.0000 100.0000 100.0000 100.0000 100.0000 100.0000 100.0000 100.0000 100.0000 100.0000 100.0000 100.0000 100.0000 100.0000 100.0000 100.0000 100.0000 100.0000 100.0000 100.0000 100.0000 100.0000 100.0000 100.0000 100.0000 100.0000 100.0000 100.0000 100.0000 100.0000 100.0000 100.0000 100.0000 100.0000 100.0000 100.0000 100.0000 100.0000 100.0000
100.0000 100.0000 100.0000 100.0000 100.0000 100.0000 100.0000 100.0000 100.0000 100.0000 100.0000 100.0000 100.0000 100.0000 100.0000 100.0000 100.0000 100.0000 100.0000 100.0000 100.0000 100.0000 100.0000 100.0000 100.0000 100.0000 100.0000 100.0000 100.0000 100.0000 100.0000 100.0000 100.0000 100.0000 100.0000 100.0000 100.0000 100.0000 100.0000 100.0000 100.0000 100.0000 100.0000 99.9654 99.9197 99.8748 99.8303 99.7866 99.7434 99.7007 99.6587 99.6174 99.5765 99.5363 99.4968 99.4578 99.4193 99.3816 99.3444 99.3077 99.2717 99.2364 99.2015 99.1673 99.1338 99.1008 99.0683 99.0366 99.0053 98.9748 98.9447 98.9154 98.8865 98.8584 98.8307 98.8037 98.7773 98.7515 98.7263 98.7018 98.6778 98.6543 98.6316 98.6094 98.5877 98.5667 98.5464 98.5266 98.5074 98.4887 98.4707 98.4534 98.4365 98.4203 98.4048 98.3898 98.3753 98.3615 98.3483 98.3358 98.3238 98.3123 98.3016 98.2913 98.2818 98.2728 98.2643 98.2566 98.2494 98.2428 98.2368 98.2314 98.2266 98.2224 98.2188 98.2157 98.2134 98.2116 98.2104 98.2097 98.2097 98.2104 98.2116 98.2134 98.2157 98.2188 98.2224 98.2266 98.2314 98.2368 98.2428 98.2494 98.2566 98.2643 98.2728 98.2818 98.2913 98.3016 98.3123 98.3238 98.3358 98.3483 98.3615 98.3753 98.3898 98.4048 98.4203 98.4365 98.4534 98.4707 98.4887 98.5074 98.5266 98.5464 98.5667 98.5877 98.6094 98.6316 98.6543 98.6778 98.7018 98.7263 98.7515 98.7773 98.8037 98.8307 98.8584 98.8865 98.9154 98.9447 98.9748 99.0053 99.0366 99.0683 99.1008 99.1338 99.1673 99.2015 99.2364 99.2717 99.3077 99.3444 99.3816 99.4193 99.4578 99.4968 99.5363 99.5765 99.6174 99.6587 99.7007 99.7434 99.7866 99.8303 99.8748 99.9197 99.9654 100.0000 100.0000 100.0000 100.0000 100.0000 100.0000 100.0000 100.0000 100.0000 100.0000 100.0000 100.0000 100.0000 100.0000 100.0000 100.0000 100.0000 100.0000 100.0000 100.0000 100.0000 100.0000 100.0000 100.0000 100.0000 100.0000 100.0000 100.0000 100.0000 100.0000 100.0000 100.0000 100.0000 100.0000 100.0000 100.0000 100.0000 100.0000 100.0000 100.0000 100.0000 100.0000 100.0000
100.0000 100.0000 100.0000 100.0000 100.0000 100.0000 100.0000 100.0000 100.0000 100.0000 100.0000 100.0000 100.0000 100.0000 100.0000 100.0000 100.0000 100.0000 100.0000 100.0000 100.0000 100.0000 100.0000 100.0000 100.0000 100.0000 100.0000 100.0000 100.0000 100.0000 100.0000 100.0000 100.0000 100.0000 100.0000 100.0000 100.0000 100.0000 100.0000 100.0000 100.0000 100.0000 99.9737 99.9275 99.8820 99.8370 99.7926 99.7488 99.7056 99.6629 99.6209 99.5795 99.5387 99.4985 99.4590 99.4200 99.3816 99.3438 99.3066 99.2699 99.2339 99.1985 99.1637 99.1295 99.0960 99.0630 99.0306 98.9988 98.9676 98.9369 98.9069 98.8775 98.8487 98.8205 98.7930 98.7660 98.7395 98.7138 98.6886 98.6639 98.6399 98.6166 98.5938 98.5716 98.5499 98.5289 98.5085 98.4887 98.4695 98.4510 98.4330 98.4155 98.3988 98.3825 98.3670 98.3520 98.3375 98.3238 98.3106 98.2980 98.2859 98.2746 98.2638 98.2536 98.2439 98.2349 98.2266 98.2188 98.2116 98.2049 98.1989 98.1936 98.1887 98.1846 98.1809 98.1779 98.1756 98.1737 98.1726 98.1719 98.1719 98.1726 98.1737 98.1756 98.1779 98.1809 98.1846 98.1887 98.1936 98.1989 98.2049 98.2116 98.2188 98.2266 98.2349 98.2439 98.2536 98.2638 98.2746 98.2859 98.2980 98.3106 98.3238 98.3375 98.3520 98.3670 98.3825 98.3988 98.4155 98.4330 98.4510 98.4695 98.4887 98.5085 98.5289 98.5499 98.5716 98.5938 98.6166 98.6399 98.6639 98.6886 98.7138 98.7395 98.7660 98.7930 98.8205 98.8487 98.8775 98.9069 98.9369 98.9676 98.9988 99.0306 99.0630 99.0960 99.1295 99.1637 99.1985 99.2339 99.2699 99.3066 99.3438 99.3816 99.4200 99.4590 99.4985 99.5387 99.5795 99.6209 99.6629 99.7056 99.7488 99.7926 99.8370 99.8820 99.9275 99.9737 100.0000 100.0000 100.0000 100.0000 100.0000 100.0000 100.0000 100.0000 100.0000 100.0000 100.0000 100.0000 100.0000 100.0000 100.0000 100.0000 100.0000 100.0000 100.0000 100.0000 100.0000 100.0000 100.0000 100.0000 100.0000 100.0000 100.0000 100.0000 100.0000 100.0000 100.0000 100.0000 100.0000 100.0000 100.0000 100.0000 100.0000 100.0000 100.0000 100.0000 100.0000 100.0000
100.0000 100.0000 100.0000 100.0000 100.0000 100.0000 100.0000 100.0000 100.0000 100.0000 100.0000 100.0000 100.0000 100.0000 100.0000 100.0000 100.0000 100.0000 100.0000 100.0000 100.0000 100.0000 100.0000 100.0000 100.0000 100.0000 100.0000 100.0000 100.0000 100.0000 100.0000 100.0000 100.0000 100.0000 100.0000 100.0000 100.0000 100.0000 100.0000 100.0000 100.0000 99.9834 99.9365 99.8903 99.8448 99.7998 99.7553 99.7116 99.6684 99.6257 99.5837 99.5423 99.5015 99.4613 99.4218 99.3828 99.3444 99.3066 99.2694 99.2327 99.1967 99.1613 99.1265 99.0923 99.0588 99.0258 98.9934 98.9616 98.9304 98.8997 98.8697 98.8404 98.8115 98.7833 98.7558 98.7288 98.7023 98.6766 98.6513 98.6268 98.6028 98.5794 98.5566 98.5344 98.5127 98.4917 98.4714 98.4515 98.4323 98.4137 98.3958 98.3783 98.3615 98.3453 98.3298 98.3148 98.3003 98.2866 98.2733 98.2608 98.2488 98.2374 98.2266 98.2164 98.2067 98.1977 98.1894 98.1816 98.1744 98.1677 98.1617 98.1564 98.1516 98.1474 98.1437 98.1407 98.1384 98.1365 98.1354 98.1347 98.1347 98.1354 98.1365 98.1384 98.1407 98.1437 98.1474 98.1516 98.1564 98.1617 98.1677 98.1744 98.1816 98.1894 98.1977 98.2067 98.2164 98.2266 98.2374 98.2488 98.2608 98.2733 98.2866 98.3003 98.3148 98.3298 98.3453 98.3615 98.3783 98.3958 98.4137 98.4323 98.4515 98.4714 98.4917 98.5127 98.5344 98.5566 98.5794 98.6028 98.6268 98.6513 98.6766 98.7023 98.7288 98.7558 98.7833 98.8115 98.8404 98.8697 98.8997 98.9304 98.9616 98.9934 99.0258 99.0588 99.0923 99.1265 99.1613 99.1967 99.2327 99.2694 99.3066 99.3444 99.3828 99.4218 99.4613 99.5015 99.5423 99.5837 99.6257 99.6684 99.7116 99.7553 99.7998 99.8448 99.8903 99.9365 99.9834 100.0000 100.0000 100.0000 100.0000 100.0000 100.0000 100.0000 100.0000 100.0000 100.0000 100.0000 100.0000 100.0000 100.0000 100.0000 100.0000 100.0000 100.0000 100.0000 100.0000 100.0000 100.0000 100.0000 100.0000 100.0000 100.0000 100.0000 100.0000 100.0000 100.0000 100.0000 100.0000 100.0000 100.0000 100.0000 100.0000 100.0000 100.0000 100.0000 100.0000 100.0000
100.0000 100.0000 100.0000 100.0000 100.0000 100.0000 100.0000 100.0000 100.0000 100.0000 100.0000 100.0000 100.0000 100.0000 100.0000 100.0000 100.0000 100.0000 100.0000 100.0000 100.0000 100.0000 100.0000 100.0000 100.0000 100.0000 100.0000 100.0000 100.0000 100.0000 100.0000 100.0000 100.0000 100.0000 100.0000 100.0000 100.0000 100.0000 100.0000 100.0000 99.9942 99.9467 99.9000 99.8538 99.8081 99.7631 99.7188 99.6749 99.6317 99.5892 99.5472 99.5058 99.4650 99.4248 99.3851 99.3461 99.3077 99.2699 99.2327 99.1962 99.1602 99.1248 99.0900 99.0558 99.0221 98.9891 98.9567 98.9249 98.8937 98.8632 98.8332 98.8037 98.7750 98.7468 98.7191 98.6921 98.6658 98.6399 98.6148 98.5901 98.5661 98.5427 98.5199 98.4977 98.4762 98.4552 98.4347 98.4150 98.3958 98.3772 98.3591 98.3418 98.3250 98.3088 98.2931 98.2781 98.2638 98.2499 98.2368 98.2241 98.2121 98.2007 98.1899 98.1797 98.1702 98.1612 98.1527 98.1449 98.1377 98.1312 98.1252 98.1197 98.1149 98.1107 98.1072 98.1042 98.1017 98.1000 98.0987 98.0982 98.0982 98.0987 98.1000 98.1017 98.1042 98.1072 98.1107 98.1149 98.1197 98.1252 98.1312 98.1377 98.1449 98.1527 98.1612 98.1702 98.1797 98.1899 98.2007 98.2121 98.2241 98.2368 98.2499 98.2638 98.2781 98.2931 98.3088 98.3250 98.3418 98.3591 98.3772 98.3958 98.4150 98.4347 98.4552 98.4762 98.4977 98.5199 98.5427 98.5661 98.5901 98.6148 98.6399 98.6658 98.6921 98.7191 98.7468 98.7750 98.8037 98.8332 98.8632 98.8937 98.9249 98.9567 98.9891 99.0221 99.0558 99.0900 99.1248 99.1602 99.1962 99.2327 99.2699 99.3077 99.3461 99.3851 99.4248 99.4650 99.5058 99.5472 99.5892 99.6317 99.6749 99.7188 99.7631 99.8081 99.8538 99.9000 99.9467 99.9942 100.0000 100.0000 100.0000 100.0000 100.0000 100.0000 100.0000 100.0000 100.0000 100.0000 100.0000 100.0000 100.0000 100.0000 100.0000 100.0000 100.0000 100.0000 100.0000 100.0000 100.0000 100.0000 100.0000 100.0000 100.0000 100.0000 100.0000 100.0000 100.0000 100.0000 100.0000 100.0000 100.0000 100.0000 100.0000 100.0000 100.0000 100.0000 100.0000 100.0000
100.0000 100.0000 100.0000 100.0000 100.0000 100.0000 100.0000 100.0000 100.0000 100.0000 100.0000 100.0000 100.0000 100.0000 100.0000 100.0000 100.0000 100.0000 100.0000 100.0000 100.0000 100.0000 100.0000 100.0000 100.0000 100.0000 100.0000 100.0000 100.0000 100.0000 100.0000 100.0000 100.0000 100.0000 100.0000 100.0000 100.0000 100.0000 100.0000 100.0000 99.9582 99.9107 99.8640 99.8178 99.7721 99.7271 99.6827 99.6389 99.5957 99.5532 99.5112 99.4698 99.4290 99.3888 99.3491 99.3101 99.2717 99.2339 99.1967 99.1602 99.1242 99.0888 99.0540 99.0198 98.9861 98.9531 98.9207 98.8889 98.8577 98.8272 98.7972 98.7678 98.7390 98.7108 98.6831 98.6561 98.6298 98.6039 98.5787 98.5541 98.5302 98.5067 98.4839 98.4617 98.4402 98.4192 98.3988 98.3790 98.3598 98.3411 98.3231 98.3058 98.2889 98.2728 98.2571 98.2421 98.2278 98.2139 98.2007 98.1881 98.1762 98.1647 98.1539 98.1437 98.1342 98.1252 98.1167 98.1089 98.1017 98.0952 98.0892 98.0837 98.0790 98.0747 98.0712 98.0682 98.0657 98.0640 98.0627 98.0622 98.0622 98.0627 98.0640 98.0657 98.0682 98.0712 98.0747 98.0790 98.0837 98.0892 98.0952 98.1017 98.1089 98.1167 98.1252 98.1342 98.1437 98.1539 98.1647 98.1762 98.1881 98.2007 98.2139 98.2278 98.2421 98.2571 98.2728 98.2889 98.3058 98.3231 98.3411 98.3598 98.3790 98.3988 98.4192 98.4402 98.4617 98.4839 98.5067 98.5302 98.5541 98.5787 98.6039 98.6298 98.6561 98.6831 98.7108 98.7390 98.7678 98.7972 98.8272 98.8577 98.8889 98.9207 98.9531 98.9861 99.0198 99.0540 99.0888 99.1242 99.1602 99.1967 99.2339 99.2717 99.3101 99.3491 99.3888 99.4290 99.4698 99.5112 99.5532 99.5957 99.6389 99.6827 99.7271 99.7721 99.8178 99.8640 99.9107 99.9582 100.0000 100.0000 100.0000 100.0000 100.0000 100.0000 100.0000 100.0000 100.0000 100.0000 100.0000 100.0000 100.0000 100.0000 100.0000 100.0000 100.0000 100.0000 100.0000 100.0000 100.0000 100.0000 100.0000 100.0000 100.0000 100.0000 100.0000 100.0000 100.0000 100.0000 100.0000 100.0000 100.0000 100.0000 100.0000 100.0000 100.0000 100.0000 100.0000 100.0000
100.0000 100.0000 100.0000 100.0000 100.0000 100.0000 100.0000 100.0000 100.0000 100.0000 100.0000 100.0000 100.0000 100.0000 100.0000 100.0000 100.0000 100.0000 100.0000 100.0000 100.0000 100.0000 100.0000 100.0000 100.0000 100.0000 100.0000 100.0000 100.0000 100.0000 100.0000 100.0000 100.0000 100.0000 100.0000 100.0000 100.0000 100.0000 100.0000 99.9707 99.9227 99.8753 99.8286 99.7823 99.7368 99.6917 99.6474 99.6035 99.5603 99.5178 99.4758 99.4343 99.3936 99.3534 99.3137 99.2747 99.2364 99.1985 99.1613 99.1248 99.0888 99.0533 99.0186 98.9844 98.9507 98.9177 98.8854 98.8535 98.8224 98.7917 98.7618 98.7323 98.7036 98.6753 98.6478 98.6208 98.5944 98.5686 98.5434 98.5187 98.4947 98.4714 98.4485 98.4263 98.4048 98.3838 98.3633 98.3435 98.3243 98.3058 98.2878 98.2703 98.2536 98.2374 98.2218 98.2067 98.1924 98.1786 98.1654 98.1527 98.1407 98.1294 98.1185 98.1084 98.0987 98.0897 98.0814 98.0735 98.0663 98.0597 98.0537 98.0483 98.0435 98.0393 98.0357 98.0327 98.0303 98.0285 98.0273 98.0268 98.0268 98.0273 98.0285 98.0303 98.0327 98.0357 98.0393 98.0435 98.0483 98.0537 98.0597 98.0663 98.0735 98.0814 98.0897 98.0987 98.1084 98.1185 98.1294 98.1407 98.1527 98.1654 98.1786 98.1924 98.2067 98.2218 98.2374 98.2536 98.2703 98.2878 98.3058 98.3243 98.3435 98.3633 98.3838 98.4048 98.4263 98.4485 98.4714 98.4947 98.5187 98.5434 98.5686 98.5944 98.6208 98.6478 98.6753 98.7036 98.7323 98.7618 98.7917 98.8224 98.8535 98.8854 98.9177 98.9507 98.9844 99.0186 99.0533 99.0888 99.1248 99.1613 99.1985 99.2364 99.2747 99.3137 99.3534 99.3936 99.4343 99.4758 99.5178 99.5603 99.6035 99.6474 99.6917 99.7368 99.7823 99.8286 99.8753 99.9227 99.9707 100.0000 100.0000 100.0000 100.0000 100.0000 100.0000 100.0000 100.0000 100.0000 100.0000 100.0000 100.0000 100.0000 100.0000 100.0000 100.0000 100.0000 100.0000 100.0000 100.0000 100.0000 100.0000 100.0000 100.0000 100.0000 100.0000 100.0000 100.0000 100.0000 100.0000 100.0000 100.0000 100.0000 100.0000 100.0000 100.0000 100.0000 100.0000 100.0000
100.0000 100.0000 100.0000 100.0000 100.0000 100.0000 100.0000 100.0000 100.0000 100.0000 100.0000 100.0000 100.0000 100.0000 100.0000 100.0000 100.0000 100.0000 100.0000 100.0000 100.0000 100.0000 100.0000 100.0000 100.0000 100.0000 100.0000 100.0000 100.0000 100.0000 100.0000 100.0000 100.0000 100.0000 100.0000 100.0000 100.0000 100.0000 99.9845 99.9360 99.8880 99.8405 99.7938 99.7476 99.7019 99.6569 99.6125 99.5687 99.5255 99.4830 99.4410 99.3996 99.3588 99.3186 99.2789 99.2399 99.2015 99.1637 99.1265 99.0900 99.0540 99.0186 98.9838 98.9496 98.9159 98.8829 98.8505 98.8187 98.7875 98.7570 98.7270 98.6976 98.6688 98.6406 98.6129 98.5859 98.5596 98.5337 98.5085 98.4839 98.4600 98.4365 98.4137 98.3915 98.3700 98.3490 98.3286 98.3088 98.2896 98.2709 98.2529 98.2356 98.2188 98.2026 98.1869 98.1719 98.1576 98.1437 98.1305 98.1179 98.1060 98.0945 98.0837 98.0735 98.0640 98.0550 98.0465 98.0387 98.0315 98.0250 98.0190 98.0135 98.0088 98.0045 98.0010 97.9980 97.9955 97.9938 97.9925 97.9920 97.9920 97.9925 97.9938 97.9955 97.9980 98.0010 98.0045 98.0088 98.0135 98.0190 98.0250 98.0315 98.0387 98.0465 98.0550 98.0640 98.0735 98.0837 98.0945 98.1060 98.1179 98.1305 98.1437 98.1576 98.1719 98.1869 98.2026 98.2188 98.2356 98.2529 98.2709 98.2896 98.3088 98.3286 98.3490 98.3700 98.3915 98.4137 98.4365 98.4600 98.4839 98.5085 98.5337 98.5596 98.5859 98.6129 98.6406 98.6688 98.6976 98.7270 98.7570 98.7875 98.8187 98.8505 98.8829 98.9159 98.9496 98.9838 99.0186 99.0540 99.0900 99.1265 99.1637 99.2015 99.2399 99.2789 99.3186 99.3588 99.3996 99.4410 99.4830 99.5255 99.5687 99.6125 99.6569 99.7019 99.7476 99.7938 99.8405 99.8880 99.9360 99.9845 100.0000 100.0000 100.0000 100.0000 100.0000 100.0000 100.0000 100.0000 100.0000 100.0000 100.0000 100.0000 100.0000 100.0000 100.0000 100.0000 100.0000 100.0000 100.0000 100.0000 100.0000 100.0000 100.0000 100.0000 100.0000 100.0000 100.0000 100.0000 100.0000 100.0000 100.0000 100.0000 100.0000 100.0000 100.0000 100.0000 100.0000 100.0000
100.0000 100.0000 100.0000 100.0000 100.0000 100.0000 100.0000 100.0000 100.0000 100.0000 100.0000 100.0000 100.0000 100.0000 100.0000 100.0000 100.0000 100.0000 100.0000 100.0000 100.0000 100.0000 100.0000 100.0000 100.0000 100.0000 100.0000 100.0000 100.0000 100.0000 100.0000 100.0000 100.0000 100.0000 100.0000 100.0000 100.0000 99.9995 99.9504 99.9018 99.8538 99.8063 99.7596 99.7134 99.6677 99.6227 99.5784 99.5345 99.4913 99.4488 99.4068 99.3654 99.3246 99.2844 99.2447 99.2057 99.1673 99.1295 99.0923 99.0558 99.0198 98.9844 98.9496 98.9154 98.8817 98.8487 98.8163 98.7845 98.7533 98.7228 98.6928 98.6633 98.6346 98.6064 98.5787 98.5517 98.5254 98.4995 98.4744 98.4497 98.4257 98.4023 98.3795 98.3573 98.3358 98.3148 98.2943 98.2746 98.2553 98.2368 98.2188 98.2014 98.1846 98.1684 98.1527 98.1377 98.1234 98.1095 98.0964 98.0837 98.0717 98.0603 98.0495 98.0393 98.0298 98.0208 98.0123 98.0045 97.9973 97.9908 97.9848 97.9793 97.9745 97.9703 97.9668 97.9638 97.9613 97.9596 97.9583 97.9578 97.9578 97.9583 97.9596 97.9613 97.9638 97.9668 97.9703 97.9745 97.9793 97.9848 97.9908 97.9973 98.0045 98.0123 98.0208 98.0298 98.0393 98.0495 98.0603 98.0717 98.0837 98.0964 98.1095 98.1234 98.1377 98.1527 98.1684 98.1846 98.2014 98.2188 98.2368 98.2553 98.2746 98.2943 98.3148 98.3358 98.3573 98.3795 98.4023 98.4257 98.4497 98.4744 98.4995 98.5254 98.5517 98.5787 98.6064 98.6346 98.6633 98.6928 98.7228 98.7533 98.7845 98.8163 98.8487 98.8817 98.9154 98.9496 98.9844 99.0198 99.0558 99.0923 99.1295 99.1673 99.2057 99.2447 99.2844 99.3246 99.3654 99.4068 99.4488 99.4913 99.5345 99.5784 99.6227 99.6677 99.7134 99.7596 99.8063 99.8538 99.9018 99.9504 99.9995 100.0000 100.0000 100.0000 100.0000 100.0000 100.0000 100.0000 100.0000 100.0000 100.0000 100.0000 100.0000 100.0000 100.0000 100.0000 100.0000 100.0000 100.0000 100.0000 100.0000 100.0000 100.0000 100.0000 100.0000 100.0000 100.0000 100.0000 100.0000 100.0000 100.0000 100.0000 100.0000 100.0000 100.0000 100.0000 100.0000 100.0000
100.0000 100.0000 100.0000 100.0000 100.0000 100.0000 100.0000 100.0000 100.0000 100.0000 100.0000 100.0000 100.0000 100.0000 100.0000 100.0000 100.0000 100.0000 100.0000 100.0000 100.0000 100.0000 100.0000 100.0000 100.0000 100.0000 100.0000 100.0000 100.0000 100.0000 100.0000 100.0000 100.0000 100.0000 100.0000 100.0000 100.0000 99.9660 99.9167 99.8681 99.8201 99.7728 99.7259 99.6797 99.6342 99.5892 99.5447 99.5010 99.4578 99.4151 99.3731 99.3317 99.2909 99.2507 99.2112 99.1722 99.1338 99.0960 99.0588 99.0221 98.9861 98.9507 98.9159 98.8817 98.8482 98.8152 98.7827 98.7510 98.7198 98.6891 98.6591 98.6298 98.6009 98.5727 98.5452 98.5182 98.4917 98.4660 98.4407 98.4162 98.3922 98.3688 98.3460 98.3238 98.3021 98.2811 98.2608 98.2409 98.2218 98.2031 98.1851 98.1677 98.1509 98.1347 98.1192 98.1042 98.0897 98.0760 98.0627 98.0502 98.0382 98.0268 98.0160 98.0058 97.9962 97.9871 97.9788 97.9710 97.9638 97.9571 97.9511 97.9458 97.9410 97.9368 97.9331 97.9301 97.9278 97.9260 97.9248 97.9241 97.9241 97.9248 97.9260 97.9278 97.9301 97.9331 97.9368 97.9410 97.9458 97.9511 97.9571 97.9638 97.9710 97.9788 97.9871 97.9962 98.0058 98.0160 98.0268 98.0382 98.0502 98.0627 98.0760 98.0897 98.1042 98.1192 98.1347 98.1509 98.1677 98.1851 98.2031 98.2218 98.2409 98.2608 98.2811 98.3021 98.3238 98.3460 98.3688 98.3922 98.4162 98.4407 98.4660 98.4917 98.5182 98.5452 98.5727 98.6009 98.6298 98.6591 98.6891 98.7198 98.7510 98.7827 98.8152 98.8482 98.8817 98.9159 98.9507 98.9861 99.0221 99.0588 99.0960 99.1338 99.1722 99.2112 99.2507 99.2909 99.3317 99.3731 99.4151 99.4578 99.5010 99.5447 99.5892 99.6342 99.6797 99.7259 99.7728 99.8201 99.8681 99.9167 99.9660 100.0000 100.0000 100.0000 100.0000 100.0000 100.0000 100.0000 100.0000 100.0000 100.0000 100.0000 100.0000 100.0000 100.0000 100.0000 100.0000 100.0000 100.0000 100.0000 100.0000 100.0000 100.0000 100.0000 100.0000 100.0000 100.0000 100.0000 100.0000 100.0000 100.0000 100.0000 100.0000 100.0000 100.0000 100.0000 100.0000 100.0000
100.0000 100.0000 100.0000 100.0000 100.0000 100.0000 100.0000 100.0000 100.0000 100.0000 100.0000 100.0000 100.0000 100.0000 100.0000 100.0000 100.0000 100.0000 100.0000 100.0000 100.0000 100.0000 100.0000 100.0000 100.0000 100.0000 100.0000 100.0000 100.0000 100.0000 100.0000 100.0000 100.0000 100.0000 100.0000 100.0000 99.9827 99.9330 99.8838 99.8351 99.7871 99.7398 99.6929 99.6467 99.6012 99.5562 99.5118 99.4680 99.4248 99.3821 99.3401 99.2987 99.2579 99.2177 99.1782 99.1392 99.1008 99.0630 99.0258 98.9891 98.9531 98.9177 98.8829 98.8487 98.8152 98.7822 98.7498 98.7180 98.6868 98.6561 98.6261 98.5968 98.5679 98.5397 98.5122 98.4852 98.4587 98.4330 98.4077 98.3832 98.3591 98.3358 98.3130 98.2908 98.2691 98.2481 98.2278 98.2079 98.1887 98.1702 98.1522 98.1347 98.1179 98.1017 98.0862 98.0712 98.0567 98.0430 98.0298 98.0172 98.0052 97.9938 97.9830 97.9728 97.9631 97.9541 97.9458 97.9380 97.9308 97.9241 97.9181 97.9128 97.9079 97.9038 97.9001 97.8971 97.8948 97.8929 97.8918 97.8911 97.8911 97.8918 97.8929 97.8948 97.8971 97.9001 97.9038 97.9079 97.9128 97.9181 97.9241 97.9308 97.9380 97.9458 97.9541 97.9631 97.9728 97.9830 97.9938 98.0052 98.0172 98.0298 98.0430 98.0567 98.0712 98.0862 98.1017 98.1179 98.1347 98.1522 98.1702 98.1887 98.2079 98.2278 98.2481 98.2691 98.2908 98.3130 98.3358 98.3591 98.3832 98.4077 98.4330 98.4587 98.4852 98.5122 98.5397 98.5679 98.5968 98.6261 98.6561 98.6868 98.7180 98.7498 98.7822 98.8152 98.8487 98.8829 98.9177 98.9531 98.9891 99.0258 99.0630 99.1008 99.1392 99.1782 99.2177 99.2579 99.2987 99.3401 99.3821 99.4248 99.4680 99.5118 99.5562 99.6012 99.6467 99.6929 99.7398 99.7871 99.8351 99.8838 99.9330 99.9827 100.0000 100.0000 100.0000 100.0000 100.0000 100.0000 100.0000 100.0000 100.0000 100.0000 100.0000 100.0000 100.0000 100.0000 100.0000 100.0000 100.0000 100.0000 100.0000 100.0000 100.0000 100.0000 100.0000 100.0000 100.0000 100.0000 100.0000 100.0000 100.0000 100.0000 100.0000 100.0000 100.0000 100.0000 100.0000 100.0000
100.0000 100.0000 100.0000 100.0000 100.0000 100.0000 100.0000 100.0000 100.0000 100.0000 100.0000 100.0000 100.0000 100.0000 100.0000 100.0000 100.0000 100.0000 100.0000 100.0000 100.0000 100.0000 100.0000 100.0000 100.0000 100.0000 100.0000 100.0000 100.0000 100.0000 100.0000 100.0000 100.0000 100.0000 100.0000 100.0000 99.9504 99.9005 99.8513 99.8028 99.7548 99.7074 99.6606 99.6144 99.5687 99.5238 99.4793 99.4356 99.3923 99.3498 99.3077 99.2664 99.2255 99.1853 99.1458 99.1068 99.0683 99.0306 98.9934 98.9567 98.9207 98.8854 98.8505 98.8163 98.7827 98.7498 98.7173 98.6856 98.6543 98.6238 98.5938 98.5644 98.5356 98.5074 98.4797 98.4527 98.4263 98.4005 98.3753 98.3508 98.3268 98.3033 98.2806 98.2584 98.2368 98.2157 98.1954 98.1756 98.1564 98.1377 98.1197 98.1024 98.0855 98.0694 98.0537 98.0387 98.0243 98.0105 97.9973 97.9848 97.9728 97.9613 97.9506 97.9403 97.9308 97.9218 97.9133 97.9056 97.8983 97.8918 97.8858 97.8803 97.8756 97.8714 97.8678 97.8648 97.8624 97.8606 97.8594 97.8588 97.8588 97.8594 97.8606 97.8624 97.8648 97.8678 97.8714 97.8756 97.8803 97.8858 97.8918 97.8983 97.9056 97.9133 97.9218 97.9308 97.9403 97.9506 97.9613 97.9728 97.9848 97.9973 98.0105 98.0243 98.0387 98.0537 98.0694 98.0855 98.1024 98.1197 98.1377 98.1564 98.1756 98.1954 98.2157 98.2368 98.2584 98.2806 98.3033 98.3268 98.3508 98.3753 98.4005 98.4263 98.4527 98.4797 98.5074 98.5356 98.5644 98.5938 98.6238 98.6543 98.6856 98.7173 98.7498 98.7827 98.8163 98.8505 98.8854 98.9207 98.9567 98.9934 99.0306 99.0683 99.1068 99.1458 99.1853 99.2255 99.2664 99.3077 99.3498 99.3923 99.4356 99.4793 99.5238 99.5687 99.6144 99.6606 99.7074 99.7548 99.8028 99.8513 99.9005 99.9504 100.0000 100.0000 100.0000 100.0000 100.0000 100.0000 100.0000 100.0000 100.0000 100.0000 100.0000 100.0000 100.0000 100.0000 100.0000 100.0000 100.0000 100.0000 100.0000 100.0000 100.0000 100.0000 100.0000 100.0000 100.0000 100.0000 100.0000 100.0000 100.0000 100.0000 100.0000 100.0000 100.0000 100.0000 100.0000 100.0000
100.0000 100.0000 100.0000 100.0000 100.0000 100.0000 100.0000 100.0000 100.0000 100.0000 100.0000 100.0000 100.0000 100.0000 100.0000 100.0000 100.0000 100.0000 100.0000 100.0000 100.0000 100.0000 100.0000 100.0000 100.0000 100.0000 100.0000 100.0000 100.0000 100.0000 100.0000 100.0000 100.0000 100.0000 100.0000 99.9690 99.9185 99.8688 99.8196 99.7709 99.7229 99.6756 99.6287 99.5825 99.5370 99.4920 99.4476 99.4038 99.3606 99.3179 99.2759 99.2345 99.1937 99.1535 99.1140 99.0750 99.0366 98.9988 98.9616 98.9249 98.8889 98.8535 98.8187 98.7845 98.7510 98.7180 98.6856 98.6538 98.6226 98.5919 98.5619 98.5326 98.5037 98.4755 98.4480 98.4210 98.3945 98.3688 98.3435 98.3190 98.2950 98.2716 98.2488 98.2266 98.2049 98.1839 98.1636 98.1437 98.1245 98.1060 98.0880 98.0705 98.0537 98.0375 98.0220 98.0070 97.9925 97.9788 97.9655 97.9530 97.9410 97.9296 97.9188 97.9086 97.8989 97.8899 97.8816 97.8738 97.8666 97.8599 97.8539 97.8486 97.8438 97.8396 97.8359 97.8329 97.8306 97.8287 97.8276 97.8269 97.8269 97.8276 97.8287 97.8306 97.8329 97.8359 97.8396 97.8438 97.8486 97.8539 97.8599 97.8666 97.8738 97.8816 97.8899 97.8989 97.9086 97.9188 97.9296 97.9410 97.9530 97.9655 97.9788 97.9925 98.0070 98.0220 98.0375 98.0537 98.0705 98.0880 98.1060 98.1245 98.1437 98.1636 98.1839 98.2049 98.2266 98.2488 98.2716 98.2950 98.3190 98.3435 98.3688 98.3945 98.4210 98.4480 98.4755 98.5037 98.5326 98.5619 98.5919 98.6226 98.6538 98.6856 98.7180 98.7510 98.7845 98.8187 98.8535 98.8889 98.9249 98.9616 98.9988 99.0366 99.0750 99.1140 99.1535 99.1937 99.2345 99.2759 99.3179 99.3606 99.4038 99.4476 99.4920 99.5370 99.5825 99.6287 99.6756 99.7229 99.7709 99.8196 99.8688 99.9185 99.9690 100.0000 100.0000 100.0000 100.0000 100.0000 100.0000 100.0000 100.0000 100.0000 100.0000 100.0000 100.0000 100.0000 100.0000 100.0000 100.0000 100.0000 100.0000 100.0000 100.0000 100.0000 100.0000 100.0000 100.0000 100.0000 100.0000 100.0000 100.0000 100.0000 100.0000 100.0000 100.0000 100.0000 100.0000 100.0000
100.0000 100.0000 100.0000 100.0000 100.0000 100.0000 100.0000 100.0000 100.0000 100.0000 100.0000 100.0000 100.0000 100.0000 100.0000 100.0000 100.0000 100.0000 100.0000 100.0000 100.0000 100.0000 100.0000 100.0000 100.0000 100.0000 100.0000 100.0000 100.0000 100.0000 100.0000 100.0000 100.0000 100.0000 99.9887 99.9377 99.8873 99.8375 99.7883 99.7398 99.6917 99.6444 99.5975 99.5513 99.5058 99.4608 99.4163 99.3726 99.3294 99.2867 99.2447 99.2034 99.1625 99.1223 99.0828 99.0438 99.0053 98.9676 98.9304 98.8937 98.8577 98.8224 98.7875 98.7533 98.7198 98.6868 98.6543 98.6226 98.5914 98.5607 98.5307 98.5014 98.4725 98.4444 98.4167 98.3898 98.3633 98.3375 98.3123 98.2878 98.2638 98.2404 98.2176 98.1954 98.1737 98.1527 98.1324 98.1125 98.0934 98.0747 98.0567 98.0393 98.0225 98.0063 97.9908 97.9758 97.9613 97.9476 97.9343 97.9218 97.9098 97.8983 97.8876 97.8774 97.8678 97.8588 97.8504 97.8426 97.8354 97.8287 97.8227 97.8174 97.8126 97.8084 97.8047 97.8017 97.7994 97.7976 97.7964 97.7957 97.7957 97.7964 97.7976 97.7994 97.8017 97.8047 97.8084 97.8126 97.8174 97.8227 97.8287 97.8354 97.8426 97.8504 97.8588 97.8678 97.8774 97.8876 97.8983 97.9098 97.9218 97.9343 97.9476 97.9613 97.9758 97.9908 98.0063 98.0225 98.0393 98.0567 98.0747 98.0934 98.1125 98.1324 98.1527 98.1737 98.1954 98.2176 98.2404 98.2638 98.2878 98.3123 98.3375 98.3633 98.3898 98.4167 98.4444 98.4725 98.5014 98.5307 98.5607 98.5914 98.6226 98.6543 98.6868 98.7198 98.7533 98.7875 98.8224 98.8577 98.8937 98.9304 98.9676 99.0053 99.0438 99.0828 99.1223 99.1625 99.2034 99.2447 99.2867 99.3294 99.3726 99.4163 99.4608 99.5058 99.5513 99.5975 99.6444 99.6917 99.7398 99.7883 99.8375 99.8873 99.9377 99.9887 100.0000 100.0000 100.0000 100.0000 100.0000 100.0000 100.0000 100.0000 100.0000 100.0000 100.0000 100.0000 100.0000 100.0000 100.0000 100.0000 100.0000 100.0000 100.0000 100.0000 100.0000 100.0000 100.0000 100.0000 100.0000 100.0000 100.0000 100.0000 100.0000 100.0000 100.0000 100.0000 100.0000 100.0000
100.0000 100.0000 100.0000 100.0000 100.0000 100.0000 100.0000 100.0000 100.0000 100.0000 100.0000 100.0000 100.0000 100.0000 100.0000 100.0000 100.0000 100.0000 100.0000 100.0000 100.0000 100.0000 100.0000 100.0000 100.0000 100.0000 100.0000 100.0000 100.0000 100.0000 100.0000 100.0000 100.0000 100.0000 99.9582 99.9072 99.8568 99.8070 99.7578 99.7091 99.6612 99.6137 99.5670 99.5208 99.4751 99.4301 99.3858 99.3419 99.2987 99.2562 99.2142 99.1727 99.1320 99.0918 99.0521 99.0131 98.9748 98.9369 98.8997 98.8632 98.8272 98.7917 98.7570 98.7228 98.6891 98.6561 98.6238 98.5919 98.5607 98.5302 98.5002 98.4707 98.4420 98.4137 98.3862 98.3591 98.3328 98.3070 98.2818 98.2571 98.2331 98.2097 98.1869 98.1647 98.1432 98.1222 98.1017 98.0820 98.0627 98.0442 98.0262 98.0088 97.9920 97.9758 97.9601 97.9451 97.9308 97.9169 97.9038 97.8911 97.8791 97.8678 97.8569 97.8468 97.8371 97.8281 97.8197 97.8119 97.8047 97.7982 97.7922 97.7867 97.7819 97.7777 97.7742 97.7712 97.7687 97.7669 97.7657 97.7652 97.7652 97.7657 97.7669 97.7687 97.7712 97.7742 97.7777 97.7819 97.7867 97.7922 97.7982 97.8047 97.8119 97.8197 97.8281 97.8371 97.8468 97.8569 97.8678 97.8791 97.8911 97.9038 97.9169 97.9308 97.9451 97.9601 97.9758 97.9920 98.0088 98.0262 98.0442 98.0627 98.0820 98.1017 98.1222 98.1432 98.1647 98.1869 98.2097 98.2331 98.2571 98.2818 98.3070 98.3328 98.3591 98.3862 98.4137 98.4420 98.4707 98.5002 98.5302 98.5607 98.5919 98.6238 98.6561 98.6891 98.7228 98.7570 98.7917 98.8272 98.8632 98.8997 98.9369 98.9748 99.0131 99.0521 99.0918 99.1320 99.1727 99.2142 99.2562 99.2987 99.3419 99.3858 99.4301 99.4751 99.5208 99.5670 99.6137 99.6612 99.7091 99.7578 99.8070 99.8568 99.9072 99.9582 100.0000 100.0000 100.0000 100.0000 100.0000 100.0000 100.0000 100.0000 100.0000 100.0000 100.0000 100.0000 100.0000 100.0000 100.0000 100.0000 100.0000 100.0000 100.0000 100.0000 100.0000 100.0000 100.0000 100.0000 100.0000 100.0000 100.0000 100.0000 100.0000 100.0000 100.0000 100.0000 100.0000 100.0000
100.0000 100.0000 100.0000 100.0000 100.0000 100.0000 100.0000 100.0000 100.0000 100.0000 100.0000 100.0000 100.0000 100.0000 100.0000 100.0000 100.0000 100.0000 100.0000 100.0000 100.0000 100.0000 100.0000 100.0000 100.0000 100.0000 100.0000 100.0000 100.0000 100.0000 100.0000 100.0000 100.0000 99.9797 99.9282 99.8772 99.8268 99.7769 99.7278 99.6791 99.6312 99.5837 99.5370 99.4908 99.4451 99.4001 99.3558 99.3119 99.2687 99.2262 99.1842 99.1428 99.1020 99.0618 99.0221 98.9831 98.9447 98.9069 98.8697 98.8332 98.7972 98.7618 98.7270 98.6928 98.6591 98.6261 98.5938 98.5619 98.5307 98.5002 98.4702 98.4407 98.4120 98.3838 98.3561 98.3291 98.3028 98.2769 98.2518 98.2271 98.2031 98.1797 98.1569 98.1347 98.1132 98.0922 98.0717 98.0520 98.0327 98.0142 97.9962 97.9788 97.9620 97.9458 97.9301 97.9151 97.9008 97.8869 97.8738 97.8611 97.8491 97.8377 97.8269 97.8167 97.8072 97.7982 97.7897 97.7819 97.7747 97.7682 97.7622 97.7567 97.7519 97.7477 97.7442 97.7412 97.7387 97.7369 97.7357 97.7352 97.7352 97.7357 97.7369 97.7387 97.7412 97.7442 97.7477 97.7519 97.7567 97.7622 97.7682 97.7747 97.7819 97.7897 97.7982 97.8072 97.8167 97.8269 97.8377 97.8491 97.8611 97.8738 97.8869 97.9008 97.9151 97.9301 97.9458 97.9620 97.9788 97.9962 98.0142 98.0327 98.0520 98.0717 98.0922 98.1132 98.1347 98.1569 98.1797 98.2031 98.2271 98.2518 98.2769 98.3028 98.3291 98.3561 98.3838 98.4120 98.4407 98.4702 98.5002 98.5307 98.5619 98.5938 98.6261 98.6591 98.6928 98.7270 98.7618 98.7972 98.8332 98.8697 98.9069 98.9447 98.9831 99.0221 99.0618 99.1020 99.1428 99.1842 99.2262 99.2687 99.3119 99.3558 99.4001 99.4451 99.4908 99.5370 99.5837 99.6312 99.6791 99.7278 99.7769 99.8268 99.8772 99.9282 99.9797 100.0000 100.0000 100.0000 100.0000 100.0000 100.0000 100.0000 100.0000 100.0000 100.0000 100.0000 100.0000 100.0000 100.0000 100.0000 100.0000 100.0000 100.0000 100.0000 100.0000 100.0000 100.0000 100.0000 100.0000 100.0000 100.0000 100.0000 100.0000 100.0000 100.0000 100.0000 100.0000 100.0000
100.0000 100.0000 100.0000 100.0000 100.0000 100.0000 100.0000 100.0000 100.0000 100.0000 100.0000 100.0000 100.0000 100.0000 100.0000 100.0000 100.0000 100.0000 100.0000 100.0000 100.0000 100.0000 100.0000 100.0000 100.0000 100.0000 100.0000 100.0000 100.0000 100.0000 100.0000 100.0000 100.0000 99.9504 99.8988 99.8478 99.7973 99.7476 99.6984 99.6497 99.6017 99.5543 99.5075 99.4613 99.4158 99.3708 99.3264 99.2826 99.2394 99.1967 99.1548 99.1133 99.0726 99.0323 98.9928 98.9537 98.9154 98.8775 98.8404 98.8037 98.7678 98.7323 98.6976 98.6633 98.6298 98.5968 98.5644 98.5326 98.5014 98.4707 98.4407 98.4113 98.3825 98.3543 98.3268 98.2998 98.2733 98.2476 98.2224 98.1977 98.1737 98.1504 98.1275 98.1054 98.0837 98.0627 98.0423 98.0225 98.0033 97.9848 97.9668 97.9493 97.9326 97.9163 97.9008 97.8858 97.8714 97.8576 97.8444 97.8317 97.8197 97.8084 97.7976 97.7874 97.7777 97.7687 97.7604 97.7525 97.7454 97.7387 97.7327 97.7274 97.7225 97.7184 97.7147 97.7117 97.7094 97.7075 97.7064 97.7057 97.7057 97.7064 97.7075 97.7094 97.7117 97.7147 97.7184 97.7225 97.7274 97.7327 97.7387 97.7454 97.7525 97.7604 97.7687 97.7777 97.7874 97.7976 97.8084 97.8197 97.8317 97.8444 97.8576 97.8714 97.8858 97.9008 97.9163 97.9326 97.9493 97.9668 97.9848 98.0033 98.0225 98.0423 98.0627 98.0837 98.1054 98.1275 98.1504 98.1737 98.1977 98.2224 98.2476 98.2733 98.2998 98.3268 98.3543 98.3825 98.4113 98.4407 98.4707 98.5014 98.5326 98.5644 98.5968 98.6298 98.6633 98.6976 98.7323 98.7678 98.8037 98.8404 98.8775 98.9154 98.9537 98.9928 99.0323 99.0726 99.1133 99.1548 99.1967 99.2394 99.2826 99.3264 99.3708 99.4158 99.4613 99.5075 99.5543 99.6017 99.6497 99.6984 99.7476 99.7973 99.8478 99.8988 99.9504 100.0000 100.0000 100.0000 100.0000 100.0000 100.0000 100.0000 100.0000 100.0000 100.0000 100.0000 100.0000 100.0000 100.0000 100.0000 100.0000 100.0000 100.0000 100.0000 100.0000 100.0000 100.0000 100.0000 100.0000 100.0000 100.0000 100.0000 100.0000 100.0000 100.0000 100.0000 100.0000 100.0000
100.0000 100.0000 100.0000 100.0000 100.0000 100.0000 100.0000 100.0000 100.0000 100.0000 100.0000 100.0000 100.0000 100.0000 100.0000 100.0000 100.0000 100.0000 100.0000 100.0000 100.0000 100.0000 100.0000 100.0000 100.0000 100.0000 100.0000 100.0000 100.0000 100.0000 100.0000 100.0000 99.9737 99.9215 99.8700 99.8190 99.7686 99.7188 99.6696 99.6209 99.5730 99.5255 99.4788 99.4326 99.3869 99.3419 99.2976 99.2537 99.2105 99.1680 99.1260 99.0846 99.0438 99.0036 98.9639 98.9249 98.8865 98.8487 98.8115 98.7750 98.7390 98.7036 98.6688 98.6346 98.6009 98.5679 98.5356 98.5037 98.4725 98.4420 98.4120 98.3825 98.3538 98.3256 98.2980 98.2709 98.2446 98.2188 98.1936 98.1689 98.1449 98.1215 98.0987 98.0765 98.0550 98.0340 98.0135 97.9938 97.9745 97.9560 97.9380 97.9206 97.9038 97.8876 97.8719 97.8569 97.8426 97.8287 97.8156 97.8029 97.7909 97.7796 97.7687 97.7585 97.7489 97.7399 97.7315 97.7237 97.7165 97.7100 97.7040 97.6985 97.6937 97.6895 97.6860 97.6830 97.6805 97.6787 97.6775 97.6770 97.6770 97.6775 97.6787 97.6805 97.6830 97.6860 97.6895 97.6937 97.6985 97.7040 97.7100 97.7165 97.7237 97.7315 97.7399 97.7489 97.7585 97.7687 97.7796 97.7909 97.8029 97.8156 97.8287 97.8426 97.8569 97.8719 97.8876 97.9038 97.9206 97.9380 97.9560 97.9745 97.9938 98.0135 98.0340 98.0550 98.0765 98.0987 98.1215 98.1449 98.1689 98.1936 98.2188 98.2446 98.2709 98.2980 98.3256 98.3538 98.3825 98.4120 98.4420 98.4725 98.5037 98.5356 98.5679 98.6009 98.6346 98.6688 98.7036 98.7390 98.7750 98.8115 98.8487 98.8865 98.9249 98.9639 99.0036 99.0438 99.0846 99.1260 99.1680 99.2105 99.2537 99.2976 99.3419 99.3869 99.4326 99.4788 99.5255 99.5730 99.6209 99.6696 99.7188 99.7686 99.8190 99.8700 99.9215 99.9737 100.0000 100.0000 100.0000 100.0000 100.0000 100.0000 100.0000 100.0000 100.0000 100.0000 100.0000 100.0000 100.0000 100.0000 100.0000 100.0000 100.0000 100.0000 100.0000 100.0000 100.0000 100.0000 100.0000 100.0000 100.0000 100.0000 100.0000 100.0000 100.0000 100.0000 100.0000 100.0000
100.0000 100.0000 100.0000 100.0000 100.0000 100.0000 100.0000 100.0000 100.0000 100.0000 100.0000 100.0000 100.0000 100.0000 100.0000 100.0000 100.0000 100.0000 100.0000 100.0000 100.0000 100.0000 100.0000 100.0000 100.0000 100.0000 100.0000 100.0000 100.0000 100.0000 100.0000 99.9984 99.9455 99.8933 99.8418 99.7908 99.7404 99.6906 99.6414 99.5927 99.5447 99.4973 99.4505 99.4043 99.3588 99.3137 99.2694 99.2255 99.1823 99.1398 99.0978 99.0563 99.0156 98.9754 98.9357 98.8967 98.8584 98.8205 98.7833 98.7468 98.7108 98.6753 98.6406 98.6064 98.5727 98.5397 98.5074 98.4755 98.4444 98.4137 98.3838 98.3543 98.3256 98.2973 98.2698 98.2428 98.2164 98.1906 98.1654 98.1407 98.1167 98.0934 98.0705 98.0483 98.0268 98.0058 97.9853 97.9655 97.9463 97.9278 97.9098 97.8923 97.8756 97.8594 97.8438 97.8287 97.8144 97.8006 97.7874 97.7747 97.7627 97.7514 97.7405 97.7304 97.7207 97.7117 97.7034 97.6955 97.6883 97.6817 97.6757 97.6703 97.6655 97.6613 97.6577 97.6548 97.6523 97.6505 97.6493 97.6488 97.6488 97.6493 97.6505 97.6523 97.6548 97.6577 97.6613 97.6655 97.6703 97.6757 97.6817 97.6883 97.6955 97.7034 97.7117 97.7207 97.7304 97.7405 97.7514 97.7627 97.7747 97.7874 97.8006 97.8144 97.8287 97.8438 97.8594 97.8756 97.8923 97.9098 97.9278 97.9463 97.9655 97.9853 98.0058 98.0268 98.0483 98.0705 98.0934 98.1167 98.1407 98.1654 98.1906 98.2164 98.2428 98.2698 98.2973 98.3256 98.3543 98.3838 98.4137 98.4444 98.4755 98.5074 98.5397 98.5727 98.6064 98.6406 98.6753 98.7108 98.7468 98.7833 98.8205 98.8584 98.8967 98.9357 98.9754 99.0156 99.0563 99.0978 99.1398 99.1823 99.2255 99.2694 99.3137 99.3588 99.4043 99.4505 99.4973 99.5447 99.5927 99.6414 99.6906 99.7404 99.7908 99.8418 99.8933 99.9455 99.9984 100.0000 100.0000 100.0000 100.0000 100.0000 100.0000 100.0000 100.0000 100.0000 100.0000 100.0000 100.0000 100.0000 100.0000 100.0000 100.0000 100.0000 100.0000 100.0000 100.0000 100.0000 100.0000 100.0000 100.0000 100.0000 100.0000 100.0000 100.0000 100.0000 100.0000 100.0000
100.0000 100.0000 100.0000 100.0000 100.0000 100.0000 100.0000 100.0000 100.0000 100.0000 100.0000 100.0000 100.0000 100.0000 100.0000 100.0000 100.0000 100.0000 100.0000 100.0000 100.0000 100.0000 100.0000 100.0000 100.0000 100.0000 100.0000 100.0000 100.0000 100.0000 100.0000 99.9707 99.9180 99.8658 99.8141 99.7631 99.7127 99.6629 99.6137 99.5652 99.5172 99.4698 99.4230 99.3768 99.3311 99.2862 99.2417 99.1980 99.1548 99.1121 99.0701 99.0288 98.9879 98.9477 98.9082 98.8692 98.8307 98.7930 98.7558 98.7191 98.6831 98.6478 98.6129 98.5787 98.5452 98.5122 98.4797 98.4480 98.4167 98.3862 98.3561 98.3268 98.2980 98.2698 98.2421 98.2151 98.1887 98.1629 98.1377 98.1132 98.0892 98.0657 98.0430 98.0208 97.9992 97.9781 97.9578 97.9380 97.9188 97.9001 97.8821 97.8648 97.8479 97.8317 97.8161 97.8012 97.7867 97.7729 97.7597 97.7472 97.7352 97.7237 97.7130 97.7027 97.6932 97.6842 97.6757 97.6680 97.6607 97.6542 97.6482 97.6428 97.6380 97.6338 97.6302 97.6272 97.6248 97.6230 97.6218 97.6212 97.6212 97.6218 97.6230 97.6248 97.6272 97.6302 97.6338 97.6380 97.6428 97.6482 97.6542 97.6607 97.6680 97.6757 97.6842 97.6932 97.7027 97.7130 97.7237 97.7352 97.7472 97.7597 97.7729 97.7867 97.8012 97.8161 97.8317 97.8479 97.8648 97.8821 97.9001 97.9188 97.9380 97.9578 97.9781 97.9992 98.0208 98.0430 98.0657 98.0892 98.1132 98.1377 98.1629 98.1887 98.2151 98.2421 98.2698 98.2980 98.3268 98.3561 98.3862 98.4167 98.4480 98.4797 98.5122 98.5452 98.5787 98.6129 98.6478 98.6831 98.7191 98.7558 98.7930 98.8307 98.8692 98.9082 98.9477 98.9879 99.0288 99.0701 99.1121 99.1548 99.1980 99.2417 99.2862 99.3311 99.3768 99.4230 99.4698 99.5172 99.5652 99.6137 99.6629 99.7127 99.7631 99.8141 99.8658 99.9180 99.9707 100.0000 100.0000 100.0000 100.0000 100.0000 100.0000 100.0000 100.0000 100.0000 100.0000 100.0000 100.0000 100.0000 100.0000 100.0000 100.0000 100.0000 100.0000 100.0000 100.0000 100.0000 100.0000 100.0000 100.0000 100.0000 100.0000 100.0000 100.0000 100.0000 100.0000 100.0000
100.0000 100.0000 100.0000 100.0000 100.0000 100.0000 100.0000 100.0000 100.0000 100.0000 100.0000 100.0000 100.0000 100.0000 100.0000 100.0000 100.0000 100.0000 100.0000 100.0000 100.0000 100.0000 100.0000 100.0000 100.0000 100.0000 100.0000 100.0000 100.0000 100.0000 99.9972 99.9437 99.8910 99.8388 99.7871 99.7361 99.6857 99.6359 99.5867 99.5382 99.4901 99.4428 99.3959 99.3498 99.3041 99.2592 99.2147 99.1710 99.1278 99.0851 99.0431 99.0018 98.9609 98.9207 98.8812 98.8422 98.8037 98.7660 98.7288 98.6921 98.6561 98.6208 98.5859 98.5517 98.5182 98.4852 98.4527 98.4210 98.3898 98.3591 98.3291 98.2998 98.2709 98.2428 98.2151 98.1881 98.1617 98.1359 98.1107 98.0862 98.0622 98.0387 98.0160 97.9938 97.9721 97.9511 97.9308 97.9109 97.8918 97.8731 97.8551 97.8377 97.8209 97.8047 97.7892 97.7742 97.7597 97.7459 97.7327 97.7202 97.7082 97.6967 97.6860 97.6757 97.6662 97.6572 97.6488 97.6410 97.6338 97.6272 97.6212 97.6158 97.6110 97.6068 97.6031 97.6001 97.5978 97.5960 97.5948 97.5941 97.5941 97.5948 97.5960 97.5978 97.6001 97.6031 97.6068 97.6110 97.6158 97.6212 97.6272 97.6338 97.6410 97.6488 97.6572 97.6662 97.6757 97.6860 97.6967 97.7082 97.7202 97.7327 97.7459 97.7597 97.7742 97.7892 97.8047 97.8209 97.8377 97.8551 97.8731 97.8918 97.9109 97.9308 97.9511 97.9721 97.9938 98.0160 98.0387 98.0622 98.0862 98.1107 98.1359 98.1617 98.1881 98.2151 98.2428 98.2709 98.2998 98.3291 98.3591 98.3898 98.4210 98.4527 98.4852 98.5182 98.5517 98.5859 98.6208 98.6561 98.6921 98.7288 98.7660 98.8037 98.8422 98.8812 98.9207 98.9609 99.0018 99.0431 99.0851 99.1278 99.1710 99.2147 99.2592 99.3041 99.3498 99.3959 99.4428 99.4901 99.5382 99.5867 99.6359 99.6857 99.7361 99.7871 99.8388 99.8910 99.9437 99.9972 100.0000 100.0000 100.0000 100.0000 100.0000 100.0000 100.0000 100.0000 100.0000 100.0000 100.0000 100.0000 100.0000 100.0000 100.0000 100.0000 100.0000 100.0000 100.0000 100.0000 100.0000 100.0000 100.0000 100.0000 100.0000 100.0000 100.0000 100.0000 100.0000 100.0000
100.0000 100.0000 100.0000 100.0000 100.0000 100.0000 100.0000 100.0000 100.0000 100.0000 100.0000 100.0000 100.0000 100.0000 100.0000 100.0000 100.0000 100.0000 100.0000 100.0000 100.0000 100.0000 100.0000 100.0000 100.0000 100.0000 100.0000 100.0000 100.0000 100.0000 99.9707 99.9173 99.8645 99.8123 99.7608 99.7097 99.6594 99.6095 99.5603 99.5118 99.4638 99.4163 99.3696 99.3234 99.2777 99.2327 99.1883 99.1445 99.1013 99.0588 99.0168 98.9754 98.9346 98.8944 98.8547 98.8157 98.7773 98.7395 98.7023 98.6658 98.6298 98.5944 98.5596 98.5254 98.4917 98.4587 98.4263 98.3945 98.3633 98.3328 98.3028 98.2733 98.2446 98.2164 98.1887 98.1617 98.1354 98.1095 98.0844 98.0597 98.0357 98.0123 97.9895 97.9673 97.9458 97.9248 97.9043 97.8846 97.8654 97.8468 97.8287 97.8114 97.7946 97.7784 97.7627 97.7477 97.7334 97.7195 97.7064 97.6937 97.6817 97.6703 97.6595 97.6493 97.6398 97.6308 97.6223 97.6145 97.6073 97.6008 97.5948 97.5893 97.5845 97.5803 97.5768 97.5738 97.5713 97.5696 97.5683 97.5678 97.5678 97.5683 97.5696 97.5713 97.5738 97.5768 97.5803 97.5845 97.5893 97.5948 97.6008 97.6073 97.6145 97.6223 97.6308 97.6398 97.6493 97.6595 97.6703 97.6817 97.6937 97.7064 97.7195 97.7334 97.7477 97.7627 97.7784 97.7946 97.8114 97.8287 97.8468 97.8654 97.8846 97.9043 97.9248 97.9458 97.9673 97.9895 98.0123 98.0357 98.0597 98.0844 98.1095 98.1354 98.1617 98.1887 98.2164 98.2446 98.2733 98.3028 98.3328 98.3633 98.3945 98.4263 98.4587 98.4917 98.5254 98.5596 98.5944 98.6298 98.6658 98.7023 98.7395 98.7773 98.8157 98.8547 98.8944 98.9346 98.9754 99.0168 99.0588 99.1013 99.1445 99.1883 99.2327 99.2777 99.3234 99.3696 99.4163 99.4638 99.5118 99.5603 99.6095 99.6594 99.7097 99.7608 99.8123 99.8645 99.9173 99.9707 100.0000 100.0000 100.0000 100.0000 100.0000 100.0000 100.0000 100.0000 100.0000 100.0000 100.0000 100.0000 100.0000 100.0000 100.0000 100.0000 100.0000 100.0000 100.0000 100.0000 100.0000 100.0000 100.0000 100.0000 100.0000 100.0000 100.0000 100.0000 100.0000 100.0000
100.0000 100.0000 100.0000 100.0000 100.0000 100.0000 100.0000 100.0000 100.0000 100.0000 100.0000 100.0000 100.0000 100.0000 100.0000 100.0000 100.0000 100.0000 100.0000 100.0000 100.0000 100.0000 100.0000 100.0000 100.0000 100.0000 100.0000 100.0000 100.0000 99.9989 99.9450 99.8915 99.8388 99.7866 99.7349 99.6839 99.6335 99.5837 99.5345 99.4860 99.4380 99.3906 99.3438 99.2976 99.2519 99.2070 99.1625 99.1188 99.0755 99.0329 98.9909 98.9496 98.9087 98.8685 98.8290 98.7900 98.7515 98.7138 98.6766 98.6399 98.6039 98.5686 98.5337 98.4995 98.4660 98.4330 98.4005 98.3688 98.3375 98.3070 98.2769 98.2476 98.2188 98.1906 98.1629 98.1359 98.1095 98.0837 98.0585 98.0340 98.0100 97.9865 97.9638 97.9416 97.9200 97.8989 97.8786 97.8588 97.8396 97.8209 97.8029 97.7856 97.7687 97.7525 97.7369 97.7220 97.7075 97.6937 97.6805 97.6680 97.6560 97.6445 97.6338 97.6235 97.6140 97.6050 97.5965 97.5888 97.5815 97.5750 97.5690 97.5636 97.5588 97.5546 97.5510 97.5480 97.5456 97.5438 97.5426 97.5419 97.5419 97.5426 97.5438 97.5456 97.5480 97.5510 97.5546 97.5588 97.5636 97.5690 97.5750 97.5815 97.5888 97.5965 97.6050 97.6140 97.6235 97.6338 97.6445 97.6560 97.6680 97.6805 97.6937 97.7075 97.7220 97.7369 97.7525 97.7687 97.7856 97.8029 97.8209 97.8396 97.8588 97.8786 97.8989 97.9200 97.9416 97.9638 97.9865 98.0100 98.0340 98.0585 98.0837 98.1095 98.1359 98.1629 98.1906 98.2188 98.2476 98.2769 98.3070 98.3375 98.3688 98.4005 98.4330 98.4660 98.4995 98.5337 98.5686 98.6039 98.6399 98.6766 98.7138 98.7515 98.7900 98.8290 98.8685 98.9087 98.9496 98.9909 99.0329 99.0755 99.1188 99.1625 99.2070 99.2519 99.2976 99.3438 99.3906 99.4380 99.4860 99.5345 99.5837 99.6335 99.6839 99.7349 99.7866 99.8388 99.8915 99.9450 99.9989 100.0000 100.0000 100.0000 100.0000 100.0000 100.0000 100.0000 100.0000 100.0000 100.0000 100.0000 100.0000 100.0000 100.0000 100.0000 100.0000 100.0000 100.0000 100.0000 100.0000 100.0000 100.0000 100.0000 100.0000 100.0000 100.0000 100.0000 100.0000 100.0000
100.0000 100.0000 100.0000 100.0000 100.0000 100.0000 100.0000 100.0000 100.0000 100.0000 100.0000 100.0000 100.0000 100.0000 100.0000 100.0000 100.0000 100.0000 100.0000 100.0000 100.0000 100.0000 100.0000 100.0000 100.0000 100.0000 100.0000 100.0000 100.0000 99.9737 99.9197 99.8663 99.8136 99.7613 99.7097 99.6587 99.6084 99.5585 99.5093 99.4608 99.4128 99.3654 99.3186 99.2724 99.2267 99.1817 99.1373 99.0935 99.0503 99.0078 98.9657 98.9244 98.8835 98.8434 98.8037 98.7648 98.7263 98.6886 98.6513 98.6148 98.5787 98.5434 98.5085 98.4744 98.4407 98.4077 98.3753 98.3435 98.3123 98.2818 98.2518 98.2224 98.1936 98.1654 98.1377 98.1107 98.0844 98.0585 98.0333 98.0088 97.9848 97.9613 97.9386 97.9163 97.8948 97.8738 97.8534 97.8336 97.8144 97.7957 97.7777 97.7604 97.7435 97.7274 97.7117 97.6967 97.6823 97.6685 97.6553 97.6428 97.6308 97.6193 97.6085 97.5983 97.5888 97.5798 97.5713 97.5636 97.5563 97.5498 97.5438 97.5383 97.5336 97.5293 97.5258 97.5228 97.5203 97.5186 97.5173 97.5168 97.5168 97.5173 97.5186 97.5203 97.5228 97.5258 97.5293 97.5336 97.5383 97.5438 97.5498 97.5563 97.5636 97.5713 97.5798 97.5888 97.5983 97.6085 97.6193 97.6308 97.6428 97.6553 97.6685 97.6823 97.6967 97.7117 97.7274 97.7435 97.7604 97.7777 97.7957 97.8144 97.8336 97.8534 97.8738 97.8948 97.9163 97.9386 97.9613 97.9848 98.0088 98.0333 98.0585 98.0844 98.1107 98.1377 98.1654 98.1936 98.2224 98.2518 98.2818 98.3123 98.3435 98.3753 98.4077 98.4407 98.4744 98.5085 98.5434 98.5787 98.6148 98.6513 98.6886 98.7263 98.7648 98.8037 98.8434 98.8835 98.9244 98.9657 99.0078 99.0503 99.0935 99.1373 99.1817 99.2267 99.2724 99.3186 99.3654 99.4128 99.4608 99.5093 99.5585 99.6084 99.6587 99.7097 99.7613 99.8136 99.8663 99.9197 99.9737 100.0000 100.0000 100.0000 100.0000 100.0000 100.0000 100.0000 100.0000 100.0000 100.0000 100.0000 100.0000 100.0000 100.0000 100.0000 100.0000 100.0000 100.0000 100.0000 100.0000 100.0000 100.0000 100.0000 100.0000 100.0000 100.0000 100.0000 100.0000 100.0000
100.0000 100.0000 100.0000 100.0000 100.0000 100.0000 100.0000 100.0000 100.0000 100.0000 100.0000 100.0000 100.0000 100.0000 100.0000 100.0000 100.0000 100.0000 100.0000 100.0000 100.0000 100.0000 100.0000 100.0000 100.0000 100.0000 100.0000 100.0000 100.0000 99.9492 99.8952 99.8418 99.7889 99.7368 99.6851 99.6342 99.5837 99.5340 99.4848 99.4361 99.3881 99.3407 99.2939 99.2477 99.2022 99.1572 99.1128 99.0690 99.0258 98.9831 98.9411 98.8997 98.8589 98.8187 98.7792 98.7401 98.7018 98.6639 98.6268 98.5901 98.5541 98.5187 98.4839 98.4497 98.4162 98.3832 98.3508 98.3190 98.2878 98.2571 98.2271 98.1977 98.1689 98.1407 98.1132 98.0862 98.0597 98.0340 98.0088 97.9841 97.9601 97.9368 97.9139 97.8918 97.8701 97.8491 97.8287 97.8089 97.7897 97.7712 97.7532 97.7357 97.7190 97.7027 97.6872 97.6722 97.6577 97.6440 97.6308 97.6181 97.6061 97.5948 97.5840 97.5738 97.5641 97.5551 97.5468 97.5389 97.5318 97.5251 97.5191 97.5138 97.5089 97.5048 97.5011 97.4981 97.4958 97.4939 97.4928 97.4921 97.4921 97.4928 97.4939 97.4958 97.4981 97.5011 97.5048 97.5089 97.5138 97.5191 97.5251 97.5318 97.5389 97.5468 97.5551 97.5641 97.5738 97.5840 97.5948 97.6061 97.6181 97.6308 97.6440 97.6577 97.6722 97.6872 97.7027 97.7190 97.7357 97.7532 97.7712 97.7897 97.8089 97.8287 97.8491 97.8701 97.8918 97.9139 97.9368 97.9601 97.9841 98.0088 98.0340 98.0597 98.0862 98.1132 98.1407 98.1689 98.1977 98.2271 98.2571 98.2878 98.3190 98.3508 98.3832 98.4162 98.4497 98.4839 98.5187 98.5541 98.5901 98.6268 98.6639 98.7018 98.7401 98.7792 98.8187 98.8589 98.8997 98.9411 98.9831 99.0258 99.0690 99.1128 99.1572 99.2022 99.2477 99.2939 99.3407 99.3881 99.4361 99.4848 99.5340 99.5837 99.6342 99.6851 99.7368 99.7889 99.8418 99.8952 99.9492 100.0000 100.0000 100.0000 100.0000 100.0000 100.0000 100.0000 100.0000 100.0000 100.0000 100.0000 100.0000 100.0000 100.0000 100.0000 100.0000 100.0000 100.0000 100.0000 100.0000 100.0000 100.0000 100.0000 100.0000 100.0000 100.0000 100.0000 100.0000 100.0000
100.0000 100.0000 100.0000 100.0000 100.0000 100.0000 100.0000 100.0000 100.0000 100.0000 100.0000 100.0000 100.0000 100.0000 100.0000 100.0000 100.0000 100.0000 100.0000 100.0000 100.0000 100.0000 100.0000 100.0000 100.0000 100.0000 100.0000 100.0000 99.9797 99.9252 99.8712 99.8178 99.7649 99.7127 99.6612 99.6102 99.5597 99.5100 99.4608 99.4121 99.3641 99.3167 99.2699 99.2237 99.1782 99.1332 99.0888 99.0450 99.0018 98.9591 98.9172 98.8757 98.8350 98.7947 98.7552 98.7161 98.6778 98.6399 98.6028 98.5661 98.5302 98.4947 98.4600 98.4257 98.3922 98.3591 98.3268 98.2950 98.2638 98.2331 98.2031 98.1737 98.1449 98.1167 98.0892 98.0622 98.0357 98.0100 97.9848 97.9601 97.9361 97.9128 97.8899 97.8678 97.8461 97.8251 97.8047 97.7849 97.7657 97.7472 97.7292 97.7117 97.6950 97.6787 97.6632 97.6482 97.6338 97.6200 97.6068 97.5941 97.5821 97.5708 97.5600 97.5498 97.5401 97.5311 97.5228 97.5149 97.5078 97.5011 97.4951 97.4898 97.4849 97.4808 97.4771 97.4741 97.4718 97.4699 97.4688 97.4681 97.4681 97.4688 97.4699 97.4718 97.4741 97.4771 97.4808 97.4849 97.4898 97.4951 97.5011 97.5078 97.5149 97.5228 97.5311 97.5401 97.5498 97.5600 97.5708 97.5821 97.5941 97.6068 97.6200 97.6338 97.6482 97.6632 97.6787 97.6950 97.7117 97.7292 97.7472 97.7657 97.7849 97.8047 97.8251 97.8461 97.8678 97.8899 97.9128 97.9361 97.9601 97.9848 98.0100 98.0357 98.0622 98.0892 98.1167 98.1449 98.1737 98.2031 98.2331 98.2638 98.2950 98.3268 98.3591 98.3922 98.4257 98.4600 98.4947 98.5302 98.5661 98.6028 98.6399 98.6778 98.7161 98.7552 98.7947 98.8350 98.8757 98.9172 98.9591 99.0018 99.0450 99.0888 99.1332 99.1782 99.2237 99.2699 99.3167 99.3641 99.4121 99.4608 99.5100 99.5597 99.6102 99.6612 99.7127 99.7649 99.8178 99.8712 99.9252 99.9797 100.0000 100.0000 100.0000 100.0000 100.0000 100.0000 100.0000 100.0000 100.0000 100.0000 100.0000 100.0000 100.0000 100.0000 100.0000 100.0000 100.0000 100.0000 100.0000 100.0000 100.0000 100.0000 100.0000 100.0000 100.0000 100.0000 100.0000 100.0000
100.0000 100.0000 100.0000 100.0000 100.0000 100.0000 100.0000 100.0000 100.0000 100.0000 100.0000 100.0000 100.0000 100.0000 100.0000 100.0000 100.0000 100.0000 100.0000 100.0000 100.0000 100.0000 100.0000 100.0000 100.0000 100.0000 100.0000 100.0000 99.9564 99.9018 99.8478 99.7943 99.7416 99.6894 99.6377 99.5867 99.5363 99.4865 99.4373 99.3888 99.3407 99.2934 99.2465 99.2004 99.1548 99.1098 99.0653 99.0216 98.9784 98.9357 98.8937 98.8524 98.8115 98.7713 98.7318 98.6928 98.6543 98.6166 98.5794 98.5427 98.5067 98.4714 98.4365 98.4023 98.3688 98.3358 98.3033 98.2716 98.2404 98.2097 98.1797 98.1504 98.1215 98.0934 98.0657 98.0387 98.0123 97.9865 97.9613 97.9368 97.9128 97.8893 97.8666 97.8444 97.8227 97.8017 97.7814 97.7615 97.7424 97.7237 97.7057 97.6883 97.6715 97.6553 97.6398 97.6248 97.6103 97.5965 97.5833 97.5708 97.5588 97.5473 97.5366 97.5263 97.5168 97.5078 97.4994 97.4916 97.4844 97.4778 97.4718 97.4664 97.4616 97.4574 97.4537 97.4507 97.4484 97.4466 97.4454 97.4447 97.4447 97.4454 97.4466 97.4484 97.4507 97.4537 97.4574 97.4616 97.4664 97.4718 97.4778 97.4844 97.4916 97.4994 97.5078 97.5168 97.5263 97.5366 97.5473 97.5588 97.5708 97.5833 97.5965 97.6103 97.6248 97.6398 97.6553 97.6715 97.6883 97.7057 97.7237 97.7424 97.7615 97.7814 97.8017 97.8227 97.8444 97.8666 97.8893 97.9128 97.9368 97.9613 97.9865 98.0123 98.0387 98.0657 98.0934 98.1215 98.1504 98.1797 98.2097 98.2404 98.2716 98.3033 98.3358 98.3688 98.4023 98.4365 98.4714 98.5067 98.5427 98.5794 98.6166 98.6543 98.6928 98.7318 98.7713 98.8115 98.8524 98.8937 98.9357 98.9784 99.0216 99.0653 99.1098 99.1548 99.2004 99.2465 99.2934 99.3407 99.3888 99.4373 99.4865 99.5363 99.5867 99.6377 99.6894 99.7416 99.7943 99.8478 99.9018 99.9564 100.0000 100.0000 100.0000 100.0000 100.0000 100.0000 100.0000 100.0000 100.0000 100.0000 100.0000 100.0000 100.0000 100.0000 100.0000 100.0000 100.0000 100.0000 100.0000 100.0000 100.0000 100.0000 100.0000 100.0000 100.0000 100.0000 100.0000 100.0000
100.0000 100.0000 100.0000 100.0000 100.0000 100.0000 100.0000 100.0000 100.0000 100.0000 100.0000 100.0000 100.0000 100.0000 100.0000 100.0000 100.0000 100.0000 100.0000 100.0000 100.0000 100.0000 100.0000 100.0000 100.0000 100.0000 100.0000 99.9887 99.9335 99.8790 99.8250 99.7716 99.7188 99.6666 99.6149 99.5640 99.5135 99.4638 99.4146 99.3659 99.3179 99.2706 99.2237 99.1775 99.1320 99.0870 99.0426 98.9988 98.9556 98.9129 98.8709 98.8295 98.7887 98.7485 98.7090 98.6700 98.6316 98.5938 98.5566 98.5199 98.4839 98.4485 98.4137 98.3795 98.3460 98.3130 98.2806 98.2488 98.2176 98.1869 98.1569 98.1275 98.0987 98.0705 98.0430 98.0160 97.9895 97.9638 97.9386 97.9139 97.8899 97.8666 97.8438 97.8216 97.7999 97.7789 97.7585 97.7387 97.7195 97.7010 97.6830 97.6655 97.6488 97.6325 97.6170 97.6020 97.5875 97.5738 97.5606 97.5480 97.5359 97.5246 97.5138 97.5036 97.4939 97.4849 97.4766 97.4688 97.4616 97.4549 97.4489 97.4436 97.4387 97.4346 97.4309 97.4279 97.4256 97.4237 97.4226 97.4219 97.4219 97.4226 97.4237 97.4256 97.4279 97.4309 97.4346 97.4387 97.4436 97.4489 97.4549 97.4616 97.4688 97.4766 97.4849 97.4939 97.5036 97.5138 97.5246 97.5359 97.5480 97.5606 97.5738 97.5875 97.6020 97.6170 97.6325 97.6488 97.6655 97.6830 97.7010 97.7195 97.7387 97.7585 97.7789 97.7999 97.8216 97.8438 97.8666 97.8899 97.9139 97.9386 97.9638 97.9895 98.0160 98.0430 98.0705 98.0987 98.1275 98.1569 98.1869 98.2176 98.2488 98.2806 98.3130 98.3460 98.3795 98.4137 98.4485 98.4839 98.5199 98.5566 98.5938 98.6316 98.6700 98.7090 98.7485 98.7887 98.8295 98.8709 98.9129 98.9556 98.9988 99.0426 99.0870 99.1320 99.1775 99.2237 99.2706 99.3179 99.3659 99.4146 99.4638 99.5135 99.5640 99.6149 99.6666 99.7188 99.7716 99.8250 99.8790 99.9335 99.9887 100.0000 100.0000 100.0000 100.0000 100.0000 100.0000 100.0000 100.0000 100.0000 100.0000 100.0000 100.0000 100.0000 100.0000 100.0000 100.0000 100.0000 100.0000 100.0000 100.0000 100.0000 100.0000 100.0000 100.0000 100.0000 100.0000 100.0000
100.0000 100.0000 100.0000 100.0000 100.0000 100.0000 100.0000 100.0000 100.0000 100.0000 100.0000 100.0000 100.0000 100.0000 100.0000 100.0000 100.0000 100.0000 100.0000 100.0000 100.0000 100.0000 100.0000 100.0000 100.0000 100.0000 100.0000 99.9665 99.9113 99.8568 99.8028 99.7493 99.6966 99.6444 99.5927 99.5417 99.4913 99.4416 99.3923 99.3438 99.2957 99.2484 99.2015 99.1553 99.1098 99.0648 99.0203 98.9766 98.9334 98.8907 98.8487 98.8073 98.7665 98.7263 98.6868 98.6478 98.6094 98.5716 98.5344 98.4977 98.4617 98.4263 98.3915 98.3573 98.3238 98.2908 98.2584 98.2266 98.1954 98.1647 98.1347 98.1054 98.0765 98.0483 98.0208 97.9938 97.9673 97.9416 97.9163 97.8918 97.8678 97.8444 97.8216 97.7994 97.7777 97.7567 97.7364 97.7165 97.6974 97.6787 97.6607 97.6433 97.6265 97.6103 97.5948 97.5798 97.5653 97.5516 97.5383 97.5258 97.5138 97.5024 97.4916 97.4814 97.4718 97.4627 97.4544 97.4466 97.4394 97.4327 97.4267 97.4214 97.4166 97.4124 97.4087 97.4057 97.4034 97.4016 97.4004 97.3997 97.3997 97.4004 97.4016 97.4034 97.4057 97.4087 97.4124 97.4166 97.4214 97.4267 97.4327 97.4394 97.4466 97.4544 97.4627 97.4718 97.4814 97.4916 97.5024 97.5138 97.5258 97.5383 97.5516 97.5653 97.5798 97.5948 97.6103 97.6265 97.6433 97.6607 97.6787 97.6974 97.7165 97.7364 97.7567 97.7777 97.7994 97.8216 97.8444 97.8678 97.8918 97.9163 97.9416 97.9673 97.9938 98.0208 98.0483 98.0765 98.1054 98.1347 98.1647 98.1954 98.2266 98.2584 98.2908 98.3238 98.3573 98.3915 98.4263 98.4617 98.4977 98.5344 98.5716 98.6094 98.6478 98.6868 98.7263 98.7665 98.8073 98.8487 98.8907 98.9334 98.9766 99.0203 99.0648 99.1098 99.1553 99.2015 99.2484 99.2957 99.3438 99.3923 99.4416 99.4913 99.5417 99.5927 99.6444 99.6966 99.7493 99.8028 99.8568 99.9113 99.9665 100.0000 100.0000 100.0000 100.0000 100.0000 100.0000 100.0000 100.0000 100.0000 100.0000 100.0000 100.0000 100.0000 100.0000 100.0000 100.0000 100.0000 100.0000 100.0000 100.0000 100.0000 100.0000 100.0000 100.0000 100.0000 100.0000 100.0000
100.0000 100.0000 100.0000 100.0000 100.0000 100.0000 100.0000 100.0000 100.0000 100.0000 100.0000 100.0000 100.0000 100.0000 100.0000 100.0000 100.0000 100.0000 100.0000 100.0000 100.0000 100.0000 100.0000 100.0000 100.0000 100.0000 100.0000 99.9450 99.8898 99.8351 99.7811 99.7278 99.6749 99.6227 99.5712 99.5202 99.4698 99.4200 99.3708 99.3221 99.2742 99.2267 99.1800 99.1338 99.0881 99.0431 98.9988 98.9549 98.9117 98.8692 98.8272 98.7857 98.7450 98.7048 98.6651 98.6261 98.5877 98.5499 98.5127 98.4762 98.4402 98.4048 98.3700 98.3358 98.3021 98.2691 98.2368 98.2049 98.1737 98.1432 98.1132 98.0837 98.0550 98.0268 97.9992 97.9721 97.9458 97.9200 97.8948 97.8701 97.8461 97.8227 97.7999 97.7777 97.7562 97.7352 97.7147 97.6950 97.6757 97.6572 97.6392 97.6218 97.6050 97.5888 97.5731 97.5581 97.5438 97.5299 97.5168 97.5041 97.4921 97.4808 97.4699 97.4597 97.4501 97.4411 97.4327 97.4249 97.4177 97.4112 97.4052 97.3997 97.3949 97.3907 97.3872 97.3842 97.3817 97.3799 97.3787 97.3782 97.3782 97.3787 97.3799 97.3817 97.3842 97.3872 97.3907 97.3949 97.3997 97.4052 97.4112 97.4177 97.4249 97.4327 97.4411 97.4501 97.4597 97.4699 97.4808 97.4921 97.5041 97.5168 97.5299 97.5438 97.5581 97.5731 97.5888 97.6050 97.6218 97.6392 97.6572 97.6757 97.6950 97.7147 97.7352 97.7562 97.7777 97.7999 97.8227 97.8461 97.8701 97.8948 97.9200 97.9458 97.9721 97.9992 98.0268 98.0550 98.0837 98.1132 98.1432 98.1737 98.2049 98.2368 98.2691 98.3021 98.3358 98.3700 98.4048 98.4402 98.4762 98.5127 98.5499 98.5877 98.6261 98.6651 98.7048 98.7450 98.7857 98.8272 98.8692 98.9117 98.9549 98.9988 99.0431 99.0881 99.1338 99.1800 99.2267 99.2742 99.3221 99.3708 99.4200 99.4698 99.5202 99.5712 99.6227 99.6749 99.7278 99.7811 99.8351 99.8898 99.9450 100.0000 100.0000 100.0000 100.0000 100.0000 100.0000 100.0000 100.0000 100.0000 100.0000 100.0000 100.0000 100.0000 100.0000 100.0000 100.0000 100.0000 100.0000 100.0000 100.0000 100.0000 100.0000 100.0000 100.0000 100.0000 100.0000 100.0000
100.0000 100.0000 100.0000 100.0000 100.0000 100.0000 100.0000 100.0000 100.0000 100.0000 100.0000 100.0000 100.0000 100.0000 100.0000 100.0000 100.0000 100.0000 100.0000 100.0000 100.0000 100.0000 100.0000 100.0000 100.0000 100.0000 99.9797 99.9240 99.8688 99.8141 99.7601 99.7067 99.6539 99.6017 99.5502 99.4992 99.4488 99.3989 99.3498 99.3012 99.2532 99.2057 99.1590 99.1128 99.0671 99.0221 98.9778 98.9339 98.8907 98.8482 98.8062 98.7648 98.7240 98.6838 98.6441 98.6051 98.5667 98.5289 98.4917 98.4552 98.4192 98.3838 98.3490 98.3148 98.2811 98.2481 98.2157 98.1839 98.1527 98.1222 98.0922 98.0627 98.0340 98.0058 97.9781 97.9511 97.9248 97.8989 97.8738 97.8491 97.8251 97.8017 97.7789 97.7567 97.7352 97.7142 97.6937 97.6740 97.6548 97.6362 97.6181 97.6008 97.5840 97.5678 97.5521 97.5371 97.5228 97.5089 97.4958 97.4831 97.4711 97.4597 97.4489 97.4387 97.4292 97.4202 97.4117 97.4039 97.3967 97.3902 97.3842 97.3787 97.3739 97.3697 97.3662 97.3632 97.3607 97.3589 97.3577 97.3572 97.3572 97.3577 97.3589 97.3607 97.3632 97.3662 97.3697 97.3739 97.3787 97.3842 97.3902 97.3967 97.4039 97.4117 97.4202 97.4292 97.4387 97.4489 97.4597 97.4711 97.4831 97.4958 97.5089 97.5228 97.5371 97.5521 97.5678 97.5840 97.6008 97.6181 97.6362 97.6548 97.6740 97.6937 97.7142 97.7352 97.7567 97.7789 97.8017 97.8251 97.8491 97.8738 97.8989 97.9248 97.9511 97.9781 98.0058 98.0340 98.0627 98.0922 98.1222 98.1527 98.1839 98.2157 98.2481 98.2811 98.3148 98.3490 98.3838 98.4192 98.4552 98.4917 98.5289 98.5667 98.6051 98.6441 98.6838 98.7240 98.7648 98.8062 98.8482 98.8907 98.9339 98.9778 99.0221 99.0671 99.1128 99.1590 99.2057 99.2532 99.3012 99.3498 99.3989 99.4488 99.4992 99.5502 99.6017 99.6539 99.7067 99.7601 99.8141 99.8688 99.9240 99.9797 100.0000 100.0000 100.0000 100.0000 100.0000 100.0000 100.0000 100.0000 100.0000 100.0000 100.0000 100.0000 100.0000 100.0000 100.0000 100.0000 100.0000 100.0000 100.0000 100.0000 100.0000 100.0000 100.0000 100.0000 100.0000 100.0000
100.0000 100.0000 100.0000 100.0000 100.0000 100.0000 100.0000 100.0000 100.0000 100.0000 100.0000 100.0000 100.0000 100.0000 100.0000 100.0000 100.0000 100.0000 100.0000 100.0000 100.0000 100.0000 100.0000 100.0000 100.0000 100.0000 99.9594 99.9035 99.8483 99.7938 99.7398 99.6864 99.6335 99.5814 99.5298 99.4788 99.4283 99.3786 99.3294 99.2807 99.2327 99.1853 99.1385 99.0923 99.0468 99.0018 98.9574 98.9136 98.8704 98.8277 98.7857 98.7443 98.7036 98.6633 98.6238 98.5847 98.5464 98.5085 98.4714 98.4347 98.3988 98.3633 98.3286 98.2943 98.2608 98.2278 98.1954 98.1636 98.1324 98.1017 98.0717 98.0423 98.0135 97.9853 97.9578 97.9308 97.9043 97.8786 97.8534 97.8287 97.8047 97.7814 97.7585 97.7364 97.7147 97.6937 97.6733 97.6535 97.6343 97.6158 97.5978 97.5803 97.5636 97.5473 97.5318 97.5168 97.5024 97.4886 97.4754 97.4627 97.4507 97.4394 97.4286 97.4184 97.4087 97.3997 97.3914 97.3835 97.3764 97.3697 97.3637 97.3584 97.3535 97.3494 97.3457 97.3427 97.3404 97.3385 97.3374 97.3367 97.3367 97.3374 97.3385 97.3404 97.3427 97.3457 97.3494 97.3535 97.3584 97.3637 97.3697 97.3764 97.3835 97.3914 97.3997 97.4087 97.4184 97.4286 97.4394 97.4507 97.4627 97.4754 97.4886 97.5024 97.5168 97.5318 97.5473 97.5636 97.5803 97.5978 97.6158 97.6343 97.6535 97.6733 97.6937 97.7147 97.7364 97.7585 97.7814 97.8047 97.8287 97.8534 97.8786 97.9043 97.9308 97.9578 97.9853 98.0135 98.0423 98.0717 98.1017 98.1324 98.1636 98.1954 98.2278 98.2608 98.2943 98.3286 98.3633 98.3988 98.4347 98.4714 98.5085 98.5464 98.5847 98.6238 98.6633 98.7036 98.7443 98.7857 98.8277 98.8704 98.9136 98.9574 99.0018 99.0468 99.0923 99.1385 99.1853 99.2327 99.2807 99.3294 99.3786 99.4283 99.4788 99.5298 99.5814 99.6335 99.6864 99.7398 99.7938 99.8483 99.9035 99.9594 100.0000 100.0000 100.0000 100.0000 100.0000 100.0000 100.0000 100.0000 100.0000 100.0000 100.0000 100.0000 100.0000 100.0000 100.0000 100.0000 100.0000 100.0000 100.0000 100.0000 100.0000 100.0000 100.0000 100.0000 100.0000 100.0000
100.0000 100.0000 100.0000 100.0000 100.0000 100.0000 100.0000 100.0000 100.0000 100.0000 100.0000 100.0000 100.0000 100.0000 100.0000 100.0000 100.0000 100.0000 100.0000 100.0000 100.0000 100.0000 100.0000 100.0000 100.0000 99.9959 99.9395 99.8838 99.8286 99.7739 99.7199 99.6666 99.6137 99.5615 99.5100 99.4590 99.4086 99.3588 99.3096 99.2609 99.2130 99.1655 99.1188 99.0726 99.0269 98.9819 98.9376 98.8937 98.8505 98.8080 98.7660 98.7245 98.6838 98.6436 98.6039 98.5649 98.5266 98.4887 98.4515 98.4150 98.3790 98.3435 98.3088 98.2746 98.2409 98.2079 98.1756 98.1437 98.1125 98.0820 98.0520 98.0225 97.9938 97.9655 97.9380 97.9109 97.8846 97.8588 97.8336 97.8089 97.7849 97.7615 97.7387 97.7165 97.6950 97.6740 97.6535 97.6338 97.6145 97.5960 97.5780 97.5606 97.5438 97.5276 97.5119 97.4969 97.4826 97.4688 97.4556 97.4429 97.4309 97.4196 97.4087 97.3986 97.3889 97.3799 97.3715 97.3637 97.3565 97.3500 97.3440 97.3385 97.3337 97.3295 97.3260 97.3230 97.3205 97.3187 97.3175 97.3170 97.3170 97.3175 97.3187 97.3205 97.3230 97.3260 97.3295 97.3337 97.3385 97.3440 97.3500 97.3565 97.3637 97.3715 97.3799 97.3889 97.3986 97.4087 97.4196 97.4309 97.4429 97.4556 97.4688 97.4826 97.4969 97.5119 97.5276 97.5438 97.5606 97.5780 97.5960 97.6145 97.6338 97.6535 97.6740 97.6950 97.7165 97.7387 97.7615 97.7849 97.8089 97.8336 97.8588 97.8846 97.9109 97.9380 97.9655 97.9938 98.0225 98.0520 98.0820 98.1125 98.1437 98.1756 98.2079 98.2409 98.2746 98.3088 98.3435 98.3790 98.4150 98.4515 98.4887 98.5266 98.5649 98.6039 98.6436 98.6838 98.7245 98.7660 98.8080 98.8505 98.8937 98.9376 98.9819 99.0269 99.0726 99.1188 99.1655 99.2130 99.2609 99.3096 99.3588 99.4086 99.4590 99.5100 99.5615 99.6137 99.6666 99.7199 99.7739 99.8286 99.8838 99.9395 99.9959 100.0000 100.0000 100.0000 100.0000 100.0000 100.0000 100.0000 100.0000 100.0000 100.0000 100.0000 100.0000 100.0000 100.0000 100.0000 100.0000 100.0000 100.0000 100.0000 100.0000 100.0000 100.0000 100.0000 100.0000 100.0000
100.0000 100.0000 100.0000 100.0000 100.0000 100.0000 100.0000 100.0000 100.0000 100.0000 100.0000 100.0000 100.0000 100.0000 100.0000 100.0000 100.0000 100.0000 100.0000 100.0000 100.0000 100.0000 100.0000 100.0000 100.0000 99.9767 99.9203 99.8645 99.8093 99.7548 99.7007 99.6474 99.5945 99.5423 99.4908 99.4398 99.3893 99.3396 99.2904 99.2417 99.1937 99.1463 99.0995 99.0533 99.0078 98.9627 98.9184 98.8745 98.8314 98.7887 98.7468 98.7053 98.6646 98.6244 98.5847 98.5457 98.5074 98.4695 98.4323 98.3958 98.3598 98.3243 98.2896 98.2553 98.2218 98.1887 98.1564 98.1245 98.0934 98.0627 98.0327 98.0033 97.9745 97.9463 97.9188 97.8918 97.8654 97.8396 97.8144 97.7897 97.7657 97.7424 97.7195 97.6974 97.6757 97.6548 97.6343 97.6145 97.5953 97.5768 97.5588 97.5413 97.5246 97.5083 97.4928 97.4778 97.4634 97.4496 97.4364 97.4237 97.4117 97.4004 97.3895 97.3794 97.3697 97.3607 97.3524 97.3445 97.3374 97.3307 97.3247 97.3194 97.3145 97.3103 97.3067 97.3037 97.3013 97.2995 97.2983 97.2977 97.2977 97.2983 97.2995 97.3013 97.3037 97.3067 97.3103 97.3145 97.3194 97.3247 97.3307 97.3374 97.3445 97.3524 97.3607 97.3697 97.3794 97.3895 97.4004 97.4117 97.4237 97.4364 97.4496 97.4634 97.4778 97.4928 97.5083 97.5246 97.5413 97.5588 97.5768 97.5953 97.6145 97.6343 97.6548 97.6757 97.6974 97.7195 97.7424 97.7657 97.7897 97.8144 97.8396 97.8654 97.8918 97.9188 97.9463 97.9745 98.0033 98.0327 98.0627 98.0934 98.1245 98.1564 98.1887 98.2218 98.2553 98.2896 98.3243 98.3598 98.3958 98.4323 98.4695 98.5074 98.5457 98.5847 98.6244 98.6646 98.7053 98.7468 98.7887 98.8314 98.8745 98.9184 98.9627 99.0078 99.0533 99.0995 99.1463 99.1937 99.2417 99.2904 99.3396 99.3893 99.4398 99.4908 99.5423 99.5945 99.6474 99.7007 99.7548 99.8093 99.8645 99.9203 99.9767 100.0000 100.0000 100.0000 100.0000 100.0000 100.0000 100.0000 100.0000 100.0000 100.0000 100.0000 100.0000 100.0000 100.0000 100.0000 100.0000 100.0000 100.0000 100.0000 100.0000 100.0000 100.0000 100.0000 100.0000 100.0000
100.0000 100.0000 100.0000 100.0000 100.0000 100.0000 100.0000 100.0000 100.0000 100.0000 100.0000 100.0000 100.0000 100.0000 100.0000 100.0000 100.0000 100.0000 100.0000 100.0000 100.0000 100.0000 100.0000 100.0000 100.0000 99.9582 99.9018 99.8460 99.7908 99.7361 99.6822 99.6287 99.5760 99.5238 99.4721 99.4211 99.3708 99.3209 99.2717 99.2232 99.1752 99.1278 99.0810 99.0348 98.9891 98.9441 98.8997 98.8560 98.8127 98.7702 98.7281 98.6868 98.6459 98.6058 98.5661 98.5272 98.4887 98.4510 98.4137 98.3772 98.3411 98.3058 98.2709 98.2368 98.2031 98.1702 98.1377 98.1060 98.0747 98.0442 98.0142 97.9848 97.9560 97.9278 97.9001 97.8731 97.8468 97.8209 97.7957 97.7712 97.7472 97.7237 97.7010 97.6787 97.6572 97.6362 97.6158 97.5960 97.5768 97.5581 97.5401 97.5228 97.5059 97.4898 97.4741 97.4591 97.4447 97.4309 97.4177 97.4052 97.3932 97.3817 97.3709 97.3607 97.3512 97.3422 97.3337 97.3260 97.3187 97.3122 97.3062 97.3007 97.2960 97.2917 97.2882 97.2852 97.2827 97.2810 97.2798 97.2792 97.2792 97.2798 97.2810 97.2827 97.2852 97.2882 97.2917 97.2960 97.3007 97.3062 97.3122 97.3187 97.3260 97.3337 97.3422 97.3512 97.3607 97.3709 97.3817 97.3932 97.4052 97.4177 97.4309 97.4447 97.4591 97.4741 97.4898 97.5059 97.5228 97.5401 97.5581 97.5768 97.5960 97.6158 97.6362 97.6572 97.6787 97.7010 97.7237 97.7472 97.7712 97.7957 97.8209 97.8468 97.8731 97.9001 97.9278 97.9560 97.9848 98.0142 98.0442 98.0747 98.1060 98.1377 98.1702 98.2031 98.2368 98.2709 98.3058 98.3411 98.3772 98.4137 98.4510 98.4887 98.5272 98.5661 98.6058 98.6459 98.6868 98.7281 98.7702 98.8127 98.8560 98.8997 98.9441 98.9891 99.0348 99.0810 99.1278 99.1752 99.2232 99.2717 99.3209 99.3708 99.4211 99.4721 99.5238 99.5760 99.6287 99.6822 99.7361 99.7908 99.8460 99.9018 99.9582 100.0000 100.0000 100.0000 100.0000 100.0000 100.0000 100.0000 100.0000 100.0000 100.0000 100.0000 100.0000 100.0000 100.0000 100.0000 100.0000 100.0000 100.0000 100.0000 100.0000 100.0000 100.0000 100.0000 100.0000 100.0000
100.0000 100.0000 100.0000 100.0000 100.0000 100.0000 100.0000 100.0000 100.0000 100.0000 100.0000 100.0000 100.0000 100.0000 100.0000 100.0000 100.0000 100.0000 100.0000 100.0000 100.0000 100.0000 100.0000 100.0000 99.9972 99.9402 99.8838 99.8280 99.7728 99.7181 99.6642 99.6107 99.5580 99.5058 99.4541 99.4031 99.3528 99.3029 99.2537 99.2052 99.1572 99.1098 99.0630 99.0168 98.9711 98.9262 98.8817 98.8380 98.7947 98.7522 98.7101 98.6688 98.6279 98.5877 98.5482 98.5092 98.4707 98.4330 98.3958 98.3591 98.3231 98.2878 98.2529 98.2188 98.1851 98.1522 98.1197 98.0880 98.0567 98.0262 97.9962 97.9668 97.9380 97.9098 97.8821 97.8551 97.8287 97.8029 97.7777 97.7532 97.7292 97.7057 97.6830 97.6607 97.6392 97.6181 97.5978 97.5780 97.5588 97.5401 97.5221 97.5048 97.4879 97.4718 97.4561 97.4411 97.4267 97.4129 97.3997 97.3872 97.3752 97.3637 97.3530 97.3427 97.3332 97.3242 97.3157 97.3080 97.3007 97.2942 97.2882 97.2827 97.2780 97.2738 97.2702 97.2672 97.2648 97.2630 97.2618 97.2612 97.2612 97.2618 97.2630 97.2648 97.2672 97.2702 97.2738 97.2780 97.2827 97.2882 97.2942 97.3007 97.3080 97.3157 97.3242 97.3332 97.3427 97.3530 97.3637 97.3752 97.3872 97.3997 97.4129 97.4267 97.4411 97.4561 97.4718 97.4879 97.5048 97.5221 97.5401 97.5588 97.5780 97.5978 97.6181 97.6392 97.6607 97.6830 97.7057 97.7292 97.7532 97.7777 97.8029 97.8287 97.8551 97.8821 97.9098 97.9380 97.9668 97.9962 98.0262 98.0567 98.0880 98.1197 98.1522 98.1851 98.2188 98.2529 98.2878 98.3231 98.3591 98.3958 98.4330 98.4707 98.5092 98.5482 98.5877 98.6279 98.6688 98.7101 98.7522 98.7947 98.8380 98.8817 98.9262 98.9711 99.0168 99.0630 99.1098 99.1572 99.2052 99.2537 99.3029 99.3528 99.4031 99.4541 99.5058 99.5580 99.6107 99.6642 99.7181 99.7728 99.8280 99.8838 99.9402 99.9972 100.0000 100.0000 100.0000 100.0000 100.0000 100.0000 100.0000 100.0000 100.0000 100.0000 100.0000 100.0000 100.0000 100.0000 100.0000 100.0000 100.0000 100.0000 100.0000 100.0000 100.0000 100.0000 100.0000 100.0000
100.0000 100.0000 100.0000 100.0000 100.0000 100.0000 100.0000 100.0000 100.0000 100.0000 100.0000 100.0000 100.0000 100.0000 100.0000 100.0000 100.0000 100.0000 100.0000 100.0000 100.0000 100.0000 100.0000 100.0000 99.9797 99.9227 99.8663 99.8106 99.7553 99.7007 99.6467 99.5934 99.5405 99.4883 99.4368 99.3858 99.3354 99.2856 99.2364 99.1877 99.1398 99.0923 99.0456 98.9994 98.9537 98.9087 98.8644 98.8205 98.7773 98.7348 98.6928 98.6513 98.6106 98.5704 98.5307 98.4917 98.4534 98.4155 98.3783 98.3418 98.3058 98.2703 98.2356 98.2014 98.1677 98.1347 98.1024 98.0705 98.0393 98.0088 97.9788 97.9493 97.9206 97.8923 97.8648 97.8377 97.8114 97.7856 97.7604 97.7357 97.7117 97.6883 97.6655 97.6433 97.6218 97.6008 97.5803 97.5606 97.5413 97.5228 97.5048 97.4874 97.4706 97.4544 97.4387 97.4237 97.4094 97.3956 97.3824 97.3697 97.3577 97.3464 97.3355 97.3254 97.3157 97.3067 97.2983 97.2905 97.2833 97.2768 97.2708 97.2653 97.2605 97.2563 97.2528 97.2498 97.2473 97.2455 97.2443 97.2438 97.2438 97.2443 97.2455 97.2473 97.2498 97.2528 97.2563 97.2605 97.2653 97.2708 97.2768 97.2833 97.2905 97.2983 97.3067 97.3157 97.3254 97.3355 97.3464 97.3577 97.3697 97.3824 97.3956 97.4094 97.4237 97.4387 97.4544 97.4706 97.4874 97.5048 97.5228 97.5413 97.5606 97.5803 97.6008 97.6218 97.6433 97.6655 97.6883 97.7117 97.7357 97.7604 97.7856 97.8114 97.8377 97.8648 97.8923 97.9206 97.9493 97.9788 98.0088 98.0393 98.0705 98.1024 98.1347 98.1677 98.2014 98.2356 98.2703 98.3058 98.3418 98.3783 98.4155 98.4534 98.4917 98.5307 98.5704 98.6106 98.6513 98.6928 98.7348 98.7773 98.8205 98.8644 98.9087 98.9537 98.9994 99.0456 99.0923 99.1398 99.1877 99.2364 99.2856 99.3354 99.3858 99.4368 99.4883 99.5405 99.5934 99.6467 99.7007 99.7553 99.8106 99.8663 99.9227 99.9797 100.0000 100.0000 100.0000 100.0000 100.0000 100.0000 100.0000 100.0000 100.0000 100.0000 100.0000 100.0000 100.0000 100.0000 100.0000 100.0000 100.0000 100.0000 100.0000 100.0000 100.0000 100.0000 100.0000 100.0000
100.0000 100.0000 100.0000 100.0000 100.0000 100.0000 100.0000 100.0000 100.0000 100.0000 100.0000 100.0000 100.0000 100.0000 100.0000 100.0000 100.0000 100.0000 100.0000 100.0000 100.0000 100.0000 100.0000 100.0000 99.9630 99.9060 99.8495 99.7938 99.7386 99.6839 99.6299 99.5765 99.5238 99.4715 99.4200 99.3689 99.3186 99.2687 99.2195 99.1710 99.1230 99.0755 99.0288 98.9826 98.9369 98.8919 98.8475 98.8037 98.7605 98.7180 98.6760 98.6346 98.5938 98.5536 98.5139 98.4750 98.4365 98.3988 98.3615 98.3250 98.2889 98.2536 98.2188 98.1846 98.1509 98.1179 98.0855 98.0537 98.0225 97.9920 97.9620 97.9326 97.9038 97.8756 97.8479 97.8209 97.7946 97.7687 97.7435 97.7190 97.6950 97.6715 97.6488 97.6265 97.6050 97.5840 97.5636 97.5438 97.5246 97.5059 97.4879 97.4706 97.4537 97.4376 97.4219 97.4069 97.3925 97.3787 97.3655 97.3530 97.3410 97.3295 97.3187 97.3085 97.2990 97.2900 97.2815 97.2738 97.2665 97.2600 97.2540 97.2485 97.2438 97.2395 97.2360 97.2330 97.2305 97.2288 97.2275 97.2270 97.2270 97.2275 97.2288 97.2305 97.2330 97.2360 97.2395 97.2438 97.2485 97.2540 97.2600 97.2665 97.2738 97.2815 97.2900 97.2990 97.3085 97.3187 97.3295 97.3410 97.3530 97.3655 97.3787 97.3925 97.4069 97.4219 97.4376 97.4537 97.4706 97.4879 97.5059 97.5246 97.5438 97.5636 97.5840 97.6050 97.6265 97.6488 97.6715 97.6950 97.7190 97.7435 97.7687 97.7946 97.8209 97.8479 97.8756 97.9038 97.9326 97.9620 97.9920 98.0225 98.0537 98.0855 98.1179 98.1509 98.1846 98.2188 98.2536 98.2889 98.3250 98.3615 98.3988 98.4365 98.4750 98.5139 98.5536 98.5938 98.6346 98.6760 98.7180 98.7605 98.8037 98.8475 98.8919 98.9369 98.9826 99.0288 99.0755 99.1230 99.1710 99.2195 99.2687 99.3186 99.3689 99.4200 99.4715 99.5238 99.5765 99.6299 99.6839 99.7386 99.7938 99.8495 99.9060 99.9630 100.0000 100.0000 100.0000 100.0000 100.0000 100.0000 100.0000 100.0000 100.0000 100.0000 100.0000 100.0000 100.0000 100.0000 100.0000 100.0000 100.0000 100.0000 100.0000 100.0000 100.0000 100.0000 100.0000 100.0000
100.0000 100.0000 100.0000 100.0000 100.0000 100.0000 100.0000 100.0000 100.0000 100.0000 100.0000 100.0000 100.0000 100.0000 100.0000 100.0000 100.0000 100.0000 100.0000 100.0000 100.0000 100.0000 100.0000 100.0000 99.9467 99.8898 99.8333 99.7776 99.7224 99.6677 99.6137 99.5603 99.5075 99.4553 99.4038 99.3528 99.3024 99.2525 99.2034 99.1548 99.1068 99.0593 99.0126 98.9664 98.9207 98.8757 98.8314 98.7875 98.7443 98.7018 98.6598 98.6184 98.5776 98.5374 98.4977 98.4587 98.4203 98.3825 98.3453 98.3088 98.2728 98.2374 98.2026 98.1684 98.1347 98.1017 98.0694 98.0375 98.0063 97.9758 97.9458 97.9163 97.8876 97.8594 97.8317 97.8047 97.7784 97.7525 97.7274 97.7027 97.6787 97.6553 97.6325 97.6103 97.5888 97.5678 97.5473 97.5276 97.5083 97.4898 97.4718 97.4544 97.4376 97.4214 97.4057 97.3907 97.3764 97.3625 97.3494 97.3367 97.3247 97.3133 97.3025 97.2923 97.2827 97.2738 97.2653 97.2575 97.2503 97.2438 97.2378 97.2323 97.2275 97.2233 97.2198 97.2168 97.2143 97.2125 97.2113 97.2108 97.2108 97.2113 97.2125 97.2143 97.2168 97.2198 97.2233 97.2275 97.2323 97.2378 97.2438 97.2503 97.2575 97.2653 97.2738 97.2827 97.2923 97.3025 97.3133 97.3247 97.3367 97.3494 97.3625 97.3764 97.3907 97.4057 97.4214 97.4376 97.4544 97.4718 97.4898 97.5083 97.5276 97.5473 97.5678 97.5888 97.6103 97.6325 97.6553 97.6787 97.7027 97.7274 97.7525 97.7784 97.8047 97.8317 97.8594 97.8876 97.9163 97.9458 97.9758 98.0063 98.0375 98.0694 98.1017 98.1347 98.1684 98.2026 98.2374 98.2728 98.3088 98.3453 98.3825 98.4203 98.4587 98.4977 98.5374 98.5776 98.6184 98.6598 98.7018 98.7443 98.7875 98.8314 98.8757 98.9207 98.9664 99.0126 99.0593 99.1068 99.1548 99.2034 99.2525 99.3024 99.3528 99.4038 99.4553 99.5075 99.5603 99.6137 99.6677 99.7224 99.7776 99.8333 99.8898 99.9467 100.0000 100.0000 100.0000 100.0000 100.0000 100.0000 100.0000 100.0000 100.0000 100.0000 100.0000 100.0000 100.0000 100.0000 100.0000 100.0000 100.0000 100.0000 100.0000 100.0000 100.0000 100.0000 100.0000 100.0000
100.0000 100.0000 100.0000 100.0000 100.0000 100.0000 100.0000 100.0000 100.0000 100.0000 100.0000 100.0000 100.0000 100.0000 100.0000 100.0000 100.0000 100.0000 100.0000 100.0000 100.0000 100.0000 100.0000 99.9887 99.9312 99.8742 99.8178 99.7619 99.7067 99.6522 99.5982 99.5447 99.4920 99.4398 99.3881 99.3371 99.2867 99.2370 99.1877 99.1392 99.0911 99.0438 98.9969 98.9507 98.9052 98.8602 98.8157 98.7720 98.7288 98.6861 98.6441 98.6028 98.5619 98.5217 98.4822 98.4432 98.4048 98.3670 98.3298 98.2931 98.2571 98.2218 98.1869 98.1527 98.1192 98.0862 98.0537 98.0220 97.9908 97.9601 97.9301 97.9008 97.8719 97.8438 97.8161 97.7892 97.7627 97.7369 97.7117 97.6872 97.6632 97.6398 97.6170 97.5948 97.5731 97.5521 97.5318 97.5119 97.4928 97.4741 97.4561 97.4387 97.4219 97.4057 97.3902 97.3752 97.3607 97.3470 97.3337 97.3212 97.3092 97.2977 97.2870 97.2768 97.2672 97.2582 97.2498 97.2420 97.2348 97.2281 97.2221 97.2168 97.2120 97.2078 97.2041 97.2011 97.1988 97.1970 97.1958 97.1951 97.1951 97.1958 97.1970 97.1988 97.2011 97.2041 97.2078 97.2120 97.2168 97.2221 97.2281 97.2348 97.2420 97.2498 97.2582 97.2672 97.2768 97.2870 97.2977 97.3092 97.3212 97.3337 97.3470 97.3607 97.3752 97.3902 97.4057 97.4219 97.4387 97.4561 97.4741 97.4928 97.5119 97.5318 97.5521 97.5731 97.5948 97.6170 97.6398 97.6632 97.6872 97.7117 97.7369 97.7627 97.7892 97.8161 97.8438 97.8719 97.9008 97.9301 97.9601 97.9908 98.0220 98.0537 98.0862 98.1192 98.1527 98.1869 98.2218 98.2571 98.2931 98.3298 98.3670 98.4048 98.4432 98.4822 98.5217 98.5619 98.6028 98.6441 98.6861 98.7288 98.7720 98.8157 98.8602 98.9052 98.9507 98.9969 99.0438 99.0911 99.1392 99.1877 99.2370 99.2867 99.3371 99.3881 99.4398 99.4920 99.5447 99.5982 99.6522 99.7067 99.7619 99.8178 99.8742 99.9312 99.9887 100.0000 100.0000 100.0000 100.0000 100.0000 100.0000 100.0000 100.0000 100.0000 100.0000 100.0000 100.0000 100.0000 100.0000 100.0000 100.0000 100.0000 100.0000 100.0000 100.0000 100.0000 100.0000 100.0000
100.0000 100.0000 100.0000 100.0000 100.0000 100.0000 100.0000 100.0000 100.0000 100.0000 100.0000 100.0000 100.0000 100.0000 100.0000 100.0000 100.0000 100.0000 100.0000 100.0000 100.0000 100.0000 100.0000 99.9737 99.9162 99.8591 99.8028 99.7469 99.6917 99.6372 99.5832 99.5298 99.4770 99.4248 99.3731 99.3221 99.2717 99.2220 99.1727 99.1242 99.0761 99.0288 98.9819 98.9357 98.8902 98.8452 98.8007 98.7570 98.7138 98.6711 98.6291 98.5877 98.5469 98.5067 98.4672 98.4282 98.3898 98.3520 98.3148 98.2781 98.2421 98.2067 98.1719 98.1377 98.1042 98.0712 98.0387 98.0070 97.9758 97.9451 97.9151 97.8858 97.8569 97.8287 97.8012 97.7742 97.7477 97.7220 97.6967 97.6722 97.6482 97.6248 97.6020 97.5798 97.5581 97.5371 97.5168 97.4969 97.4778 97.4591 97.4411 97.4237 97.4069 97.3907 97.3752 97.3602 97.3457 97.3320 97.3187 97.3062 97.2942 97.2827 97.2720 97.2618 97.2522 97.2431 97.2348 97.2270 97.2198 97.2131 97.2071 97.2018 97.1970 97.1928 97.1891 97.1861 97.1838 97.1820 97.1808 97.1801 97.1801 97.1808 97.1820 97.1838 97.1861 97.1891 97.1928 97.1970 97.2018 97.2071 97.2131 97.2198 97.2270 97.2348 97.2431 97.2522 97.2618 97.2720 97.2827 97.2942 97.3062 97.3187 97.3320 97.3457 97.3602 97.3752 97.3907 97.4069 97.4237 97.4411 97.4591 97.4778 97.4969 97.5168 97.5371 97.5581 97.5798 97.6020 97.6248 97.6482 97.6722 97.6967 97.7220 97.7477 97.7742 97.8012 97.8287 97.8569 97.8858 97.9151 97.9451 97.9758 98.0070 98.0387 98.0712 98.1042 98.1377 98.1719 98.2067 98.2421 98.2781 98.3148 98.3520 98.3898 98.4282 98.4672 98.5067 98.5469 98.5877 98.6291 98.6711 98.7138 98.7570 98.8007 98.8452 98.8902 98.9357 98.9819 99.0288 99.0761 99.1242 99.1727 99.2220 99.2717 99.3221 99.3731 99.4248 99.4770 99.5298 99.5832 99.6372 99.6917 99.7469 99.8028 99.8591 99.9162 99.9737 100.0000 100.0000 100.0000 100.0000 100.0000 100.0000 100.0000 100.0000 100.0000 100.0000 100.0000 100.0000 100.0000 100.0000 100.0000 100.0000 100.0000 100.0000 100.0000 100.0000 100.0000 100.0000 100.0000
100.0000 100.0000 100.0000 100.0000 100.0000 100.0000 100.0000 100.0000 100.0000 100.0000 100.0000 100.0000 100.0000 100.0000 100.0000 100.0000 100.0000 100.0000 100.0000 100.0000 100.0000 100.0000 100.0000 99.9594 99.9018 99.8448 99.7883 99.7326 99.6774 99.6227 99.5687 99.5153 99.4625 99.4103 99.3588 99.3077 99.2574 99.2075 99.1583 99.1098 99.0618 99.0143 98.9676 98.9214 98.8757 98.8307 98.7863 98.7425 98.6993 98.6568 98.6148 98.5734 98.5326 98.4924 98.4527 98.4137 98.3753 98.3375 98.3003 98.2638 98.2278 98.1924 98.1576 98.1234 98.0897 98.0567 98.0243 97.9925 97.9613 97.9308 97.9008 97.8714 97.8426 97.8144 97.7867 97.7597 97.7334 97.7075 97.6823 97.6577 97.6338 97.6103 97.5875 97.5653 97.5438 97.5228 97.5024 97.4826 97.4634 97.4447 97.4267 97.4094 97.3925 97.3764 97.3607 97.3457 97.3314 97.3175 97.3043 97.2917 97.2798 97.2683 97.2575 97.2473 97.2378 97.2288 97.2203 97.2125 97.2053 97.1988 97.1928 97.1873 97.1826 97.1783 97.1748 97.1718 97.1693 97.1676 97.1663 97.1658 97.1658 97.1663 97.1676 97.1693 97.1718 97.1748 97.1783 97.1826 97.1873 97.1928 97.1988 97.2053 97.2125 97.2203 97.2288 97.2378 97.2473 97.2575 97.2683 97.2798 97.2917 97.3043 97.3175 97.3314 97.3457 97.3607 97.3764 97.3925 97.4094 97.4267 97.4447 97.4634 97.4826 97.5024 97.5228 97.5438 97.5653 97.5875 97.6103 97.6338 97.6577 97.6823 97.7075 97.7334 97.7597 97.7867 97.8144 97.8426 97.8714 97.9008 97.9308 97.9613 97.9925 98.0243 98.0567 98.0897 98.1234 98.1576 98.1924 98.2278 98.2638 98.3003 98.3375 98.3753 98.4137 98.4527 98.4924 98.5326 98.5734 98.6148 98.6568 98.6993 98.7425 98.7863 98.8307 98.8757 98.9214 98.9676 99.0143 99.0618 99.1098 99.1583 99.2075 99.2574 99.3077 99.3588 99.4103 99.4625 99.5153 99.5687 99.6227 99.6774 99.7326 99.7883 99.8448 99.9018 99.9594 100.0000 100.0000 100.0000 100.0000 100.0000 100.0000 100.0000 100.0000 100.0000 100.0000 100.0000 100.0000 100.0000 100.0000 100.0000 100.0000 100.0000 100.0000 100.0000 100.0000 100.0000 100.0000 100.0000
100.0000 100.0000 100.0000 100.0000 100.0000 100.0000 100.0000 100.0000 100.0000 100.0000 100.0000 100.0000 100.0000 100.0000 100.0000 100.0000 100.0000 100.0000 100.0000 100.0000 100.0000 100.0000 100.0000 99.9455 99.8880 99.8310 99.7746 99.7188 99.6636 99.6089 99.5550 99.5015 99.4488 99.3966 99.3449 99.2939 99.2435 99.1937 99.1445 99.0960 99.0480 99.0006 98.9537 98.9076 98.8620 98.8170 98.7725 98.7288 98.6856 98.6429 98.6009 98.5596 98.5187 98.4785 98.4390 98.4000 98.3615 98.3238 98.2866 98.2499 98.2139 98.1786 98.1437 98.1095 98.0760 98.0430 98.0105 97.9788 97.9476 97.9169 97.8869 97.8576 97.8287 97.8006 97.7729 97.7459 97.7195 97.6937 97.6685 97.6440 97.6200 97.5965 97.5738 97.5516 97.5299 97.5089 97.4886 97.4688 97.4496 97.4309 97.4129 97.3956 97.3787 97.3625 97.3470 97.3320 97.3175 97.3037 97.2905 97.2780 97.2660 97.2545 97.2438 97.2335 97.2240 97.2150 97.2065 97.1988 97.1916 97.1850 97.1790 97.1736 97.1688 97.1646 97.1609 97.1579 97.1556 97.1538 97.1526 97.1519 97.1519 97.1526 97.1538 97.1556 97.1579 97.1609 97.1646 97.1688 97.1736 97.1790 97.1850 97.1916 97.1988 97.2065 97.2150 97.2240 97.2335 97.2438 97.2545 97.2660 97.2780 97.2905 97.3037 97.3175 97.3320 97.3470 97.3625 97.3787 97.3956 97.4129 97.4309 97.4496 97.4688 97.4886 97.5089 97.5299 97.5516 97.5738 97.5965 97.6200 97.6440 97.6685 97.6937 97.7195 97.7459 97.7729 97.8006 97.8287 97.8576 97.8869 97.9169 97.9476 97.9788 98.0105 98.0430 98.0760 98.1095 98.1437 98.1786 98.2139 98.2499 98.2866 98.3238 98.3615 98.4000 98.4390 98.4785 98.5187 98.5596 98.6009 98.6429 98.6856 98.7288 98.7725 98.8170 98.8620 98.9076 98.9537 99.0006 99.0480 99.0960 99.1445 99.1937 99.2435 99.2939 99.3449 99.3966 99.4488 99.5015 99.5550 99.6089 99.6636 99.7188 99.7746 99.8310 99.8880 99.9455 100.0000 100.0000 100.0000 100.0000 100.0000 100.0000 100.0000 100.0000 100.0000 100.0000 100.0000 100.0000 100.0000 100.0000 100.0000 100.0000 100.0000 100.0000 100.0000 100.0000 100.0000 100.0000 100.0000
100.0000 100.0000 100.0000 100.0000 100.0000 100.0000 100.0000 100.0000 100.0000 100.0000 100.0000 100.0000 100.0000 100.0000 100.0000 100.0000 100.0000 100.0000 100.0000 100.0000 100.0000 100.0000 99.9905 99.9323 99.8748 99.8178 99.7613 99.7056 99.6504 99.5957 99.5417 99.4883 99.4356 99.3834 99.3317 99.2807 99.2304 99.1805 99.1313 99.0828 99.0348 98.9874 98.9406 98.8944 98.8487 98.8037 98.7593 98.7155 98.6723 98.6298 98.5877 98.5464 98.5055 98.4654 98.4257 98.3868 98.3483 98.3106 98.2733 98.2368 98.2007 98.1654 98.1305 98.0964 98.0627 98.0298 97.9973 97.9655 97.9343 97.9038 97.8738 97.8444 97.8156 97.7874 97.7597 97.7327 97.7064 97.6805 97.6553 97.6308 97.6068 97.5833 97.5606 97.5383 97.5168 97.4958 97.4754 97.4556 97.4364 97.4177 97.3997 97.3824 97.3655 97.3494 97.3337 97.3187 97.3043 97.2905 97.2773 97.2648 97.2528 97.2413 97.2305 97.2203 97.2108 97.2018 97.1933 97.1856 97.1783 97.1718 97.1658 97.1603 97.1556 97.1513 97.1478 97.1448 97.1423 97.1406 97.1393 97.1388 97.1388 97.1393 97.1406 97.1423 97.1448 97.1478 97.1513 97.1556 97.1603 97.1658 97.1718 97.1783 97.1856 97.1933 97.2018 97.2108 97.2203 97.2305 97.2413 97.2528 97.2648 97.2773 97.2905 97.3043 97.3187 97.3337 97.3494 97.3655 97.3824 97.3997 97.4177 97.4364 97.4556 97.4754 97.4958 97.5168 97.5383 97.5606 97.5833 97.6068 97.6308 97.6553 97.6805 97.7064 97.7327 97.7597 97.7874 97.8156 97.8444 97.8738 97.9038 97.9343 97.9655 97.9973 98.0298 98.0627 98.0964 98.1305 98.1654 98.2007 98.2368 98.2733 98.3106 98.3483 98.3868 98.4257 98.4654 98.5055 98.5464 98.5877 98.6298 98.6723 98.7155 98.7593 98.8037 98.8487 98.8944 98.9406 98.9874 99.0348 99.0828 99.1313 99.1805 99.2304 99.2807 99.3317 99.3834 99.4356 99.4883 99.5417 99.5957 99.6504 99.7056 99.7613 99.8178 99.8748 99.9323 99.9905 100.0000 100.0000 100.0000 100.0000 100.0000 100.0000 100.0000 100.0000 100.0000 100.0000 100.0000 100.0000 100.0000 100.0000 100.0000 100.0000 100.0000 100.0000 100.0000 100.0000 100.0000 100.0000
100.0000 100.0000 100.0000 100.0000 100.0000 100.0000 100.0000 100.0000 100.0000 100.0000 100.0000 100.0000 100.0000 100.0000 100.0000 100.0000 100.0000 100.0000 100.0000 100.0000 100.0000 100.0000 99.9779 99.9197 99.8621 99.8051 99.7488 99.6929 99.6377 99.5832 99.5292 99.4758 99.4230 99.3708 99.3191 99.2682 99.2177 99.1680 99.1188 99.0701 99.0221 98.9748 98.9279 98.8817 98.8362 98.7912 98.7468 98.7030 98.6598 98.6171 98.5751 98.5337 98.4929 98.4527 98.4132 98.3742 98.3358 98.2980 98.2608 98.2241 98.1881 98.1527 98.1179 98.0837 98.0502 98.0172 97.9848 97.9530 97.9218 97.8911 97.8611 97.8317 97.8029 97.7747 97.7472 97.7202 97.6937 97.6680 97.6428 97.6181 97.5941 97.5708 97.5480 97.5258 97.5041 97.4831 97.4627 97.4429 97.4237 97.4052 97.3872 97.3697 97.3530 97.3367 97.3212 97.3062 97.2917 97.2780 97.2648 97.2522 97.2401 97.2288 97.2180 97.2078 97.1981 97.1891 97.1808 97.1730 97.1658 97.1591 97.1531 97.1478 97.1429 97.1388 97.1351 97.1321 97.1298 97.1279 97.1268 97.1261 97.1261 97.1268 97.1279 97.1298 97.1321 97.1351 97.1388 97.1429 97.1478 97.1531 97.1591 97.1658 97.1730 97.1808 97.1891 97.1981 97.2078 97.2180 97.2288 97.2401 97.2522 97.2648 97.2780 97.2917 97.3062 97.3212 97.3367 97.3530 97.3697 97.3872 97.4052 97.4237 97.4429 97.4627 97.4831 97.5041 97.5258 97.5480 97.5708 97.5941 97.6181 97.6428 97.6680 97.6937 97.7202 97.7472 97.7747 97.8029 97.8317 97.8611 97.8911 97.9218 97.9530 97.9848 98.0172 98.0502 98.0837 98.1179 98.1527 98.1881 98.2241 98.2608 98.2980 98.3358 98.3742 98.4132 98.4527 98.4929 98.5337 98.5751 98.6171 98.6598 98.7030 98.7468 98.7912 98.8362 98.8817 98.9279 98.9748 99.0221 99.0701 99.1188 99.1680 99.2177 99.2682 99.3191 99.3708 99.4230 99.4758 99.5292 99.5832 99.6377 99.6929 99.7488 99.8051 99.8621 99.9197 99.9779 100.0000 100.0000 100.0000 100.0000 100.0000 100.0000 100.0000 100.0000 100.0000 100.0000 100.0000 100.0000 100.0000 100.0000 100.0000 100.0000 100.0000 100.0000 100.0000 100.0000 100.0000 100.0000
100.0000 100.0000 100.0000 100.0000 100.0000 100.0000 100.0000 100.0000 100.0000 100.0000 100.0000 100.0000 100.0000 100.0000 100.0000 100.0000 100.0000 100.0000 100.0000 100.0000 100.0000 100.0000 99.9660 99.9077 99.8501 99.7931 99.7368 99.6809 99.6257 99.5712 99.5172 99.4638 99.4109 99.3588 99.3072 99.2562 99.2057 99.1560 99.1068 99.0581 99.0101 98.9627 98.9159 98.8697 98.8242 98.7792 98.7348 98.6910 98.6478 98.6051 98.5631 98.5217 98.4810 98.4407 98.4012 98.3621 98.3238 98.2859 98.2488 98.2121 98.1762 98.1407 98.1060 98.0717 98.0382 98.0052 97.9728 97.9410 97.9098 97.8791 97.8491 97.8197 97.7909 97.7627 97.7352 97.7082 97.6817 97.6560 97.6308 97.6061 97.5821 97.5588 97.5359 97.5138 97.4921 97.4711 97.4507 97.4309 97.4117 97.3932 97.3752 97.3577 97.3410 97.3247 97.3092 97.2942 97.2798 97.2660 97.2528 97.2401 97.2281 97.2168 97.2060 97.1958 97.1861 97.1771 97.1688 97.1609 97.1538 97.1471 97.1411 97.1358 97.1309 97.1268 97.1231 97.1201 97.1178 97.1159 97.1148 97.1141 97.1141 97.1148 97.1159 97.1178 97.1201 97.1231 97.1268 97.1309 97.1358 97.1411 97.1471 97.1538 97.1609 97.1688 97.1771 97.1861 97.1958 97.2060 97.2168 97.2281 97.2401 97.2528 97.2660 97.2798 97.2942 97.3092 97.3247 97.3410 97.3577 97.3752 97.3932 97.4117 97.4309 97.4507 97.4711 97.4921 97.5138 97.5359 97.5588 97.5821 97.6061 97.6308 97.6560 97.6817 97.7082 97.7352 97.7627 97.7909 97.8197 97.8491 97.8791 97.9098 97.9410 97.9728 98.0052 98.0382 98.0717 98.1060 98.1407 98.1762 98.2121 98.2488 98.2859 98.3238 98.3621 98.4012 98.4407 98.4810 98.5217 98.5631 98.6051 98.6478 98.6910 98.7348 98.7792 98.8242 98.8697 98.9159 98.9627 99.0101 99.0581 99.1068 99.1560 99.2057 99.2562 99.3072 99.3588 99.4109 99.4638 99.5172 99.5712 99.6257 99.6809 99.7368 99.7931 99.8501 99.9077 99.9660 100.0000 100.0000 100.0000 100.0000 100.0000 100.0000 100.0000 100.0000 100.0000 100.0000 100.0000 100.0000 100.0000 100.0000 100.0000 100.0000 100.0000 100.0000 100.0000 100.0000 100.0000 100.0000
100.0000 100.0000 100.0000 100.0000 100.0000 100.0000 100.0000 100.0000 100.0000 100.0000 100.0000 100.0000 100.0000 100.0000 100.0000 100.0000 100.0000 100.0000 100.0000 100.0000 100.0000 100.0000 99.9545 99.8963 99.8388 99.7818 99.7254 99.6696 99.6144 99.5597 99.5058 99.4523 99.3996 99.3474 99.2957 99.2447 99.1944 99.1445 99.0953 99.0468 98.9988 98.9514 98.9046 98.8584 98.8127 98.7678 98.7233 98.6796 98.6363 98.5938 98.5517 98.5104 98.4695 98.4293 98.3898 98.3508 98.3123 98.2746 98.2374 98.2007 98.1647 98.1294 98.0945 98.0603 98.0268 97.9938 97.9613 97.9296 97.8983 97.8678 97.8377 97.8084 97.7796 97.7514 97.7237 97.6967 97.6703 97.6445 97.6193 97.5948 97.5708 97.5473 97.5246 97.5024 97.4808 97.4597 97.4394 97.4196 97.4004 97.3817 97.3637 97.3464 97.3295 97.3133 97.2977 97.2827 97.2683 97.2545 97.2413 97.2288 97.2168 97.2053 97.1946 97.1843 97.1748 97.1658 97.1573 97.1496 97.1423 97.1358 97.1298 97.1244 97.1196 97.1154 97.1118 97.1088 97.1064 97.1046 97.1034 97.1028 97.1028 97.1034 97.1046 97.1064 97.1088 97.1118 97.1154 97.1196 97.1244 97.1298 97.1358 97.1423 97.1496 97.1573 97.1658 97.1748 97.1843 97.1946 97.2053 97.2168 97.2288 97.2413 97.2545 97.2683 97.2827 97.2977 97.3133 97.3295 97.3464 97.3637 97.3817 97.4004 97.4196 97.4394 97.4597 97.4808 97.5024 97.5246 97.5473 97.5708 97.5948 97.6193 97.6445 97.6703 97.6967 97.7237 97.7514 97.7796 97.8084 97.8377 97.8678 97.8983 97.9296 97.9613 97.9938 98.0268 98.0603 98.0945 98.1294 98.1647 98.2007 98.2374 98.2746 98.3123 98.3508 98.3898 98.4293 98.4695 98.5104 98.5517 98.5938 98.6363 98.6796 98.7233 98.7678 98.8127 98.8584 98.9046 98.9514 98.9988 99.0468 99.0953 99.1445 99.1944 99.2447 99.2957 99.3474 99.3996 99.4523 99.5058 99.5597 99.6144 99.6696 99.7254 99.7818 99.8388 99.8963 99.9545 100.0000 100.0000 100.0000 100.0000 100.0000 100.0000 100.0000 100.0000 100.0000 100.0000 100.0000 100.0000 100.0000 100.0000 100.0000 100.0000 100.0000 100.0000 100.0000 100.0000 100.0000 100.0000
100.0000 100.0000 100.0000 100.0000 100.0000 100.0000 100.0000 100.0000 100.0000 100.0000 100.0000 100.0000 100.0000 100.0000 100.0000 100.0000 100.0000 100.0000 100.0000 100.0000 100.0000 100.0000 99.9437 99.8855 99.8280 99.7709 99.7146 99.6587 99.6035 99.5490 99.4950 99.4416 99.3888 99.3366 99.2849 99.2339 99.1835 99.1338 99.0846 99.0359 98.9879 98.9406 98.8937 98.8475 98.8020 98.7570 98.7125 98.6688 98.6256 98.5829 98.5409 98.4995 98.4587 98.4185 98.3790 98.3400 98.3016 98.2638 98.2266 98.1899 98.1539 98.1185 98.0837 98.0495 98.0160 97.9830 97.9506 97.9188 97.8876 97.8569 97.8269 97.7976 97.7687 97.7405 97.7130 97.6860 97.6595 97.6338 97.6085 97.5840 97.5600 97.5366 97.5138 97.4916 97.4699 97.4489 97.4286 97.4087 97.3895 97.3709 97.3530 97.3355 97.3187 97.3025 97.2870 97.2720 97.2575 97.2438 97.2305 97.2180 97.2060 97.1946 97.1838 97.1736 97.1639 97.1549 97.1466 97.1388 97.1316 97.1249 97.1189 97.1136 97.1088 97.1046 97.1009 97.0979 97.0956 97.0938 97.0926 97.0919 97.0919 97.0926 97.0938 97.0956 97.0979 97.1009 97.1046 97.1088 97.1136 97.1189 97.1249 97.1316 97.1388 97.1466 97.1549 97.1639 97.1736 97.1838 97.1946 97.2060 97.2180 97.2305 97.2438 97.2575 97.2720 97.2870 97.3025 97.3187 97.3355 97.3530 97.3709 97.3895 97.4087 97.4286 97.4489 97.4699 97.4916 97.5138 97.5366 97.5600 97.5840 97.6085 97.6338 97.6595 97.6860 97.7130 97.7405 97.7687 97.7976 97.8269 97.8569 97.8876 97.9188 97.9506 97.9830 98.0160 98.0495 98.0837 98.1185 98.1539 98.1899 98.2266 98.2638 98.3016 98.3400 98.3790 98.4185 98.4587 98.4995 98.5409 98.5829 98.6256 98.6688 98.7125 98.7570 98.8020 98.8475 98.8937 98.9406 98.9879 99.0359 99.0846 99.1338 99.1835 99.2339 99.2849 99.3366 99.3888 99.4416 99.4950 99.5490 99.6035 99.6587 99.7146 99.7709 99.8280 99.8855 99.9437 100.0000 100.0000 100.0000 100.0000 100.0000 100.0000 100.0000 100.0000 100.0000 100.0000 100.0000 100.0000 100.0000 100.0000 100.0000 100.0000 100.0000 100.0000 100.0000 100.0000 100.0000 100.0000
100.0000 100.0000 100.0000 100.0000 100.0000 100.0000 100.0000 100.0000 100.0000 100.0000 100.0000 100.0000 100.0000 100.0000 100.0000 100.0000 100.0000 100.0000 100.0000 100.0000 100.0000 99.9924 99.9335 99.8753 99.8178 99.7608 99.7044 99.6486 99.5934 99.5387 99.4848 99.4313 99.3786 99.3264 99.2747 99.2237 99.1733 99.1235 99.0743 99.0258 98.9778 98.9304 98.8835 98.8374 98.7917 98.7468 98.7023 98.6586 98.6154 98.5727 98.5307 98.4894 98.4485 98.4083 98.3688 98.3298 98.2913 98.2536 98.2164 98.1797 98.1437 98.1084 98.0735 98.0393 98.0058 97.9728 97.9403 97.9086 97.8774 97.8468 97.8167 97.7874 97.7585 97.7304 97.7027 97.6757 97.6493 97.6235 97.5983 97.5738 97.5498 97.5263 97.5036 97.4814 97.4597 97.4387 97.4184 97.3986 97.3794 97.3607 97.3427 97.3254 97.3085 97.2923 97.2768 97.2618 97.2473 97.2335 97.2203 97.2078 97.1958 97.1843 97.1736 97.1633 97.1538 97.1448 97.1363 97.1286 97.1214 97.1148 97.1088 97.1034 97.0986 97.0944 97.0907 97.0877 97.0854 97.0836 97.0824 97.0817 97.0817 97.0824 97.0836 97.0854 97.0877 97.0907 97.0944 97.0986 97.1034 97.1088 97.1148 97.1214 97.1286 97.1363 97.1448 97.1538 97.1633 97.1736 97.1843 97.1958 97.2078 97.2203 97.2335 97.2473 97.2618 97.2768 97.2923 97.3085 97.3254 97.3427 97.3607 97.3794 97.3986 97.4184 97.4387 97.4597 97.4814 97.5036 97.5263 97.5498 97.5738 97.5983 97.6235 97.6493 97.6757 97.7027 97.7304 97.7585 97.7874 97.8167 97.8468 97.8774 97.9086 97.9403 97.9728 98.0058 98.0393 98.0735 98.1084 98.1437 98.1797 98.2164 98.2536 98.2913 98.3298 98.3688 98.4083 98.4485 98.4894 98.5307 98.5727 98.6154 98.6586 98.7023 98.7468 98.7917 98.8374 98.8835 98.9304 98.9778 99.0258 99.0743 99.1235 99.1733 99.2237 99.2747 99.3264 99.3786 99.4313 99.4848 99.5387 99.5934 99.6486 99.7044 99.7608 99.8178 99.8753 99.9335 99.9924 100.0000 100.0000 100.0000 100.0000 100.0000 100.0000 100.0000 100.0000 100.0000 100.0000 100.0000 100.0000 100.0000 100.0000 100.0000 100.0000 100.0000 100.0000 100.0000 100.0000 100.0000
100.0000 100.0000 100.0000 100.0000 100.0000 100.0000 100.0000 100.0000 100.0000 100.0000 100.0000 100.0000 100.0000 100.0000 100.0000 100.0000 100.0000 100.0000 100.0000 100.0000 100.0000 99.9827 99.9240 99.8658 99.8081 99.7511 99.6947 99.6389 99.5837 99.5292 99.4751 99.4218 99.3689 99.3167 99.2652 99.2142 99.1637 99.1140 99.0648 99.0161 98.9681 98.9207 98.8739 98.8277 98.7822 98.7371 98.6928 98.6489 98.6058 98.5631 98.5212 98.4797 98.4390 98.3988 98.3591 98.3201 98.2818 98.2439 98.2067 98.1702 98.1342 98.0987 98.0640 98.0298 97.9962 97.9631 97.9308 97.8989 97.8678 97.8371 97.8072 97.7777 97.7489 97.7207 97.6932 97.6662 97.6398 97.6140 97.5888 97.5641 97.5401 97.5168 97.4939 97.4718 97.4501 97.4292 97.4087 97.3889 97.3697 97.3512 97.3332 97.3157 97.2990 97.2827 97.2672 97.2522 97.2378 97.2240 97.2108 97.1981 97.1861 97.1748 97.1639 97.1538 97.1441 97.1351 97.1268 97.1189 97.1118 97.1051 97.0991 97.0938 97.0889 97.0847 97.0811 97.0781 97.0757 97.0739 97.0727 97.0721 97.0721 97.0727 97.0739 97.0757 97.0781 97.0811 97.0847 97.0889 97.0938 97.0991 97.1051 97.1118 97.1189 97.1268 97.1351 97.1441 97.1538 97.1639 97.1748 97.1861 97.1981 97.2108 97.2240 97.2378 97.2522 97.2672 97.2827 97.2990 97.3157 97.3332 97.3512 97.3697 97.3889 97.4087 97.4292 97.4501 97.4718 97.4939 97.5168 97.5401 97.5641 97.5888 97.6140 97.6398 97.6662 97.6932 97.7207 97.7489 97.7777 97.8072 97.8371 97.8678 97.8989 97.9308 97.9631 97.9962 98.0298 98.0640 98.0987 98.1342 98.1702 98.2067 98.2439 98.2818 98.3201 98.3591 98.3988 98.4390 98.4797 98.5212 98.5631 98.6058 98.6489 98.6928 98.7371 98.7822 98.8277 98.8739 98.9207 98.9681 99.0161 99.0648 99.1140 99.1637 99.2142 99.2652 99.3167 99.3689 99.4218 99.4751 99.5292 99.5837 99.6389 99.6947 99.7511 99.8081 99.8658 99.9240 99.9827 100.0000 100.0000 100.0000 100.0000 100.0000 100.0000 100.0000 100.0000 100.0000 100.0000 100.0000 100.0000 100.0000 100.0000 100.0000 100.0000 100.0000 100.0000 100.0000 100.0000 100.0000
100.0000 100.0000 100.0000 100.0000 100.0000 100.0000 100.0000 100.0000 100.0000 100.0000 100.0000 100.0000 100.0000 100.0000 100.0000 100.0000 100.0000 100.0000 100.0000 100.0000 100.0000 99.9737 99.9150 99.8568 99.7991 99.7421 99.6857 99.6299 99.5747 99.5202 99.4661 99.4128 99.3599 99.3077 99.2562 99.2052 99.1548 99.1050 99.0558 99.0071 98.9591 98.9117 98.8649 98.8187 98.7732 98.7281 98.6838 98.6399 98.5968 98.5541 98.5122 98.4707 98.4300 98.3898 98.3501 98.3111 98.2728 98.2349 98.1977 98.1612 98.1252 98.0897 98.0550 98.0208 97.9871 97.9541 97.9218 97.8899 97.8588 97.8281 97.7982 97.7687 97.7399 97.7117 97.6842 97.6572 97.6308 97.6050 97.5798 97.5551 97.5311 97.5078 97.4849 97.4627 97.4411 97.4202 97.3997 97.3799 97.3607 97.3422 97.3242 97.3067 97.2900 97.2738 97.2582 97.2431 97.2288 97.2150 97.2018 97.1891 97.1771 97.1658 97.1549 97.1448 97.1351 97.1261 97.1178 97.1099 97.1028 97.0961 97.0901 97.0847 97.0799 97.0757 97.0721 97.0691 97.0667 97.0649 97.0637 97.0631 97.0631 97.0637 97.0649 97.0667 97.0691 97.0721 97.0757 97.0799 97.0847 97.0901 97.0961 97.1028 97.1099 97.1178 97.1261 97.1351 97.1448 97.1549 97.1658 97.1771 97.1891 97.2018 97.2150 97.2288 97.2431 97.2582 97.2738 97.2900 97.3067 97.3242 97.3422 97.3607 97.3799 97.3997 97.4202 97.4411 97.4627 97.4849 97.5078 97.5311 97.5551 97.5798 97.6050 97.6308 97.6572 97.6842 97.7117 97.7399 97.7687 97.7982 97.8281 97.8588 97.8899 97.9218 97.9541 97.9871 98.0208 98.0550 98.0897 98.1252 98.1612 98.1977 98.2349 98.2728 98.3111 98.3501 98.3898 98.4300 98.4707 98.5122 98.5541 98.5968 98.6399 98.6838 98.7281 98.7732 98.8187 98.8649 98.9117 98.9591 99.0071 99.0558 99.1050 99.1548 99.2052 99.2562 99.3077 99.3599 99.4128 99.4661 99.5202 99.5747 99.6299 99.6857 99.7421 99.7991 99.8568 99.9150 99.9737 100.0000 100.0000 100.0000 100.0000 100.0000 100.0000 100.0000 100.0000 100.0000 100.0000 100.0000 100.0000 100.0000 100.0000 100.0000 100.0000 100.0000 100.0000 100.0000 100.0000 100.0000
100.0000 100.0000 100.0000 100.0000 100.0000 100.0000 100.0000 100.0000 100.0000 100.0000 100.0000 100.0000 100.0000 100.0000 100.0000 100.0000 100.0000 100.0000 100.0000 100.0000 100.0000 99.9654 99.9065 99.8483 99.7908 99.7338 99.6774 99.6215 99.5663 99.5118 99.4578 99.4043 99.3516 99.2994 99.2477 99.1967 99.1463 99.0965 99.0473 98.9988 98.9507 98.9034 98.8565 98.8103 98.7648 98.7198 98.6753 98.6316 98.5884 98.5457 98.5037 98.4624 98.4215 98.3813 98.3418 98.3028 98.2643 98.2266 98.1894 98.1527 98.1167 98.0814 98.0465 98.0123 97.9788 97.9458 97.9133 97.8816 97.8504 97.8197 97.7897 97.7604 97.7315 97.7034 97.6757 97.6488 97.6223 97.5965 97.5713 97.5468 97.5228 97.4994 97.4766 97.4544 97.4327 97.4117 97.3914 97.3715 97.3524 97.3337 97.3157 97.2983 97.2815 97.2653 97.2498 97.2348 97.2203 97.2065 97.1933 97.1808 97.1688 97.1573 97.1466 97.1363 97.1268 97.1178 97.1094 97.1016 97.0944 97.0877 97.0817 97.0764 97.0716 97.0674 97.0637 97.0607 97.0584 97.0566 97.0554 97.0547 97.0547 97.0554 97.0566 97.0584 97.0607 97.0637 97.0674 97.0716 97.0764 97.0817 97.0877 97.0944 97.1016 97.1094 97.1178 97.1268 97.1363 97.1466 97.1573 97.1688 97.1808 97.1933 97.2065 97.2203 97.2348 97.2498 97.2653 97.2815 97.2983 97.3157 97.3337 97.3524 97.3715 97.3914 97.4117 97.4327 97.4544 97.4766 97.4994 97.5228 97.5468 97.5713 97.5965 97.6223 97.6488 97.6757 97.7034 97.7315 97.7604 97.7897 97.8197 97.8504 97.8816 97.9133 97.9458 97.9788 98.0123 98.0465 98.0814 98.1167 98.1527 98.1894 98.2266 98.2643 98.3028 98.3418 98.3813 98.4215 98.4624 98.5037 98.5457 98.5884 98.6316 98.6753 98.7198 98.7648 98.8103 98.8565 98.9034 98.9507 98.9988 99.0473 99.0965 99.1463 99.1967 99.2477 99.2994 99.3516 99.4043 99.4578 99.5118 99.5663 99.6215 99.6774 99.7338 99.7908 99.8483 99.9065 99.9654 100.0000 100.0000 100.0000 100.0000 100.0000 100.0000 100.0000 100.0000 100.0000 100.0000 100.0000 100.0000 100.0000 100.0000 100.0000 100.0000 100.0000 100.0000 100.0000 100.0000 100.0000
100.0000 100.0000 100.0000 100.0000 100.0000 100.0000 100.0000 100.0000 100.0000 100.0000 100.0000 100.0000 100.0000 100.0000 100.0000 100.0000 100.0000 100.0000 100.0000 100.0000 100.0000 99.9575 99.8988 99.8405 99.7829 99.7259 99.6696 99.6137 99.5585 99.5040 99.4500 99.3966 99.3438 99.2916 99.2399 99.1890 99.1385 99.0888 99.0396 98.9909 98.9429 98.8956 98.8487 98.8025 98.7570 98.7120 98.6676 98.6238 98.5806 98.5379 98.4959 98.4545 98.4137 98.3735 98.3340 98.2950 98.2566 98.2188 98.1816 98.1449 98.1089 98.0735 98.0387 98.0045 97.9710 97.9380 97.9056 97.8738 97.8426 97.8119 97.7819 97.7525 97.7237 97.6955 97.6680 97.6410 97.6145 97.5888 97.5636 97.5389 97.5149 97.4916 97.4688 97.4466 97.4249 97.4039 97.3835 97.3637 97.3445 97.3260 97.3080 97.2905 97.2738 97.2575 97.2420 97.2270 97.2125 97.1988 97.1856 97.1730 97.1609 97.1496 97.1388 97.1286 97.1189 97.1099 97.1016 97.0938 97.0866 97.0799 97.0739 97.0686 97.0637 97.0596 97.0559 97.0529 97.0506 97.0487 97.0476 97.0469 97.0469 97.0476 97.0487 97.0506 97.0529 97.0559 97.0596 97.0637 97.0686 97.0739 97.0799 97.0866 97.0938 97.1016 97.1099 97.1189 97.1286 97.1388 97.1496 97.1609 97.1730 97.1856 97.1988 97.2125 97.2270 97.2420 97.2575 97.2738 97.2905 97.3080 97.3260 97.3445 97.3637 97.3835 97.4039 97.4249 97.4466 97.4688 97.4916 97.5149 97.5389 97.5636 97.5888 97.6145 97.6410 97.6680 97.6955 97.7237 97.7525 97.7819 97.8119 97.8426 97.8738 97.9056 97.9380 97.9710 98.0045 98.0387 98.0735 98.1089 98.1449 98.1816 98.2188 98.2566 98.2950 98.3340 98.3735 98.4137 98.4545 98.4959 98.5379 98.5806 98.6238 98.6676 98.7120 98.7570 98.8025 98.8487 98.8956 98.9429 98.9909 99.0396 99.0888 99.1385 99.1890 99.2399 99.2916 99.3438 99.3966 99.4500 99.5040 99.5585 99.6137 99.6696 99.7259 99.7829 99.8405 99.8988 99.9575 100.0000 100.0000 100.0000 100.0000 100.0000 100.0000 100.0000 100.0000 100.0000 100.0000 100.0000 100.0000 100.0000 100.0000 100.0000 100.0000 100.0000 100.0000 100.0000 100.0000 100.0000
100.0000 100.0000 100.0000 100.0000 100.0000 100.0000 100.0000 100.0000 100.0000 100.0000 100.0000 100.0000 100.0000 100.0000 100.0000 100.0000 100.0000 100.0000 100.0000 100.0000 100.0000 99.9504 99.8915 99.8333 99.7758 99.7188 99.6624 99.6065 99.5513 99.4968 99.4428 99.3893 99.3366 99.2844 99.2327 99.1817 99.1313 99.0815 99.0323 98.9838 98.9357 98.8884 98.8415 98.7953 98.7498 98.7048 98.6603 98.6166 98.5734 98.5307 98.4887 98.4474 98.4065 98.3663 98.3268 98.2878 98.2494 98.2116 98.1744 98.1377 98.1017 98.0663 98.0315 97.9973 97.9638 97.9308 97.8983 97.8666 97.8354 97.8047 97.7747 97.7454 97.7165 97.6883 97.6607 97.6338 97.6073 97.5815 97.5563 97.5318 97.5078 97.4844 97.4616 97.4394 97.4177 97.3967 97.3764 97.3565 97.3374 97.3187 97.3007 97.2833 97.2665 97.2503 97.2348 97.2198 97.2053 97.1916 97.1783 97.1658 97.1538 97.1423 97.1316 97.1214 97.1118 97.1028 97.0944 97.0866 97.0794 97.0727 97.0667 97.0614 97.0566 97.0524 97.0487 97.0457 97.0434 97.0416 97.0404 97.0397 97.0397 97.0404 97.0416 97.0434 97.0457 97.0487 97.0524 97.0566 97.0614 97.0667 97.0727 97.0794 97.0866 97.0944 97.1028 97.1118 97.1214 97.1316 97.1423 97.1538 97.1658 97.1783 97.1916 97.2053 97.2198 97.2348 97.2503 97.2665 97.2833 97.3007 97.3187 97.3374 97.3565 97.3764 97.3967 97.4177 97.4394 97.4616 97.4844 97.5078 97.5318 97.5563 97.5815 97.6073 97.6338 97.6607 97.6883 97.7165 97.7454 97.7747 97.8047 97.8354 97.8666 97.8983 97.9308 97.9638 97.9973 98.0315 98.0663 98.1017 98.1377 98.1744 98.2116 98.2494 98.2878 98.3268 98.3663 98.4065 98.4474 98.4887 98.5307 98.5734 98.6166 98.6603 98.7048 98.7498 98.7953 98.8415 98.8884 98.9357 98.9838 99.0323 99.0815 99.1313 99.1817 99.2327 99.2844 99.3366 99.3893 99.4428 99.4968 99.5513 99.6065 99.6624 99.7188 99.7758 99.8333 99.8915 99.9504 100.0000 100.0000 100.0000 100.0000 100.0000 100.0000 100.0000 100.0000 100.0000 100.0000 100.0000 100.0000 100.0000 100.0000 100.0000 100.0000 100.0000 100.0000 100.0000 100.0000 100.0000
100.0000 100.0000 100.0000 100.0000 100.0000 100.0000 100.0000 100.0000 100.0000 100.0000 100.0000 100.0000 100.0000 100.0000 100.0000 100.0000 100.0000 100.0000 100.0000 100.0000 100.0000 99.9437 99.8850 99.8268 99.7691 99.7121 99.6557 99.6000 99.5447 99.4901 99.4361 99.3828 99.3299 99.2777 99.2262 99.1752 99.1248 99.0750 99.0258 98.9771 98.9291 98.8817 98.8350 98.7887 98.7431 98.6981 98.6538 98.6099 98.5667 98.5242 98.4822 98.4407 98.4000 98.3598 98.3201 98.2811 98.2428 98.2049 98.1677 98.1312 98.0952 98.0597 98.0250 97.9908 97.9571 97.9241 97.8918 97.8599 97.8287 97.7982 97.7682 97.7387 97.7100 97.6817 97.6542 97.6272 97.6008 97.5750 97.5498 97.5251 97.5011 97.4778 97.4549 97.4327 97.4112 97.3902 97.3697 97.3500 97.3307 97.3122 97.2942 97.2768 97.2600 97.2438 97.2281 97.2131 97.1988 97.1850 97.1718 97.1591 97.1471 97.1358 97.1249 97.1148 97.1051 97.0961 97.0877 97.0799 97.0727 97.0661 97.0601 97.0547 97.0499 97.0457 97.0422 97.0392 97.0367 97.0349 97.0337 97.0332 97.0332 97.0337 97.0349 97.0367 97.0392 97.0422 97.0457 97.0499 97.0547 97.0601 97.0661 97.0727 97.0799 97.0877 97.0961 97.1051 97.1148 97.1249 97.1358 97.1471 97.1591 97.1718 97.1850 97.1988 97.2131 97.2281 97.2438 97.2600 97.2768 97.2942 97.3122 97.3307 97.3500 97.3697 97.3902 97.4112 97.4327 97.4549 97.4778 97.5011 97.5251 97.5498 97.5750 97.6008 97.6272 97.6542 97.6817 97.7100 97.7387 97.7682 97.7982 97.8287 97.8599 97.8918 97.9241 97.9571 97.9908 98.0250 98.0597 98.0952 98.1312 98.1677 98.2049 98.2428 98.2811 98.3201 98.3598 98.4000 98.4407 98.4822 98.5242 98.5667 98.6099 98.6538 98.6981 98.7431 98.7887 98.8350 98.8817 98.9291 98.9771 99.0258 99.0750 99.1248 99.1752 99.2262 99.2777 99.3299 99.3828 99.4361 99.4901 99.5447 99.6000 99.6557 99.7121 99.7691 99.8268 99.8850 99.9437 100.0000 100.0000 100.0000 100.0000 100.0000 100.0000 100.0000 100.0000 100.0000 100.0000 100.0000 100.0000 100.0000 100.0000 100.0000 100.0000 100.0000 100.0000 100.0000 100.0000 100.0000
100.0000 100.0000 100.0000 100.0000 100.0000 100.0000 100.0000 100.0000 100.0000 100.0000 100.0000 100.0000 100.0000 100.0000 100.0000 100.0000 100.0000 100.0000 100.0000 100.0000 99.9972 99.9377 99.8790 99.8208 99.7631 99.7061 99.6497 99.5940 99.5387 99.4841 99.4301 99.3768 99.3239 99.2717 99.2202 99.1692 99.1188 99.0690 99.0198 98.9711 98.9232 98.8757 98.8290 98.7827 98.7371 98.6921 98.6478 98.6039 98.5607 98.5182 98.4762 98.4347 98.3940 98.3538 98.3141 98.2751 98.2368 98.1989 98.1617 98.1252 98.0892 98.0537 98.0190 97.9848 97.9511 97.9181 97.8858 97.8539 97.8227 97.7922 97.7622 97.7327 97.7040 97.6757 97.6482 97.6212 97.5948 97.5690 97.5438 97.5191 97.4951 97.4718 97.4489 97.4267 97.4052 97.3842 97.3637 97.3440 97.3247 97.3062 97.2882 97.2708 97.2540 97.2378 97.2221 97.2071 97.1928 97.1790 97.1658 97.1531 97.1411 97.1298 97.1189 97.1088 97.0991 97.0901 97.0817 97.0739 97.0667 97.0601 97.0542 97.0487 97.0439 97.0397 97.0362 97.0332 97.0307 97.0289 97.0277 97.0272 97.0272 97.0277 97.0289 97.0307 97.0332 97.0362 97.0397 97.0439 97.0487 97.0542 97.0601 97.0667 97.0739 97.0817 97.0901 97.0991 97.1088 97.1189 97.1298 97.1411 97.1531 97.1658 97.1790 97.1928 97.2071 97.2221 97.2378 97.2540 97.2708 97.2882 97.3062 97.3247 97.3440 97.3637 97.3842 97.4052 97.4267 97.4489 97.4718 97.4951 97.5191 97.5438 97.5690 97.5948 97.6212 97.6482 97.6757 97.7040 97.7327 97.7622 97.7922 97.8227 97.8539 97.8858 97.9181 97.9511 97.9848 98.0190 98.0537 98.0892 98.1252 98.1617 98.1989 98.2368 98.2751 98.3141 98.3538 98.3940 98.4347 98.4762 98.5182 98.5607 98.6039 98.6478 98.6921 98.7371 98.7827 98.8290 98.8757 98.9232 98.9711 99.0198 99.0690 99.1188 99.1692 99.2202 99.2717 99.3239 99.3768 99.4301 99.4841 99.5387 99.5940 99.6497 99.7061 99.7631 99.8208 99.8790 99.9377 99.9972 100.0000 100.0000 100.0000 100.0000 100.0000 100.0000 100.0000 100.0000 100.0000 100.0000 100.0000 100.0000 100.0000 100.0000 100.0000 100.0000 100.0000 100.0000 100.0000 100.0000
100.0000 100.0000 100.0000 100.0000 100.0000 100.0000 100.0000 100.0000 100.0000 100.0000 100.0000 100.0000 100.0000 100.0000 100.0000 100.0000 100.0000 100.0000 100.0000 100.0000 99.9917 99.9323 99.8735 99.8153 99.7578 99.7007 99.6444 99.5885 99.5333 99.4788 99.4248 99.3714 99.3186 99.2664 99.2147 99.1637 99.1133 99.0636 99.0143 98.9657 98.9177 98.8704 98.8235 98.7773 98.7318 98.6868 98.6423 98.5986 98.5554 98.5127 98.4707 98.4293 98.3885 98.3483 98.3088 98.2698 98.2314 98.1936 98.1564 98.1197 98.0837 98.0483 98.0135 97.9793 97.9458 97.9128 97.8803 97.8486 97.8174 97.7867 97.7567 97.7274 97.6985 97.6703 97.6428 97.6158 97.5893 97.5636 97.5383 97.5138 97.4898 97.4664 97.4436 97.4214 97.3997 97.3787 97.3584 97.3385 97.3194 97.3007 97.2827 97.2653 97.2485 97.2323 97.2168 97.2018 97.1873 97.1736 97.1603 97.1478 97.1358 97.1244 97.1136 97.1034 97.0938 97.0847 97.0764 97.0686 97.0614 97.0547 97.0487 97.0434 97.0386 97.0344 97.0307 97.0277 97.0254 97.0236 97.0224 97.0217 97.0217 97.0224 97.0236 97.0254 97.0277 97.0307 97.0344 97.0386 97.0434 97.0487 97.0547 97.0614 97.0686 97.0764 97.0847 97.0938 97.1034 97.1136 97.1244 97.1358 97.1478 97.1603 97.1736 97.1873 97.2018 97.2168 97.2323 97.2485 97.2653 97.2827 97.3007 97.3194 97.3385 97.3584 97.3787 97.3997 97.4214 97.4436 97.4664 97.4898 97.5138 97.5383 97.5636 97.5893 97.6158 97.6428 97.6703 97.6985 97.7274 97.7567 97.7867 97.8174 97.8486 97.8803 97.9128 97.9458 97.9793 98.0135 98.0483 98.0837 98.1197 98.1564 98.1936 98.2314 98.2698 98.3088 98.3483 98.3885 98.4293 98.4707 98.5127 98.5554 98.5986 98.6423 98.6868 98.7318 98.7773 98.8235 98.8704 98.9177 98.9657 99.0143 99.0636 99.1133 99.1637 99.2147 99.2664 99.3186 99.3714 99.4248 99.4788 99.5333 99.5885 99.6444 99.7007 99.7578 99.8153 99.8735 99.9323 99.9917 100.0000 100.0000 100.0000 100.0000 100.0000 100.0000 100.0000 100.0000 100.0000 100.0000 100.0000 100.0000 100.0000 100.0000 100.0000 100.0000 100.0000 100.0000 100.0000 100.0000
100.0000 100.0000 100.0000 100.0000 100.0000 100.0000 100.0000 100.0000 100.0000 100.0000 100.0000 100.0000 100.0000 100.0000 100.0000 100.0000 100.0000 100.0000 100.0000 100.0000 99.9870 99.9275 99.8688 99.8106 99.7529 99.6959 99.6395 99.5837 99.5285 99.4740 99.4200 99.3666 99.3137 99.2615 99.2100 99.1590 99.1085 99.0588 99.0096 98.9609 98.9129 98.8655 98.8187 98.7725 98.7270 98.6820 98.6376 98.5938 98.5506 98.5079 98.4660 98.4245 98.3838 98.3435 98.3040 98.2649 98.2266 98.1887 98.1516 98.1149 98.0790 98.0435 98.0088 97.9745 97.9410 97.9079 97.8756 97.8438 97.8126 97.7819 97.7519 97.7225 97.6937 97.6655 97.6380 97.6110 97.5845 97.5588 97.5336 97.5089 97.4849 97.4616 97.4387 97.4166 97.3949 97.3739 97.3535 97.3337 97.3145 97.2960 97.2780 97.2605 97.2438 97.2275 97.2120 97.1970 97.1826 97.1688 97.1556 97.1429 97.1309 97.1196 97.1088 97.0986 97.0889 97.0799 97.0716 97.0637 97.0566 97.0499 97.0439 97.0386 97.0337 97.0296 97.0259 97.0229 97.0206 97.0187 97.0175 97.0169 97.0169 97.0175 97.0187 97.0206 97.0229 97.0259 97.0296 97.0337 97.0386 97.0439 97.0499 97.0566 97.0637 97.0716 97.0799 97.0889 97.0986 97.1088 97.1196 97.1309 97.1429 97.1556 97.1688 97.1826 97.1970 97.2120 97.2275 97.2438 97.2605 97.2780 97.2960 97.3145 97.3337 97.3535 97.3739 97.3949 97.4166 97.4387 97.4616 97.4849 97.5089 97.5336 97.5588 97.5845 97.6110 97.6380 97.6655 97.6937 97.7225 97.7519 97.7819 97.8126 97.8438 97.8756 97.9079 97.9410 97.9745 98.0088 98.0435 98.0790 98.1149 98.1516 98.1887 98.2266 98.2649 98.3040 98.3435 98.3838 98.4245 98.4660 98.5079 98.5506 98.5938 98.6376 98.6820 98.7270 98.7725 98.8187 98.8655 98.9129 98.9609 99.0096 99.0588 99.1085 99.1590 99.2100 99.2615 99.3137 99.3666 99.4200 99.4740 99.5285 99.5837 99.6395 99.6959 99.7529 99.8106 99.8688 99.9275 99.9870 100.0000 100.0000 100.0000 100.0000 100.0000 100.0000 100.0000 100.0000 100.0000 100.0000 100.0000 100.0000 100.0000 100.0000 100.0000 100.0000 100.0000 100.0000 100.0000 100.0000
100.0000 100.0000 100.0000 100.0000 100.0000 100.0000 100.0000 100.0000 100.0000 100.0000 100.0000 100.0000 100.0000 100.0000 100.0000 100.0000 100.0000 100.0000 100.0000 100.0000 99.9827 99.9233 99.8645 99.8063 99.7488 99.6917 99.6354 99.5795 99.5243 99.4698 99.4158 99.3624 99.3096 99.2574 99.2057 99.1548 99.1043 99.0546 99.0053 98.9567 98.9087 98.8614 98.8145 98.7683 98.7228 98.6778 98.6334 98.5896 98.5464 98.5037 98.4617 98.4203 98.3795 98.3393 98.2998 98.2608 98.2224 98.1846 98.1474 98.1107 98.0747 98.0393 98.0045 97.9703 97.9368 97.9038 97.8714 97.8396 97.8084 97.7777 97.7477 97.7184 97.6895 97.6613 97.6338 97.6068 97.5803 97.5546 97.5293 97.5048 97.4808 97.4574 97.4346 97.4124 97.3907 97.3697 97.3494 97.3295 97.3103 97.2917 97.2738 97.2563 97.2395 97.2233 97.2078 97.1928 97.1783 97.1646 97.1513 97.1388 97.1268 97.1154 97.1046 97.0944 97.0847 97.0757 97.0674 97.0596 97.0524 97.0457 97.0397 97.0344 97.0296 97.0254 97.0217 97.0187 97.0164 97.0145 97.0134 97.0127 97.0127 97.0134 97.0145 97.0164 97.0187 97.0217 97.0254 97.0296 97.0344 97.0397 97.0457 97.0524 97.0596 97.0674 97.0757 97.0847 97.0944 97.1046 97.1154 97.1268 97.1388 97.1513 97.1646 97.1783 97.1928 97.2078 97.2233 97.2395 97.2563 97.2738 97.2917 97.3103 97.3295 97.3494 97.3697 97.3907 97.4124 97.4346 97.4574 97.4808 97.5048 97.5293 97.5546 97.5803 97.6068 97.6338 97.6613 97.6895 97.7184 97.7477 97.7777 97.8084 97.8396 97.8714 97.9038 97.9368 97.9703 98.0045 98.0393 98.0747 98.1107 98.1474 98.1846 98.2224 98.2608 98.2998 98.3393 98.3795 98.4203 98.4617 98.5037 98.5464 98.5896 98.6334 98.6778 98.7228 98.7683 98.8145 98.8614 98.9087 98.9567 99.0053 99.0546 99.1043 99.1548 99.2057 99.2574 99.3096 99.3624 99.4158 99.4698 99.5243 99.5795 99.6354 99.6917 99.7488 99.8063 99.8645 99.9233 99.9827 100.0000 100.0000 100.0000 100.0000 100.0000 100.0000 100.0000 100.0000 100.0000 100.0000 100.0000 100.0000 100.0000 100.0000 100.0000 100.0000 100.0000 100.0000 100.0000 100.0000
100.0000 100.0000 100.0000 100.0000 100.0000 100.0000 100.0000 100.0000 100.0000 100.0000 100.0000 100.0000 100.0000 100.0000 100.0000 100.0000 100.0000 100.0000 100.0000 100.0000 99.9792 99.9197 99.8610 99.8028 99.7451 99.6882 99.6317 99.5760 99.5208 99.4661 99.4121 99.3588 99.3059 99.2537 99.2022 99.1512 99.1008 99.0510 99.0018 98.9531 98.9052 98.8577 98.8110 98.7648 98.7191 98.6741 98.6298 98.5859 98.5427 98.5002 98.4582 98.4167 98.3760 98.3358 98.2961 98.2571 98.2188 98.1809 98.1437 98.1072 98.0712 98.0357 98.0010 97.9668 97.9331 97.9001 97.8678 97.8359 97.8047 97.7742 97.7442 97.7147 97.6860 97.6577 97.6302 97.6031 97.5768 97.5510 97.5258 97.5011 97.4771 97.4537 97.4309 97.4087 97.3872 97.3662 97.3457 97.3260 97.3067 97.2882 97.2702 97.2528 97.2360 97.2198 97.2041 97.1891 97.1748 97.1609 97.1478 97.1351 97.1231 97.1118 97.1009 97.0907 97.0811 97.0721 97.0637 97.0559 97.0487 97.0422 97.0362 97.0307 97.0259 97.0217 97.0182 97.0152 97.0127 97.0109 97.0097 97.0092 97.0092 97.0097 97.0109 97.0127 97.0152 97.0182 97.0217 97.0259 97.0307 97.0362 97.0422 97.0487 97.0559 97.0637 97.0721 97.0811 97.0907 97.1009 97.1118 97.1231 97.1351 97.1478 97.1609 97.1748 97.1891 97.2041 97.2198 97.2360 97.2528 97.2702 97.2882 97.3067 97.3260 97.3457 97.3662 97.3872 97.4087 97.4309 97.4537 97.4771 97.5011 97.5258 97.5510 97.5768 97.6031 97.6302 97.6577 97.6860 97.7147 97.7442 97.7742 97.8047 97.8359 97.8678 97.9001 97.9331 97.9668 98.0010 98.0357 98.0712 98.1072 98.1437 98.1809 98.2188 98.2571 98.2961 98.3358 98.3760 98.4167 98.4582 98.5002 98.5427 98.5859 98.6298 98.6741 98.7191 98.7648 98.8110 98.8577 98.9052 98.9531 99.0018 99.0510 99.1008 99.1512 99.2022 99.2537 99.3059 99.3588 99.4121 99.4661 99.5208 99.5760 99.6317 99.6882 99.7451 99.8028 99.8610 99.9197 99.9792 100.0000 100.0000 100.0000 100.0000 100.0000 100.0000 100.0000 100.0000 100.0000 100.0000 100.0000 100.0000 100.0000 100.0000 100.0000 100.0000 100.0000 100.0000 100.0000 100.0000
100.0000 100.0000 100.0000 100.0000 100.0000 100.0000 100.0000 100.0000 100.0000 100.0000 100.0000 100.0000 100.0000 100.0000 100.0000 100.0000 100.0000 100.0000 100.0000 100.0000 99.9762 99.9167 99.8580 99.7998 99.7421 99.6851 99.6287 99.5730 99.5178 99.4631 99.4091 99.3558 99.3029 99.2507 99.1992 99.1482 99.0978 99.0480 98.9988 98.9501 98.9022 98.8547 98.8080 98.7618 98.7161 98.6711 98.6268 98.5829 98.5397 98.4972 98.4552 98.4137 98.3730 98.3328 98.2931 98.2541 98.2157 98.1779 98.1407 98.1042 98.0682 98.0327 97.9980 97.9638 97.9301 97.8971 97.8648 97.8329 97.8017 97.7712 97.7412 97.7117 97.6830 97.6548 97.6272 97.6001 97.5738 97.5480 97.5228 97.4981 97.4741 97.4507 97.4279 97.4057 97.3842 97.3632 97.3427 97.3230 97.3037 97.2852 97.2672 97.2498 97.2330 97.2168 97.2011 97.1861 97.1718 97.1579 97.1448 97.1321 97.1201 97.1088 97.0979 97.0877 97.0781 97.0691 97.0607 97.0529 97.0457 97.0392 97.0332 97.0277 97.0229 97.0187 97.0152 97.0122 97.0097 97.0079 97.0067 97.0062 97.0062 97.0067 97.0079 97.0097 97.0122 97.0152 97.0187 97.0229 97.0277 97.0332 97.0392 97.0457 97.0529 97.0607 97.0691 97.0781 97.0877 97.0979 97.1088 97.1201 97.1321 97.1448 97.1579 97.1718 97.1861 97.2011 97.2168 97.2330 97.2498 97.2672 97.2852 97.3037 97.3230 97.3427 97.3632 97.3842 97.4057 97.4279 97.4507 97.4741 97.4981 97.5228 97.5480 97.5738 97.6001 97.6272 97.6548 97.6830 97.7117 97.7412 97.7712 97.8017 97.8329 97.8648 97.8971 97.9301 97.9638 97.9980 98.0327 98.0682 98.1042 98.1407 98.1779 98.2157 98.2541 98.2931 98.3328 98.3730 98.4137 98.4552 98.4972 98.5397 98.5829 98.6268 98.6711 98.7161 98.7618 98.8080 98.8547 98.9022 98.9501 98.9988 99.0480 99.0978 99.1482 99.1992 99.2507 99.3029 99.3558 99.4091 99.4631 99.5178 99.5730 99.6287 99.6851 99.7421 99.7998 99.8580 99.9167 99.9762 100.0000 100.0000 100.0000 100.0000 100.0000 100.0000 100.0000 100.0000 100.0000 100.0000 100.0000 100.0000 100.0000 100.0000 100.0000 100.0000 100.0000 100.0000 100.0000 100.0000
100.0000 100.0000 100.0000 100.0000 100.0000 100.0000 100.0000 100.0000 100.0000 100.0000 100.0000 100.0000 100.0000 100.0000 100.0000 100.0000 100.0000 100.0000 100.0000 100.0000 99.9737 99.9143 99.8555 99.7973 99.7398 99.6827 99.6264 99.5705 99.5153 99.4608 99.4068 99.3534 99.3006 99.2484 99.1967 99.1458 99.0953 99.0456 98.9964 98.9477 98.8997 98.8524 98.8055 98.7593 98.7138 98.6688 98.6244 98.5806 98.5374 98.4947 98.4527 98.4113 98.3705 98.3303 98.2908 98.2518 98.2134 98.1756 98.1384 98.1017 98.0657 98.0303 97.9955 97.9613 97.9278 97.8948 97.8624 97.8306 97.7994 97.7687 97.7387 97.7094 97.6805 97.6523 97.6248 97.5978 97.5713 97.5456 97.5203 97.4958 97.4718 97.4484 97.4256 97.4034 97.3817 97.3607 97.3404 97.3205 97.3013 97.2827 97.2648 97.2473 97.2305 97.2143 97.1988 97.1838 97.1693 97.1556 97.1423 97.1298 97.1178 97.1064 97.0956 97.0854 97.0757 97.0667 97.0584 97.0506 97.0434 97.0367 97.0307 97.0254 97.0206 97.0164 97.0127 97.0097 97.0074 97.0055 97.0044 97.0037 97.0037 97.0044 97.0055 97.0074 97.0097 97.0127 97.0164 97.0206 97.0254 97.0307 97.0367 97.0434 97.0506 97.0584 97.0667 97.0757 97.0854 97.0956 97.1064 97.1178 97.1298 97.1423 97.1556 97.1693 97.1838 97.1988 97.2143 97.2305 97.2473 97.2648 97.2827 97.3013 97.3205 97.3404 97.3607 97.3817 97.4034 97.4256 97.4484 97.4718 97.4958 97.5203 97.5456 97.5713 97.5978 97.6248 97.6523 97.6805 97.7094 97.7387 97.7687 97.7994 97.8306 97.8624 97.8948 97.9278 97.9613 97.9955 98.0303 98.0657 98.1017 98.1384 98.1756 98.2134 98.2518 98.2908 98.3303 98.3705 98.4113 98.4527 98.4947 98.5374 98.5806 98.6244 98.6688 98.7138 98.7593 98.8055 98.8524 98.8997 98.9477 98.9964 99.0456 99.0953 99.1458 99.1967 99.2484 99.3006 99.3534 99.4068 99.4608 99.5153 99.5705 99.6264 99.6827 99.7398 99.7973 99.8555 99.9143 99.9737 100.0000 100.0000 100.0000 100.0000 100.0000 100.0000 100.0000 100.0000 100.0000 100.0000 100.0000 100.0000 100.0000 100.0000 100.0000 100.0000 100.0000 100.0000 100.0000 100.0000
100.0000 100.0000 100.0000 100.0000 100.0000 100.0000 100.0000 100.0000 100.0000 100.0000 100.0000 100.0000 100.0000 100.0000 100.0000 100.0000 100.0000 100.0000 100.0000 100.0000 99.9720 99.9125 99.8538 99.7956 99.7379 99.6809 99.6245 99.5687 99.5135 99.4590 99.4049 99.3516 99.2987 99.2465 99.1950 99.1440 99.0935 99.0438 98.9946 98.9459 98.8979 98.8505 98.8037 98.7575 98.7120 98.6669 98.6226 98.5787 98.5356 98.4929 98.4510 98.4095 98.3688 98.3286 98.2889 98.2499 98.2116 98.1737 98.1365 98.1000 98.0640 98.0285 97.9938 97.9596 97.9260 97.8929 97.8606 97.8287 97.7976 97.7669 97.7369 97.7075 97.6787 97.6505 97.6230 97.5960 97.5696 97.5438 97.5186 97.4939 97.4699 97.4466 97.4237 97.4016 97.3799 97.3589 97.3385 97.3187 97.2995 97.2810 97.2630 97.2455 97.2288 97.2125 97.1970 97.1820 97.1676 97.1538 97.1406 97.1279 97.1159 97.1046 97.0938 97.0836 97.0739 97.0649 97.0566 97.0487 97.0416 97.0349 97.0289 97.0236 97.0187 97.0145 97.0109 97.0079 97.0055 97.0037 97.0025 97.0019 97.0019 97.0025 97.0037 97.0055 97.0079 97.0109 97.0145 97.0187 97.0236 97.0289 97.0349 97.0416 97.0487 97.0566 97.0649 97.0739 97.0836 97.0938 97.1046 97.1159 97.1279 97.1406 97.1538 97.1676 97.1820 97.1970 97.2125 97.2288 97.2455 97.2630 97.2810 97.2995 97.3187 97.3385 97.3589 97.3799 97.4016 97.4237 97.4466 97.4699 97.4939 97.5186 97.5438 97.5696 97.5960 97.6230 97.6505 97.6787 97.7075 97.7369 97.7669 97.7976 97.8287 97.8606 97.8929 97.9260 97.9596 97.9938 98.0285 98.0640 98.1000 98.1365 98.1737 98.2116 98.2499 98.2889 98.3286 98.3688 98.4095 98.4510 98.4929 98.5356 98.5787 98.6226 98.6669 98.7120 98.7575 98.8037 98.8505 98.8979 98.9459 98.9946 99.0438 99.0935 99.1440 99.1950 99.2465 99.2987 99.3516 99.4049 99.4590 99.5135 99.5687 99.6245 99.6809 99.7379 99.7956 99.8538 99.9125 99.9720 100.0000 100.0000 100.0000 100.0000 100.0000 100.0000 100.0000 100.0000 100.0000 100.0000 100.0000 100.0000 100.0000 100.0000 100.0000 100.0000 100.0000 100.0000 100.0000 100.0000
100.0000 100.0000 100.0000 100.0000 100.0000 100.0000 100.0000 100.0000 100.0000 100.0000 100.0000 100.0000 100.0000 100.0000 100.0000 100.0000 100.0000 100.0000 100.0000 100.0000 99.9707 99.9113 99.8525 99.7943 99.7368 99.6797 99.6234 99.5675 99.5123 99.4578 99.4038 99.3504 99.2976 99.2454 99.1937 99.1428 99.0923 99.0426 98.9934 98.9447 98.8967 98.8494 98.8025 98.7563 98.7108 98.6658 98.6214 98.5776 98.5344 98.4917 98.4497 98.4083 98.3675 98.3273 98.2878 98.2488 98.2104 98.1726 98.1354 98.0987 98.0627 98.0273 97.9925 97.9583 97.9248 97.8918 97.8594 97.8276 97.7964 97.7657 97.7357 97.7064 97.6775 97.6493 97.6218 97.5948 97.5683 97.5426 97.5173 97.4928 97.4688 97.4454 97.4226 97.4004 97.3787 97.3577 97.3374 97.3175 97.2983 97.2798 97.2618 97.2443 97.2275 97.2113 97.1958 97.1808 97.1663 97.1526 97.1393 97.1268 97.1148 97.1034 97.0926 97.0824 97.0727 97.0637 97.0554 97.0476 97.0404 97.0337 97.0277 97.0224 97.0175 97.0134 97.0097 97.0067 97.0044 97.0025 97.0014 97.0007 97.0007 97.0014 97.0025 97.0044 97.0067 97.0097 97.0134 97.0175 97.0224 97.0277 97.0337 97.0404 97.0476 97.0554 97.0637 97.0727 97.0824 97.0926 97.1034 97.1148 97.1268 97.1393 97.1526 97.1663 97.1808 97.1958 97.2113 97.2275 97.2443 97.2618 97.2798 97.2983 97.3175 97.3374 97.3577 97.3787 97.4004 97.4226 97.4454 97.4688 97.4928 97.5173 97.5426 97.5683 97.5948 97.6218 97.6493 97.6775 97.7064 97.7357 97.7657 97.7964 97.8276 97.8594 97.8918 97.9248 97.9583 97.9925 98.0273 98.0627 98.0987 98.1354 98.1726 98.2104 98.2488 98.2878 98.3273 98.3675 98.4083 98.4497 98.4917 98.5344 98.5776 98.6214 98.6658 98.7108 98.7563 98.8025 98.8494 98.8967 98.9447 98.9934 99.0426 99.0923 99.1428 99.1937 99.2454 99.2976 99.3504 99.4038 99.4578 99.5123 99.5675 99.6234 99.6797 99.7368 99.7943 99.8525 99.9113 99.9707 100.0000 100.0000 100.0000 100.0000 100.0000 100.0000 100.0000 100.0000 100.0000 100.0000 100.0000 100.0000 100.0000 100.0000 100.0000 100.0000 100.0000 100.0000 100.0000 100.0000
100.0000 100.0000 100.0000 100.0000 100.0000 100.0000 100.0000 100.0000 100.0000 100.0000 100.0000 100.0000 100.0000 100.0000 100.0000 100.0000 100.0000 100.0000 100.0000 100.0000 99.9702 99.9107 99.8520 99.7938 99.7361 99.6791 99.6227 99.5670 99.5118 99.4571 99.4031 99.3498 99.2969 99.2447 99.1932 99.1422 99.0918 99.0419 98.9928 98.9441 98.8962 98.8487 98.8020 98.7558 98.7101 98.6651 98.6208 98.5769 98.5337 98.4912 98.4492 98.4077 98.3670 98.3268 98.2871 98.2481 98.2097 98.1719 98.1347 98.0982 98.0622 98.0268 97.9920 97.9578 97.9241 97.8911 97.8588 97.8269 97.7957 97.7652 97.7352 97.7057 97.6770 97.6488 97.6212 97.5941 97.5678 97.5419 97.5168 97.4921 97.4681 97.4447 97.4219 97.3997 97.3782 97.3572 97.3367 97.3170 97.2977 97.2792 97.2612 97.2438 97.2270 97.2108 97.1951 97.1801 97.1658 97.1519 97.1388 97.1261 97.1141 97.1028 97.0919 97.0817 97.0721 97.0631 97.0547 97.0469 97.0397 97.0332 97.0272 97.0217 97.0169 97.0127 97.0092 97.0062 97.0037 97.0019 97.0007 97.0002 97.0002 97.0007 97.0019 97.0037 97.0062 97.0092 97.0127 97.0169 97.0217 97.0272 97.0332 97.0397 97.0469 97.0547 97.0631 97.0721 97.0817 97.0919 97.1028 97.1141 97.1261 97.1388 97.1519 97.1658 97.1801 97.1951 97.2108 97.2270 97.2438 97.2612 97.2792 97.2977 97.3170 97.3367 97.3572 97.3782 97.3997 97.4219 97.4447 97.4681 97.4921 97.5168 97.5419 97.5678 97.5941 97.6212 97.6488 97.6770 97.7057 97.7352 97.7652 97.7957 97.8269 97.8588 97.8911 97.9241 97.9578 97.9920 98.0268 98.0622 98.0982 98.1347 98.1719 98.2097 98.2481 98.2871 98.3268 98.3670 98.4077 98.4492 98.4912 98.5337 98.5769 98.6208 98.6651 98.7101 98.7558 98.8020 98.8487 98.8962 98.9441 98.9928 99.0419 99.0918 99.1422 99.1932 99.2447 99.2969 99.3498 99.4031 99.4571 99.5118 99.5670 99.6227 99.6791 99.7361 99.7938 99.8520 99.9107 99.9702 100.0000 100.0000 100.0000 100.0000 100.0000 100.0000 100.0000 100.0000 100.0000 100.0000 100.0000 100.0000 100.0000 100.0000 100.0000 100.0000 100.0000 100.0000 100.0000 100.0000
100.0000 100.0000 100.0000 100.0000 100.0000 100.0000 100.0000 100.0000 100.0000 100.0000 100.0000 100.0000 100.0000 100.0000 100.0000 100.0000 100.0000 100.0000 100.0000 100.0000 99.9702 99.9107 99.8520 99.7938 99.7361 99.6791 99.6227 99.5670 99.5118 99.4571 99.4031 99.3498 99.2969 99.2447 99.1932 99.1422 99.0918 99.0419 98.9928 98.9441 98.8962 98.8487 98.8020 98.7558 98.7101 98.6651 98.6208 98.5769 98.5337 98.4912 98.4492 98.4077 98.3670 98.3268 98.2871 98.2481 98.2097 98.1719 98.1347 98.0982 98.0622 98.0268 97.9920 97.9578 97.9241 97.8911 97.8588 97.8269 97.7957 97.7652 97.7352 97.7057 97.6770 97.6488 97.6212 97.5941 97.5678 97.5419 97.5168 97.4921 97.4681 97.4447 97.4219 97.3997 97.3782 97.3572 97.3367 97.3170 97.2977 97.2792 97.2612 97.2438 97.2270 97.2108 97.1951 97.1801 97.1658 97.1519 97.1388 97.1261 97.1141 97.1028 97.0919 97.0817 97.0721 97.0631 97.0547 97.0469 97.0397 97.0332 97.0272 97.0217 97.0169 97.0127 97.0092 97.0062 97.0037 97.0019 97.0007 97.0002 97.0002 97.0007 97.0019 97.0037 97.0062 97.0092 97.0127 97.0169 97.0217 97.0272 97.0332 97.0397 97.0469 97.0547 97.0631 97.0721 97.0817 97.0919 97.1028 97.1141 97.1261 97.1388 97.1519 97.1658 97.1801 97.1951 97.2108 97.2270 97.2438 97.2612 97.2792 97.2977 97.3170 97.3367 97.3572 97.3782 97.3997 97.4219 97.4447 97.4681 97.4921 97.5168 97.5419 97.5678 97.5941 97.6212 97.6488 97.6770 97.7057 97.7352 97.7652 97.7957 97.8269 97.8588 97.8911 97.9241 97.9578 97.9920 98.0268 98.0622 98.0982 98.1347 98.1719 98.2097 98.2481 98.2871 98.3268 98.3670 98.4077 98.4492 98.4912 98.5337 98.5769 98.6208 98.6651 98.7101 98.7558 98.8020 98.8487 98.8962 98.9441 98.9928 99.0419 99.0918 99.1422 99.1932 99.2447 99.2969 99.3498 99.4031 99.4571 99.5118 99.5670 99.6227 99.6791 99.7361 99.7938 99.8520 99.9107 99.9702 100.0000 100.0000 100.0000 100.0000 100.0000 100.0000 100.0000 100.0000 100.0000 100.0000 100.0000 100.0000 100.0000 100.0000 100.0000 100.0000 100.0000 100.0000 100.0000 100.0000
100.0000 100.0000 100.0000 100.0000 100.0000 100.0000 100.0000 100.0000 100.0000 100.0000 100.0000 100.0000 100.0000 100.0000 100.0000 100.0000 100.0000 100.0000 100.0000 100.0000 99.9707 99.9113 99.8525 99.7943 99.7368 99.6797 99.6234 99.5675 99.5123 99.4578 99.4038 99.3504 99.2976 99.2454 99.1937 99.1428 99.0923 99.0426 98.9934 98.9447 98.8967 98.8494 98.8025 98.7563 98.7108 98.6658 98.6214 98.5776 98.5344 98.4917 98.4497 98.4083 98.3675 98.3273 98.2878 98.2488 98.2104 98.1726 98.1354 98.0987 98.0627 98.0273 97.9925 97.9583 97.9248 97.8918 97.8594 97.8276 97.7964 97.7657 97.7357 97.7064 97.6775 97.6493 97.6218 97.5948 97.5683 97.5426 97.5173 97.4928 97.4688 97.4454 97.4226 97.4004 97.3787 97.3577 97.3374 97.3175 97.2983 97.2798 97.2618 97.2443 97.2275 97.2113 97.1958 97.1808 97.1663 97.1526 97.1393 97.1268 97.1148 97.1034 97.0926 97.0824 97.0727 97.0637 97.0554 97.0476 97.0404 97.0337 97.0277 97.0224 97.0175 97.0134 97.0097 97.0067 97.0044 97.0025 97.0014 97.0007 97.0007 97.0014 97.0025 97.0044 97.0067 97.0097 97.0134 97.0175 97.0224 97.0277 97.0337 97.0404 97.0476 97.0554 97.0637 97.0727 97.0824 97.0926 97.1034 97.1148 97.1268 97.1393 97.1526 97.1663 97.1808 97.1958 97.2113 97.2275 97.2443 97.2618 97.2798 97.2983 97.3175 97.3374 97.3577 97.3787 97.4004 97.4226 97.4454 97.4688 97.4928 97.5173 97.5426 97.5683 97.5948 97.6218 97.6493 97.6775 97.7064 97.7357 97.7657 97.7964 97.8276 97.8594 97.8918 97.9248 97.9583 97.9925 98.0273 98.0627 98.0987 98.1354 98.1726 98.2104 98.2488 98.2878 98.3273 98.3675 98.4083 98.4497 98.4917 98.5344 98.5776 98.6214 98.6658 98.7108 98.7563 98.8025 98.8494 98.8967 98.9447 98.9934 99.0426 99.0923 99.1428 99.1937 99.2454 99.2976 99.3504 99.4038 99.4578 99.5123 99.5675 99.6234 99.6797 99.7368 99.7943 99.8525 99.9113 99.9707 100.0000 100.0000 100.0000 100.0000 100.0000 100.0000 100.0000 100.0000 100.0000 100.0000 100.0000 100.0000 100.0000 100.0000 100.0000 100.0000 100.0000 100.0000 100.0000 100.0000
100.0000 100.0000 100.0000 100.0000 100.0000 100.0000 100.0000 100.0000 100.0000 100.0000 100.0000 100.0000 100.0000 100.0000 100.0000 100.0000 100.0000 100.0000 100.0000 100.0000 99.9720 99.9125 99.8538 99.7956 99.7379 99.6809 99.6245 99.5687 99.5135 99.4590 99.4049 99.3516 99.2987 99.2465 99.1950 99.1440 99.0935 99.0438 98.9946 98.9459 98.8979 98.8505 98.8037 98.7575 98.7120 98.6669 98.6226 98.5787 98.5356 98.4929 98.4510 98.4095 98.3688 98.3286 98.2889 98.2499 98.2116 98.1737 98.1365 98.1000 98.0640 98.0285 97.9938 97.9596 97.9260 97.8929 97.8606 97.8287 97.7976 97.7669 97.7369 97.7075 97.6787 97.6505 97.6230 97.5960 97.5696 97.5438 97.5186 97.4939 97.4699 97.4466 97.4237 97.4016 97.3799 97.3589 97.3385 97.3187 97.2995 97.2810 97.2630 97.2455 97.2288 97.2125 97.1970 97.1820 97.1676 97.1538 97.1406 97.1279 97.1159 97.1046 97.0938 97.0836 97.0739 97.0649 97.0566 97.0487 97.0416 97.0349 97.0289 97.0236 97.0187 97.0145 97.0109 97.0079 97.0055 97.0037 97.0025 97.0019 97.0019 97.0025 97.0037 97.0055 97.0079 97.0109 97.0145 97.0187 97.0236 97.0289 97.0349 97.0416 97.0487 97.0566 97.0649 97.0739 97.0836 97.0938 97.1046 97.1159 97.1279 97.1406 97.1538 97.1676 97.1820 97.1970 97.2125 97.2288 97.2455 97.2630 97.2810 97.2995 97.3187 97.3385 97.3589 97.3799 97.4016 97.4237 97.4466 97.4699 97.4939 97.5186 97.5438 97.5696 97.5960 97.6230 97.6505 97.6787 97.7075 97.7369 97.7669 97.7976 97.8287 97.8606 97.8929 97.9260 97.9596 97.9938 98.0285 98.0640 98.1000 98.1365 98.1737 98.2116 98.2499 98.2889 98.3286 98.3688 98.4095 98.4510 98.4929 98.5356 98.5787 98.6226 98.6669 98.7120 98.7575 98.8037 98.8505 98.8979 98.9459 98.9946 99.0438 99.0935 99.1440 99.1950 99.2465 99.2987 99.3516 99.4049 99.4590 99.5135 99.5687 99.6245 99.6809 99.7379 99.7956 99.8538 99.9125 99.9720 100.0000 100.0000 100.0000 100.0000 100.0000 100.0000 100.0000 100.0000 100.0000 100.0000 100.0000 100.0000 100.0000 100.0000 100.0000 100.0000 100.0000 100.0000 100.0000 100.0000
100.0000 100.0000 100.0000 100.0000 100.0000 100.0000 100.0000 100.0000 100.0000 100.0000 100.0000 100.0000 100.0000 100.0000 100.0000 100.0000 100.0000 100.0000 100.0000 100.0000 99.9737 99.9143 99.8555 99.7973 99.7398 99.6827 99.6264 99.5705 99.5153 99.4608 99.4068 99.3534 99.3006 99.2484 99.1967 99.1458 99.0953 99.0456 98.9964 98.9477 98.8997 98.8524 98.8055 98.7593 98.7138 98.6688 98.6244 98.5806 98.5374 98.4947 98.4527 98.4113 98.3705 98.3303 98.2908 98.2518 98.2134 98.1756 98.1384 98.1017 98.0657 98.0303 97.9955 97.9613 97.9278 97.8948 97.8624 97.8306 97.7994 97.7687 97.7387 97.7094 97.6805 97.6523 97.6248 97.5978 97.5713 97.5456 97.5203 97.4958 97.4718 97.4484 97.4256 97.4034 97.3817 97.3607 97.3404 97.3205 97.3013 97.2827 97.2648 97.2473 97.2305 97.2143 97.1988 97.1838 97.1693 97.1556 97.1423 97.1298 97.1178 97.1064 97.0956 97.0854 97.0757 97.0667 97.0584 97.0506 97.0434 97.0367 97.0307 97.0254 97.0206 97.0164 97.0127 97.0097 97.0074 97.0055 97.0044 97.0037 97.0037 97.0044 97.0055 97.0074 97.0097 97.0127 97.0164 97.0206 97.0254 97.0307 97.0367 97.0434 97.0506 97.0584 97.0667 97.0757 97.0854 97.0956 97.1064 97.1178 97.1298 97.1423 97.1556 97.1693 97.1838 97.1988 97.2143 97.2305 97.2473 97.2648 97.2827 97.3013 97.3205 97.3404 97.3607 97.3817 97.4034 97.4256 97.4484 97.4718 97.4958 97.5203 97.5456 97.5713 97.5978 97.6248 97.6523 97.6805 97.7094 97.7387 97.7687 97.7994 97.8306 97.8624 97.8948 97.9278 97.9613 97.9955 98.0303 98.0657 98.1017 98.1384 98.1756 98.2134 98.2518 98.2908 98.3303 98.3705 98.4113 98.4527 98.4947 98.5374 98.5806 98.6244 98.6688 98.7138 98.7593 98.8055 98.8524 98.8997 98.9477 98.9964 99.0456 99.0953 99.1458 99.1967 99.2484 99.3006 99.3534 99.4068 99.4608 99.5153 99.5705 99.6264 99.6827 99.7398 99.7973 99.8555 99.9143 99.9737 100.0000 100.0000 100.0000 100.0000 100.0000 100.0000 100.0000 100.0000 100.0000 100.0000 100.0000 100.0000 100.0000 100.0000 100.0000 100.0000 100.0000 100.0000 100.0000 100.0000
100.0000 100.0000 100.0000 100.0000 100.0000 100.0000 100.0000 100.0000 100.0000 100.0000 100.0000 100.0000 100.0000 100.0000 100.0000 100.0000 100.0000 100.0000 100.0000 100.0000 99.9762 99.9167 99.8580 99.7998 99.7421 99.6851 99.6287 99.5730 99.5178 99.4631 99.4091 99.3558 99.3029 99.2507 99.1992 99.1482 99.0978 99.0480 98.9988 98.9501 98.9022 98.8547 98.8080 98.7618 98.7161 98.6711 98.6268 98.5829 98.5397 98.4972 98.4552 98.4137 98.3730 98.3328 98.2931 98.2541 98.2157 98.1779 98.1407 98.1042 98.0682 98.0327 97.9980 97.9638 97.9301 97.8971 97.8648 97.8329 97.8017 97.7712 97.7412 97.7117 97.6830 97.6548 97.6272 97.6001 97.5738 97.5480 97.5228 97.4981 97.4741 97.4507 97.4279 97.4057 97.3842 97.3632 97.3427 97.3230 97.3037 97.2852 97.2672 97.2498 97.2330 97.2168 97.2011 97.1861 97.1718 97.1579 97.1448 97.1321 97.1201 97.1088 97.0979 97.0877 97.0781 97.0691 97.0607 97.0529 97.0457 97.0392 97.0332 97.0277 97.0229 97.0187 97.0152 97.0122 97.0097 97.0079 97.0067 97.0062 97.0062 97.0067 97.0079 97.0097 97.0122 97.0152 97.0187 97.0229 97.0277 97.0332 97.0392 97.0457 97.0529 97.0607 97.0691 97.0781 97.0877 97.0979 97.1088 97.1201 97.1321 97.1448 97.1579 97.1718 97.1861 97.2011 97.2168 97.2330 97.2498 97.2672 97.2852 97.3037 97.3230 97.3427 97.3632 97.3842 97.4057 97.4279 97.4507 97.4741 97.4981 97.5228 97.5480 97.5738 97.6001 97.6272 97.6548 97.6830 97.7117 97.7412 97.7712 97.8017 97.8329 97.8648 97.8971 97.9301 97.9638 97.9980 98.0327 98.0682 98.1042 98.1407 98.1779 98.2157 98.2541 98.2931 98.3328 98.3730 98.4137 98.4552 98.4972 98.5397 98.5829 98.6268 98.6711 98.7161 98.7618 98.8080 98.8547 98.9022 98.9501 98.9988 99.0480 99.0978 99.1482 99.1992 99.2507 99.3029 99.3558 99.4091 99.4631 99.5178 99.5730 99.6287 99.6851 99.7421 99.7998 99.8580 99.9167 99.9762 100.0000 100.0000 100.0000 100.0000 100.0000 100.0000 100.0000 100.0000 100.0000 100.0000 100.0000 100.0000 100.0000 100.0000 100.0000 100.0000 100.0000 100.0000 100.0000 100.0000
100.0000 100.0000 100.0000 100.0000 100.0000 100.0000 100.0000 100.0000 100.0000 100.0000 100.0000 100.0000 100.0000 100.0000 100.0000 100.0000 100.0000 100.0000 100.0000 100.0000 99.9792 99.9197 99.8610 99.8028 99.7451 99.6882 99.6317 99.5760 99.5208 99.4661 99.4121 99.3588 99.3059 99.2537 99.2022 99.1512 99.1008 99.0510 99.0018 98.9531 98.9052 98.8577 98.8110 98.7648 98.7191 98.6741 98.6298 98.5859 98.5427 98.5002 98.4582 98.4167 98.3760 98.3358 98.2961 98.2571 98.2188 98.1809 98.1437 98.1072 98.0712 98.0357 98.0010 97.9668 97.9331 97.9001 97.8678 97.8359 97.8047 97.7742 97.7442 97.7147 97.6860 97.6577 97.6302 97.6031 97.5768 97.5510 97.5258 97.5011 97.4771 97.4537 97.4309 97.4087 97.3872 97.3662 97.3457 97.3260 97.3067 97.2882 97.2702 97.2528 97.2360 97.2198 97.2041 97.1891 97.1748 97.1609 97.1478 97.1351 97.1231 97.1118 97.1009 97.0907 97.0811 97.0721 97.0637 97.0559 97.0487 97.0422 97.0362 97.0307 97.0259 97.0217 97.0182 97.0152 97.0127 97.0109 97.0097 97.0092 97.0092 97.0097 97.0109 97.0127 97.0152 97.0182 97.0217 97.0259 97.0307 97.0362 97.0422 97.0487 97.0559 97.0637 97.0721 97.0811 97.0907 97.1009 97.1118 97.1231 97.1351 97.1478 97.1609 97.1748 97.1891 97.2041 97.2198 97.2360 97.2528 97.2702 97.2882 97.3067 97.3260 97.3457 97.3662 97.3872 97.4087 97.4309 97.4537 97.4771 97.5011 97.5258 97.5510 97.5768 97.6031 97.6302 97.6577 97.6860 97.7147 97.7442 97.7742 97.8047 97.8359 97.8678 97.9001 97.9331 97.9668 98.0010 98.0357 98.0712 98.1072 98.1437 98.1809 98.2188 98.2571 98.2961 98.3358 98.3760 98.4167 98.4582 98.5002 98.5427 98.5859 98.6298 98.6741 98.7191 98.7648 98.8110 98.8577 98.9052 98.9531 99.0018 99.0510 99.1008 99.1512 99.2022 99.2537 99.3059 99.3588 99.4121 99.4661 99.5208 99.5760 99.6317 99.6882 99.7451 99.8028 99.8610 99.9197 99.9792 100.0000 100.0000 100.0000 100.0000 100.0000 100.0000 100.0000 100.0000 100.0000 100.0000 100.0000 100.0000 100.0000 100.0000 100.0000 100.0000 100.0000 100.0000 100.0000 100.0000
100.0000 100.0000 100.0000 100.0000 100.0000 100.0000 100.0000 100.0000 100.0000 100.0000 100.0000 100.0000 100.0000 100.0000 100.0000 100.0000 100.0000 100.0000 100.0000 100.0000 99.9827 99.9233 99.8645 99.8063 99.7488 99.6917 99.6354 99.5795 99.5243 99.4698 99.4158 99.3624 99.3096 99.2574 99.2057 99.1548 99.1043 99.0546 99.0053 98.9567 98.9087 98.8614 98.8145 98.7683 98.7228 98.6778 98.6334 98.5896 98.5464 98.5037 98.4617 98.4203 98.3795 98.3393 98.2998 98.2608 98.2224 98.1846 98.1474 98.1107 98.0747 98.0393 98.0045 97.9703 97.9368 97.9038 97.8714 97.8396 97.8084 97.7777 97.7477 97.7184 97.6895 97.6613 97.6338 97.6068 97.5803 97.5546 97.5293 97.5048 97.4808 97.4574 97.4346 97.4124 97.3907 97.3697 97.3494 97.3295 97.3103 97.2917 97.2738 97.2563 97.2395 97.2233 97.2078 97.1928 97.1783 97.1646 97.1513 97.1388 97.1268 97.1154 97.1046 97.0944 97.0847 97.0757 97.0674 97.0596 97.0524 97.0457 97.0397 97.0344 97.0296 97.0254 97.0217 97.0187 97.0164 97.0145 97.0134 97.0127 97.0127 97.0134 97.0145 97.0164 97.0187 97.0217 97.0254 97.0296 97.0344 97.0397 97.0457 97.0524 97.0596 97.0674 97.0757 97.0847 97.0944 97.1046 97.1154 97.1268 97.1388 97.1513 97.1646 97.1783 97.1928 97.2078 97.2233 97.2395 97.2563 97.2738 97.2917 97.3103 97.3295 97.3494 97.3697 97.3907 97.4124 97.4346 97.4574 97.4808 97.5048 97.5293 97.5546 97.5803 97.6068 97.6338 97.6613 97.6895 97.7184 97.7477 97.7777 97.8084 97.8396 97.8714 97.9038 97.9368 97.9703 98.0045 98.0393 98.0747 98.1107 98.1474 98.1846 98.2224 98.2608 98.2998 98.3393 98.3795 98.4203 98.4617 98.5037 98.5464 98.5896 98.6334 98.6778 98.7228 98.7683 98.8145 98.8614 98.9087 98.9567 99.0053 99.0546 99.1043 99.1548 99.2057 99.2574 99.3096 99.3624 99.4158 99.4698 99.5243 99.5795 99.6354 99.6917 99.7488 99.8063 99.8645 99.9233 99.9827 100.0000 100.0000 100.0000 100.0000 100.0000 100.0000 100.0000 100.0000 100.0000 100.0000 100.0000 100.0000 100.0000 100.0000 100.0000 100.0000 100.0000 100.0000 100.0000 100.0000
100.0000 100.0000 100.0000 100.0000 100.0000 100.0000 100.0000 100.0000 100.0000 100.0000 100.0000 100.0000 100.0000 100.0000 100.0000 100.0000 100.0000 100.0000 100.0000 100.0000 99.9870 99.9275 99.8688 99.8106 99.7529 99.6959 99.6395 99.5837 99.5285 99.4740 99.4200 99.3666 99.3137 99.2615 99.2100 99.1590 99.1085 99.0588 99.0096 98.9609 98.9129 98.8655 98.8187 98.7725 98.7270 98.6820 98.6376 98.5938 98.5506 98.5079 98.4660 98.4245 98.3838 98.3435 98.3040 98.2649 98.2266 98.1887 98.1516 98.1149 98.0790 98.0435 98.0088 97.9745 97.9410 97.9079 97.8756 97.8438 97.8126 97.7819 97.7519 97.7225 97.6937 97.6655 97.6380 97.6110 97.5845 97.5588 97.5336 97.5089 97.4849 97.4616 97.4387 97.4166 97.3949 97.3739 97.3535 97.3337 97.3145 97.2960 97.2780 97.2605 97.2438 97.2275 97.2120 97.1970 97.1826 97.1688 97.1556 97.1429 97.1309 97.1196 97.1088 97.0986 97.0889 97.0799 97.0716 97.0637 97.0566 97.0499 97.0439 97.0386 97.0337 97.0296 97.0259 97.0229 97.0206 97.0187 97.0175 97.0169 97.0169 97.0175 97.0187 97.0206 97.0229 97.0259 97.0296 97.0337 97.0386 97.0439 97.0499 97.0566 97.0637 97.0716 97.0799 97.0889 97.0986 97.1088 97.1196 97.1309 97.1429 97.1556 97.1688 97.1826 97.1970 97.2120 97.2275 97.2438 97.2605 97.2780 97.2960 97.3145 97.3337 97.3535 97.3739 97.3949 97.4166 97.4387 97.4616 97.4849 97.5089 97.5336 97.5588 97.5845 97.6110 97.6380 97.6655 97.6937 97.7225 97.7519 97.7819 97.8126 97.8438 97.8756 97.9079 97.9410 97.9745 98.0088 98.0435 98.0790 98.1149 98.1516 98.1887 98.2266 98.2649 98.3040 98.3435 98.3838 98.4245 98.4660 98.5079 98.5506 98.5938 98.6376 98.6820 98.7270 98.7725 98.8187 98.8655 98.9129 98.9609 99.0096 99.0588 99.1085 99.1590 99.2100 99.2615 99.3137 99.3666 99.4200 99.4740 99.5285 99.5837 99.6395 99.6959 99.7529 99.8106 99.8688 99.9275 99.9870 100.0000 100.0000 100.0000 100.0000 100.0000 100.0000 100.0000 100.0000 100.0000 100.0000 100.0000 100.0000 100.0000 100.0000 100.0000 100.0000 100.0000 100.0000 100.0000 100.0000
100.0000 100.0000 100.0000 100.0000 100.0000 100.0000 100.0000 100.0000 100.0000 100.0000 100.0000 100.0000 100.0000 100.0000 100.0000 100.0000 100.0000 100.0000 100.0000 100.0000 99.9917 99.9323 99.8735 99.8153 99.7578 99.7007 99.6444 99.5885 99.5333 99.4788 99.4248 99.3714 99.3186 99.2664 99.2147 99.1637 99.1133 99.0636 99.0143 98.9657 98.9177 98.8704 98.8235 98.7773 98.7318 98.6868 98.6423 98.5986 98.5554 98.5127 98.4707 98.4293 98.3885 98.3483 98.3088 98.2698 98.2314 98.1936 98.1564 98.1197 98.0837 98.0483 98.0135 97.9793 97.9458 97.9128 97.8803 97.8486 97.8174 97.7867 97.7567 97.7274 97.6985 97.6703 97.6428 97.6158 97.5893 97.5636 97.5383 97.5138 97.4898 97.4664 97.4436 97.4214 97.3997 97.3787 97.3584 97.3385 97.3194 97.3007 97.2827 97.2653 97.2485 97.2323 97.2168 97.2018 97.1873 97.1736 97.1603 97.1478 97.1358 97.1244 97.1136 97.1034 97.0938 97.0847 97.0764 97.0686 97.0614 97.0547 97.0487 97.0434 97.0386 97.0344 97.0307 97.0277 97.0254 97.0236 97.0224 97.0217 97.0217 97.0224 97.0236 97.0254 97.0277 97.0307 97.0344 97.0386 97.0434 97.0487 97.0547 97.0614 97.0686 97.0764 97.0847 97.0938 97.1034 97.1136 97.1244 97.1358 97.1478 97.1603 97.1736 97.1873 97.2018 97.2168 97.2323 97.2485 97.2653 97.2827 97.3007 97.3194 97.3385 97.3584 97.3787 97.3997 97.4214 97.4436 97.4664 97.4898 97.5138 97.5383 97.5636 97.5893 97.6158 97.6428 97.6703 97.6985 97.7274 97.7567 97.7867 97.8174 97.8486 97.8803 97.9128 97.9458 97.9793 98.0135 98.0483 98.0837 98.1197 98.1564 98.1936 98.2314 98.2698 98.3088 98.3483 98.3885 98.4293 98.4707 98.5127 98.5554 98.5986 98.6423 98.6868 98.7318 98.7773 98.8235 98.8704 98.9177 98.9657 99.0143 99.0636 99.1133 99.1637 99.2147 99.2664 99.3186 99.3714 99.4248 99.4788 99.5333 99.5885 99.6444 99.7007 99.7578 99.8153 99.8735 99.9323 99.9917 100.0000 100.0000 100.0000 100.0000 100.0000 100.0000 100.0000 100.0000 100.0000 100.0000 100.0000 100.0000 100.0000 100.0000 100.0000 100.0000 100.0000 100.0000 100.0000 100.0000
100.0000 100.0000 100.0000 100.0000 100.0000 100.0000 100.0000 100.0000 100.0000 100.0000 100.0000 100.0000 100.0000 100.0000 100.0000 100.0000 100.0000 100.0000 100.0000 100.0000 99.9972 99.9377 99.8790 99.8208 99.7631 99.7061 99.6497 99.5940 99.5387 99.4841 99.4301 99.3768 99.3239 99.2717 99.2202 99.1692 99.1188 99.0690 99.0198 98.9711 98.9232 98.8757 98.8290 98.7827 98.7371 98.6921 98.6478 98.6039 98.5607 98.5182 98.4762 98.4347 98.3940 98.3538 98.3141 98.2751 98.2368 98.1989 98.1617 98.1252 98.0892 98.0537 98.0190 97.9848 97.9511 97.9181 97.8858 97.8539 97.8227 97.7922 97.7622 97.7327 97.7040 97.6757 97.6482 97.6212 97.5948 97.5690 97.5438 97.5191 97.4951 97.4718 97.4489 97.4267 97.4052 97.3842 97.3637 97.3440 97.3247 97.3062 97.2882 97.2708 97.2540 97.2378 97.2221 97.2071 97.1928 97.1790 97.1658 97.1531 97.1411 97.1298 97.1189 97.1088 97.0991 97.0901 97.0817 97.0739 97.0667 97.0601 97.0542 97.0487 97.0439 97.0397 97.0362 97.0332 97.0307 97.0289 97.0277 97.0272 97.0272 97.0277 97.0289 97.0307 97.0332 97.0362 97.0397 97.0439 97.0487 97.0542 97.0601 97.0667 97.0739 97.0817 97.0901 97.0991 97.1088 97.1189 97.1298 97.1411 97.1531 97.1658 97.1790 97.1928 97.2071 97.2221 97.2378 97.2540 97.2708 97.2882 97.3062 97.3247 97.3440 97.3637 97.3842 97.4052 97.4267 97.4489 97.4718 97.4951 97.5191 97.5438 97.5690 97.5948 97.6212 97.6482 97.6757 97.7040 97.7327 97.7622 97.7922 97.8227 97.8539 97.8858 97.9181 97.9511 97.9848 98.0190 98.0537 98.0892 98.1252 98.1617 98.1989 98.2368 98.2751 98.3141 98.3538 98.3940 98.4347 98.4762 98.5182 98.5607 98.6039 98.6478 98.6921 98.7371 98.7827 98.8290 98.8757 98.9232 98.9711 99.0198 99.0690 99.1188 99.1692 99.2202 99.2717 99.3239 99.3768 99.4301 99.4841 99.5387 99.5940 99.6497 99.7061 99.7631 99.8208 99.8790 99.9377 99.9972 100.0000 100.0000 100.0000 100.0000 100.0000 100.0000 100.0000 100.0000 100.0000 100.0000 100.0000 100.0000 100.0000 100.0000 100.0000 100.0000 100.0000 100.0000 100.0000 100.0000
100.0000 100.0000 100.0000 100.0000 100.0000 100.0000 100.0000 100.0000 100.0000 100.0000 100.0000 100.0000 100.0000 100.0000 100.0000 100.0000 100.0000 100.0000 100.0000 100.0000 100.0000 99.9437 99.8850 99.8268 99.7691 99.7121 99.6557 99.6000 99.5447 99.4901 99.4361 99.3828 99.3299 99.2777 99.2262 99.1752 99.1248 99.0750 99.0258 98.9771 98.9291 98.8817 98.8350 98.7887 98.7431 98.6981 98.6538 98.6099 98.5667 98.5242 98.4822 98.4407 98.4000 98.3598 98.3201 98.2811 98.2428 98.2049 98.1677 98.1312 98.0952 98.0597 98.0250 97.9908 97.9571 97.9241 97.8918 97.8599 97.8287 97.7982 97.7682 97.7387 97.7100 97.6817 97.6542 97.6272 97.6008 97.5750 97.5498 97.5251 97.5011 97.4778 97.4549 97.4327 97.4112 97.3902 97.3697 97.3500 97.3307 97.3122 97.2942 97.2768 97.2600 97.2438 97.2281 97.2131 97.1988 97.1850 97.1718 97.1591 97.1471 97.1358 97.1249 97.1148 97.1051 97.0961 97.0877 97.0799 97.0727 97.0661 97.0601 97.0547 97.0499 97.0457 97.0422 97.0392 97.0367 97.0349 97.0337 97.0332 97.0332 97.0337 97.0349 97.0367 97.0392 97.0422 97.0457 97.0499 97.0547 97.0601 97.0661 97.0727 97.0799 97.0877 97.0961 97.1051 97.1148 97.1249 97.1358 97.1471 97.1591 97.1718 97.1850 97.1988 97.2131 97.2281 97.2438 97.2600 97.2768 97.2942 97.3122 97.3307 97.3500 97.3697 97.3902 97.4112 97.4327 97.4549 97.4778 97.5011 97.5251 97.5498 97.5750 97.6008 97.6272 97.6542 97.6817 97.7100 97.7387 97.7682 97.7982 97.8287 97.8599 97.8918 97.9241 97.9571 97.9908 98.0250 98.0597 98.0952 98.1312 98.1677 98.2049 98.2428 98.2811 98.3201 98.3598 98.4000 98.4407 98.4822 98.5242 98.5667 98.6099 98.6538 98.6981 98.7431 98.7887 98.8350 98.8817 98.9291 98.9771 99.0258 99.0750 99.1248 99.1752 99.2262 99.2777 99.3299 99.3828 99.4361 99.4901 99.5447 99.6000 99.6557 99.7121 99.7691 99.8268 99.8850 99.9437 100.0000 100.0000 100.0000 100.0000 100.0000 100.0000 100.0000 100.0000 100.0000 100.0000 100.0000 100.0000 100.0000 100.0000 100.0000 100.0000 100.0000 100.0000 100.0000 100.0000 100.0000
100.0000 100.0000 100.0000 100.0000 100.0000 100.0000 100.0000 100.0000 100.0000 100.0000 100.0000 100.0000 100.0000 100.0000 100.0000 100.0000 100.0000 100.0000 100.0000 100.0000 100.0000 99.9504 99.8915 99.8333 99.7758 99.7188 99.6624 99.6065 99.5513 99.4968 99.4428 99.3893 99.3366 99.2844 99.2327 99.1817 99.1313 99.0815 99.0323 98.9838 98.9357 98.8884 98.8415 98.7953 98.7498 98.7048 98.6603 98.6166 98.5734 98.5307 98.4887 98.4474 98.4065 98.3663 98.3268 98.2878 98.2494 98.2116 98.1744 98.1377 98.1017 98.0663 98.0315 97.9973 97.9638 97.9308 97.8983 97.8666 97.8354 97.8047 97.7747 97.7454 97.7165 97.6883 97.6607 97.6338 97.6073 97.5815 97.5563 97.5318 97.5078 97.4844 97.4616 97.4394 97.4177 97.3967 97.3764 97.3565 97.3374 97.3187 97.3007 97.2833 97.2665 97.2503 97.2348 97.2198 97.2053 97.1916 97.1783 97.1658 97.1538 97.1423 97.1316 97.1214 97.1118 97.1028 97.0944 97.0866 97.0794 97.0727 97.0667 97.0614 97.0566 97.0524 97.0487 97.0457 97.0434 97.0416 97.0404 97.0397 97.0397 97.0404 97.0416 97.0434 97.0457 97.0487 97.0524 97.0566 97.0614 97.0667 97.0727 97.0794 97.0866 97.0944 97.1028 97.1118 97.1214 97.1316 97.1423 97.1538 97.1658 97.1783 97.1916 97.2053 97.2198 97.2348 97.2503 97.2665 97.2833 97.3007 97.3187 97.3374 97.3565 97.3764 97.3967 97.4177 97.4394 97.4616 97.4844 97.5078 97.5318 97.5563 97.5815 97.6073 97.6338 97.6607 97.6883 97.7165 97.7454 97.7747 97.8047 97.8354 97.8666 97.8983 97.9308 97.9638 97.9973 98.0315 98.0663 98.1017 98.1377 98.1744 98.2116 98.2494 98.2878 98.3268 98.3663 98.4065 98.4474 98.4887 98.5307 98.5734 98.6166 98.6603 98.7048 98.7498 98.7953 98.8415 98.8884 98.9357 98.9838 99.0323 99.0815 99.1313 99.1817 99.2327 99.2844 99.3366 99.3893 99.4428 99.4968 99.5513 99.6065 99.6624 99.7188 99.7758 99.8333 99.8915 99.9504 100.0000 100.0000 100.0000 100.0000 100.0000 100.0000 100.0000 100.0000 100.0000 100.0000 100.0000 100.0000 100.0000 100.0000 100.0000 100.0000 100.0000 100.0000 100.0000 100.0000 100.0000
100.0000 100.0000 100.0000 100.0000 100.0000 100.0000 100.0000 100.0000 100.0000 100.0000 100.0000 100.0000 100.0000 100.0000 100.0000 100.0000 100.0000 100.0000 100.0000 100.0000 100.0000 99.9575 99.8988 99.8405 99.7829 99.7259 99.6696 99.6137 99.5585 99.5040 99.4500 99.3966 99.3438 99.2916 99.2399 99.1890 99.1385 99.0888 99.0396 98.9909 98.9429 98.8956 98.8487 98.8025 98.7570 98.7120 98.6676 98.6238 98.5806 98.5379 98.4959 98.4545 98.4137 98.3735 98.3340 98.2950 98.2566 98.2188 98.1816 98.1449 98.1089 98.0735 98.0387 98.0045 97.9710 97.9380 97.9056 97.8738 97.8426 97.8119 97.7819 97.7525 97.7237 97.6955 97.6680 97.6410 97.6145 97.5888 97.5636 97.5389 97.5149 97.4916 97.4688 97.4466 97.4249 97.4039 97.3835 97.3637 97.3445 97.3260 97.3080 97.2905 97.2738 97.2575 97.2420 97.2270 97.2125 97.1988 97.1856 97.1730 97.1609 97.1496 97.1388 97.1286 97.1189 97.1099 97.1016 97.0938 97.0866 97.0799 97.0739 97.0686 97.0637 97.0596 97.0559 97.0529 97.0506 97.0487 97.0476 97.0469 97.0469 97.0476 97.0487 97.0506 97.0529 97.0559 97.0596 97.0637 97.0686 97.0739 97.0799 97.0866 97.0938 97.1016 97.1099 97.1189 97.1286 97.1388 97.1496 97.1609 97.1730 97.1856 97.1988 97.2125 97.2270 97.2420 97.2575 97.2738 97.2905 97.3080 97.3260 97.3445 97.3637 97.3835 97.4039 97.4249 97.4466 97.4688 97.4916 97.5149 97.5389 97.5636 97.5888 97.6145 97.6410 97.6680 97.6955 97.7237 97.7525 97.7819 97.8119 97.8426 97.8738 97.9056 97.9380 97.9710 98.0045 98.0387 98.0735 98.1089 98.1449 98.1816 98.2188 98.2566 98.2950 98.3340 98.3735 98.4137 98.4545 98.4959 98.5379 98.5806 98.6238 98.6676 98.7120 98.7570 98.8025 98.8487 98.8956 98.9429 98.9909 99.0396 99.0888 99.1385 99.1890 99.2399 99.2916 99.3438 99.3966 99.4500 99.5040 99.5585 99.6137 99.6696 99.7259 99.7829 99.8405 99.8988 99.9575 100.0000 100.0000 100.0000 100.0000 100.0000 100.0000 100.0000 100.0000 100.0000 100.0000 100.0000 100.0000 100.0000 100.0000 100.0000 100.0000 100.0000 100.0000 100.0000 100.0000 100.0000
100.0000 100.0000 100.0000 100.0000 100.0000 100.0000 100.0000 100.0000 100.0000 100.0000 100.0000 100.0000 100.0000 100.0000 100.0000 100.0000 100.0000 100.0000 100.0000 100.0000 100.0000 99.9654 99.9065 99.8483 99.7908 99.7338 99.6774 99.6215 99.5663 99.5118 99.4578 99.4043 99.3516 99.2994 99.2477 99.1967 99.1463 99.0965 99.0473 98.9988 98.9507 98.9034 98.8565 98.8103 98.7648 98.7198 98.6753 98.6316 98.5884 98.5457 98.5037 98.4624 98.4215 98.3813 98.3418 98.3028 98.2643 98.2266 98.1894 98.1527 98.1167 98.0814 98.0465 98.0123 97.9788 97.9458 97.9133 97.8816 97.8504 97.8197 97.7897 97.7604 97.7315 97.7034 97.6757 97.6488 97.6223 97.5965 97.5713 97.5468 97.5228 97.4994 97.4766 97.4544 97.4327 97.4117 97.3914 97.3715 97.3524 97.3337 97.3157 97.2983 97.2815 97.2653 97.2498 97.2348 97.2203 97.2065 97.1933 97.1808 97.1688 97.1573 97.1466 97.1363 97.1268 97.1178 97.1094 97.1016 97.0944 97.0877 97.0817 97.0764 97.0716 97.0674 97.0637 97.0607 97.0584 97.0566 97.0554 97.0547 97.0547 97.0554 97.0566 97.0584 97.0607 97.0637 97.0674 97.0716 97.0764 97.0817 97.0877 97.0944 97.1016 97.1094 97.1178 97.1268 97.1363 97.1466 97.1573 97.1688 97.1808 97.1933 97.2065 97.2203 97.2348 97.2498 97.2653 97.2815 97.2983 97.3157 97.3337 97.3524 97.3715 97.3914 97.4117 97.4327 97.4544 97.4766 97.4994 97.5228 97.5468 97.5713 97.5965 97.6223 97.6488 97.6757 97.7034 97.7315 97.7604 97.7897 97.8197 97.8504 97.8816 97.9133 97.9458 97.9788 98.0123 98.0465 98.0814 98.1167 98.1527 98.1894 98.2266 98.2643 98.3028 98.3418 98.3813 98.4215 98.4624 98.5037 98.5457 98.5884 98.6316 98.6753 98.7198 98.7648 98.8103 98.8565 98.9034 98.9507 98.9988 99.0473 99.0965 99.1463 99.1967 99.2477 99.2994 99.3516 99.4043 99.4578 99.5118 99.5663 99.6215 99.6774 99.7338 99.7908 99.8483 99.9065 99.9654 100.0000 100.0000 100.0000 100.0000 100.0000 100.0000 100.0000 100.0000 100.0000 100.0000 100.0000 100.0000 100.0000 100.0000 100.0000 100.0000 100.0000 100.0000 100.0000 100.0000 100.0000
100.0000 100.0000 100.0000 100.0000 100.0000 100.0000 100.0000 100.0000 100.0000 100.0000 100.0000 100.0000 100.0000 100.0000 100.0000 100.0000 100.0000 100.0000 100.0000 100.0000 100.0000 99.9737 99.9150 99.8568 99.7991 99.7421 99.6857 99.6299 99.5747 99.5202 99.4661 99.4128 99.3599 99.3077 99.2562 99.2052 99.1548 99.1050 99.0558 99.0071 98.9591 98.9117 98.8649 98.8187 98.7732 98.7281 98.6838 98.6399 98.5968 98.5541 98.5122 98.4707 98.4300 98.3898 98.3501 98.3111 98.2728 98.2349 98.1977 98.1612 98.1252 98.0897 98.0550 98.0208 97.9871 97.9541 97.9218 97.8899 97.8588 97.8281 97.7982 97.7687 97.7399 97.7117 97.6842 97.6572 97.6308 97.6050 97.5798 97.5551 97.5311 97.5078 97.4849 97.4627 97.4411 97.4202 97.3997 97.3799 97.3607 97.3422 97.3242 97.3067 97.2900 97.2738 97.2582 97.2431 97.2288 97.2150 97.2018 97.1891 97.1771 97.1658 97.1549 97.1448 97.1351 97.1261 97.1178 97.1099 97.1028 97.0961 97.0901 97.0847 97.0799 97.0757 97.0721 97.0691 97.0667 97.0649 97.0637 97.0631 97.0631 97.0637 97.0649 97.0667 97.0691 97.0721 97.0757 97.0799 97.0847 97.0901 97.0961 97.1028 97.1099 97.1178 97.1261 97.1351 97.1448 97.1549 97.1658 97.1771 97.1891 97.2018 97.2150 97.2288 97.2431 97.2582 97.2738 97.2900 97.3067 97.3242 97.3422 97.3607 97.3799 97.3997 97.4202 97.4411 97.4627 97.4849 97.5078 97.5311 97.5551 97.5798 97.6050 97.6308 97.6572 97.6842 97.7117 97.7399 97.7687 97.7982 97.8281 97.8588 97.8899 97.9218 97.9541 97.9871 98.0208 98.0550 98.0897 98.1252 98.1612 98.1977 98.2349 98.2728 98.3111 98.3501 98.3898 98.4300 98.4707 98.5122 98.5541 98.5968 98.6399 98.6838 98.7281 98.7732 98.8187 98.8649 98.9117 98.9591 99.0071 99.0558 99.1050 99.1548 99.2052 99.2562 99.3077 99.3599 99.4128 99.4661 99.5202 99.5747 99.6299 99.6857 99.7421 99.7991 99.8568 99.9150 99.9737 100.0000 100.0000 100.0000 100.0000 100.0000 100.0000 100.0000 100.0000 100.0000 100.0000 100.0000 100.0000 100.0000 100.0000 100.0000 100.0000 100.0000 100.0000 100.0000 100.0000 100.0000
100.0000 100.0000 100.0000 100.0000 100.0000 100.0000 100.0000 100.0000 100.0000 100.0000 100.0000 100.0000 100.0000 100.0000 100.0000 100.0000 100.0000 100.0000 100.0000 100.0000 100.0000 99.9827 99.9240 99.8658 99.8081 99.7511 99.6947 99.6389 99.5837 99.5292 99.4751 99.4218 99.3689 99.3167 99.2652 99.2142 99.1637 99.1140 99.0648 99.0161 98.9681 98.9207 98.8739 98.8277 98.7822 98.7371 98.6928 98.6489 98.6058 98.5631 98.5212 98.4797 98.4390 98.3988 98.3591 98.3201 98.2818 98.2439 98.2067 98.1702 98.1342 98.0987 98.0640 98.0298 97.9962 97.9631 97.9308 97.8989 97.8678 97.8371 97.8072 97.7777 97.7489 97.7207 97.6932 97.6662 97.6398 97.6140 97.5888 97.5641 97.5401 97.5168 97.4939 97.4718 97.4501 97.4292 97.4087 97.3889 97.3697 97.3512 97.3332 97.3157 97.2990 97.2827 97.2672 97.2522 97.2378 97.2240 97.2108 97.1981 97.1861 97.1748 97.1639 97.1538 97.1441 97.1351 97.1268 97.1189 97.1118 97.1051 97.0991 97.0938 97.0889 97.0847 97.0811 97.0781 97.0757 97.0739 97.0727 97.0721 97.0721 97.0727 97.0739 97.0757 97.0781 97.0811 97.0847 97.0889 97.0938 97.0991 97.1051 97.1118 97.1189 97.1268 97.1351 97.1441 97.1538 97.1639 97.1748 97.1861 97.1981 97.2108 97.2240 97.2378 97.2522 97.2672 97.2827 97.2990 97.3157 97.3332 97.3512 97.3697 97.3889 97.4087 97.4292 97.4501 97.4718 97.4939 97.5168 97.5401 97.5641 97.5888 97.6140 97.6398 97.6662 97.6932 97.7207 97.7489 97.7777 97.8072 97.8371 97.8678 97.8989 97.9308 97.9631 97.9962 98.0298 98.0640 98.0987 98.1342 98.1702 98.2067 98.2439 98.2818 98.3201 98.3591 98.3988 98.4390 98.4797 98.5212 98.5631 98.6058 98.6489 98.6928 98.7371 98.7822 98.8277 98.8739 98.9207 98.9681 99.0161 99.0648 99.1140 99.1637 99.2142 99.2652 99.3167 99.3689 99.4218 99.4751 99.5292 99.5837 99.6389 99.6947 99.7511 99.8081 99.8658 99.9240 99.9827 100.0000 100.0000 100.0000 100.0000 100.0000 100.0000 100.0000 100.0000 100.0000 100.0000 100.0000 100.0000 100.0000 100.0000 100.0000 100.0000 100.0000 100.0000 100.0000 100.0000 100.0000
100.0000 100.0000 100.0000 100.0000 100.0000 100.0000 100.0000 100.0000 100.0000 100.0000 100.0000 100.0000 100.0000 100.0000 100.0000 100.0000 100.0000 100.0000 100.0000 100.0000 100.0000 99.9924 99.9335 99.8753 99.8178 99.7608 99.7044 99.6486 99.5934 99.5387 99.4848 99.4313 99.3786 99.3264 99.2747 99.2237 99.1733 99.1235 99.0743 99.0258 98.9778 98.9304 98.8835 98.8374 98.7917 98.7468 98.7023 98.6586 98.6154 98.5727 98.5307 98.4894 98.4485 98.4083 98.3688 98.3298 98.2913 98.2536 98.2164 98.1797 98.1437 98.1084 98.0735 98.0393 98.0058 97.9728 97.9403 97.9086 97.8774 97.8468 97.8167 97.7874 97.7585 97.7304 97.7027 97.6757 97.6493 97.6235 97.5983 97.5738 97.5498 97.5263 97.5036 97.4814 97.4597 97.4387 97.4184 97.3986 97.3794 97.3607 97.3427 97.3254 97.3085 97.2923 97.2768 97.2618 97.2473 97.2335 97.2203 97.2078 97.1958 97.1843 97.1736 97.1633 97.1538 97.1448 97.1363 97.1286 97.1214 97.1148 97.1088 97.1034 97.0986 97.0944 97.0907 97.0877 97.0854 97.0836 97.0824 97.0817 97.0817 97.0824 97.0836 97.0854 97.0877 97.0907 97.0944 97.0986 97.1034 97.1088 97.1148 97.1214 97.1286 97.1363 97.1448 97.1538 97.1633 97.1736 97.1843 97.1958 97.2078 97.2203 97.2335 97.2473 97.2618 97.2768 97.2923 97.3085 97.3254 97.3427 97.3607 97.3794 97.3986 97.4184 97.4387 97.4597 97.4814 97.5036 97.5263 97.5498 97.5738 97.5983 97.6235 97.6493 97.6757 97.7027 97.7304 97.7585 97.7874 97.8167 97.8468 97.8774 97.9086 97.9403 97.9728 98.0058 98.0393 98.0735 98.1084 98.1437 98.1797 98.2164 98.2536 98.2913 98.3298 98.3688 98.4083 98.4485 98.4894 98.5307 98.5727 98.6154 98.6586 98.7023 98.7468 98.7917 98.8374 98.8835 98.9304 98.9778 99.0258 99.0743 99.1235 99.1733 99.2237 99.2747 99.3264 99.3786 99.4313 99.4848 99.5387 99.5934 99.6486 99.7044 99.7608 99.8178 99.8753 99.9335 99.9924 100.0000 100.0000 100.0000 100.0000 100.0000 100.0000 100.0000 100.0000 100.0000 100.0000 100.0000 100.0000 100.0000 100.0000 100.0000 100.0000 100.0000 100.0000 100.0000 100.0000 100.0000
100.0000 100.0000 100.0000 100.0000 100.0000 100.0000 100.0000 100.0000 100.0000 100.0000 100.0000 100.0000 100.0000 100.0000 100.0000 100.0000 100.0000 100.0000 100.0000 100.0000 100.0000 100.0000 99.9437 99.8855 99.8280 99.7709 99.7146 99.6587 99.6035 99.5490 99.4950 99.4416 99.3888 99.3366 99.2849 99.2339 99.1835 99.1338 99.0846 99.0359 98.9879 98.9406 98.8937 98.8475 98.8020 98.7570 98.7125 98.6688 98.6256 98.5829 98.5409 98.4995 98.4587 98.4185 98.3790 98.3400 98.3016 98.2638 98.2266 98.1899 98.1539 98.1185 98.0837 98.0495 98.0160 97.9830 97.9506 97.9188 97.8876 97.8569 97.8269 97.7976 97.7687 97.7405 97.7130 97.6860 97.6595 97.6338 97.6085 97.5840 97.5600 97.5366 97.5138 97.4916 97.4699 97.4489 97.4286 97.4087 97.3895 97.3709 97.3530 97.3355 97.3187 97.3025 97.2870 97.2720 97.2575 97.2438 97.2305 97.2180 97.2060 97.1946 97.1838 97.1736 97.1639 97.1549 97.1466 97.1388 97.1316 97.1249 97.1189 97.1136 97.1088 97.1046 97.1009 97.0979 97.0956 97.0938 97.0926 97.0919 97.0919 97.0926 97.0938 97.0956 97.0979 97.1009 97.1046 97.1088 97.1136 97.1189 97.1249 97.1316 97.1388 97.1466 97.1549 97.1639 97.1736 97.1838 97.1946 97.2060 97.2180 97.2305 97.2438 97.2575 97.2720 97.2870 97.3025 97.3187 97.3355 97.3530 97.3709 97.3895 97.4087 97.4286 97.4489 97.4699 97.4916 97.5138 97.5366 97.5600 97.5840 97.6085 97.6338 97.6595 97.6860 97.7130 97.7405 97.7687 97.7976 97.8269 97.8569 97.8876 97.9188 97.9506 97.9830 98.0160 98.0495 98.0837 98.1185 98.1539 98.1899 98.2266 98.2638 98.3016 98.3400 98.3790 98.4185 98.4587 98.4995 98.5409 98.5829 98.6256 98.6688 98.7125 98.7570 98.8020 98.8475 98.8937 98.9406 98.9879 99.0359 99.0846 99.1338 99.1835 99.2339 99.2849 99.3366 99.3888 99.4416 99.4950 99.5490 99.6035 99.6587 99.7146 99.7709 99.8280 99.8855 99.9437 100.0000 100.0000 100.0000 100.0000 100.0000 100.0000 100.0000 100.0000 100.0000 100.0000 100.0000 100.0000 100.0000 100.0000 100.0000 100.0000 100.0000 100.0000 100.0000 100.0000 100.0000 100.0000
100.0000 100.0000 100.0000 100.0000 100.0000 100.0000 100.0000 100.0000 100.0000 100.0000 100.0000 100.0000 100.0000 100.0000 100.0000 100.0000 100.0000 100.0000 100.0000 100.0000 100.0000 100.0000 99.9545 99.8963 99.8388 99.7818 99.7254 99.6696 99.6144 99.5597 99.5058 99.4523 99.3996 99.3474 99.2957 99.2447 99.1944 99.1445 99.0953 99.0468 98.9988 98.9514 98.9046 98.8584 98.8127 98.7678 98.7233 98.6796 98.6363 98.5938 98.5517 98.5104 98.4695 98.4293 98.3898 98.3508 98.3123 98.2746 98.2374 98.2007 98.1647 98.1294 98.0945 98.0603 98.0268 97.9938 97.9613 97.9296 97.8983 97.8678 97.8377 97.8084 97.7796 97.7514 97.7237 97.6967 97.6703 97.6445 97.6193 97.5948 97.5708 97.5473 97.5246 97.5024 97.4808 97.4597 97.4394 97.4196 97.4004 97.3817 97.3637 97.3464 97.3295 97.3133 97.2977 97.2827 97.2683 97.2545 97.2413 97.2288 97.2168 97.2053 97.1946 97.1843 97.1748 97.1658 97.1573 97.1496 97.1423 97.1358 97.1298 97.1244 97.1196 97.1154 97.1118 97.1088 97.1064 97.1046 97.1034 97.1028 97.1028 97.1034 97.1046 97.1064 97.1088 97.1118 97.1154 97.1196 97.1244 97.1298 97.1358 97.1423 97.1496 97.1573 97.1658 97.1748 97.1843 97.1946 97.2053 97.2168 97.2288 97.2413 97.2545 97.2683 97.2827 97.2977 97.3133 97.3295 97.3464 97.3637 97.3817 97.4004 97.4196 97.4394 97.4597 97.4808 97.5024 97.5246 97.5473 97.5708 97.5948 97.6193 97.6445 97.6703 97.6967 97.7237 97.7514 97.7796 97.8084 97.8377 97.8678 97.8983 97.9296 97.9613 97.9938 98.0268 98.0603 98.0945 98.1294 98.1647 98.2007 98.2374 98.2746 98.3123 98.3508 98.3898 98.4293 98.4695 98.5104 98.5517 98.5938 98.6363 98.6796 98.7233 98.7678 98.8127 98.8584 98.9046 98.9514 98.9988 99.0468 99.0953 99.1445 99.1944 99.2447 99.2957 99.3474 99.3996 99.4523 99.5058 99.5597 99.6144 99.6696 99.7254 99.7818 99.8388 99.8963 99.9545 100.0000 100.0000 100.0000 100.0000 100.0000 100.0000 100.0000 100.0000 100.0000 100.0000 100.0000 100.0000 100.0000 100.0000 100.0000 100.0000 100.0000 100.0000 100.0000 100.0000 100.0000 100.0000
100.0000 100.0000 100.0000 100.0000 100.0000 100.0000 100.0000 100.0000 100.0000 100.0000 100.0000 100.0000 100.0000 100.0000 100.0000 100.0000 100.0000 100.0000 100.0000 100.0000 100.0000 100.0000 99.9660 99.9077 99.8501 99.7931 99.7368 99.6809 99.6257 99.5712 99.5172 99.4638 99.4109 99.3588 99.3072 99.2562 99.2057 99.1560 99.1068 99.0581 99.0101 98.9627 98.9159 98.8697 98.8242 98.7792 98.7348 98.6910 98.6478 98.6051 98.5631 98.5217 98.4810 98.4407 98.4012 98.3621 98.3238 98.2859 98.2488 98.2121 98.1762 98.1407 98.1060 98.0717 98.0382 98.0052 97.9728 97.9410 97.9098 97.8791 97.8491 97.8197 97.7909 97.7627 97.7352 97.7082 97.6817 97.6560 97.6308 97.6061 97.5821 97.5588 97.5359 97.5138 97.4921 97.4711 97.4507 97.4309 97.4117 97.3932 97.3752 97.3577 97.3410 97.3247 97.3092 97.2942 97.2798 97.2660 97.2528 97.2401 97.2281 97.2168 97.2060 97.1958 97.1861 97.1771 97.1688 97.1609 97.1538 97.1471 97.1411 97.1358 97.1309 97.1268 97.1231 97.1201 97.1178 97.1159 97.1148 97.1141 97.1141 97.1148 97.1159 97.1178 97.1201 97.1231 97.1268 97.1309 97.1358 97.1411 97.1471 97.1538 97.1609 97.1688 97.1771 97.1861 97.1958 97.2060 97.2168 97.2281 97.2401 97.2528 97.2660 97.2798 97.2942 97.3092 97.3247 97.3410 97.3577 97.3752 97.3932 97.4117 97.4309 97.4507 97.4711 97.4921 97.5138 97.5359 97.5588 97.5821 97.6061 97.6308 97.6560 97.6817 97.7082 97.7352 97.7627 97.7909 97.8197 97.8491 97.8791 97.9098 97.9410 97.9728 98.0052 98.0382 98.0717 98.1060 98.1407 98.1762 98.2121 98.2488 98.2859 98.3238 98.3621 98.4012 98.4407 98.4810 98.5217 98.5631 98.6051 98.6478 98.6910 98.7348 98.7792 98.8242 98.8697 98.9159 98.9627 99.0101 99.0581 99.1068 99.1560 99.2057 99.2562 99.3072 99.3588 99.4109 99.4638 99.5172 99.5712 99.6257 99.6809 99.7368 99.7931 99.8501 99.9077 99.9660 100.0000 100.0000 100.0000 100.0000 100.0000 100.0000 100.0000 100.0000 100.0000 100.0000 100.0000 100.0000 100.0000 100.0000 100.0000 100.0000 100.0000 100.0000 100.0000 100.0000 100.0000 100.0000
100.0000 100.0000 100.0000 100.0000 100.0000 100.0000 100.0000 100.0000 100.0000 100.0000 100.0000 100.0000 100.0000 100.0000 100.0000 100.0000 100.0000 100.0000 100.0000 100.0000 100.0000 100.0000 99.9779 99.9197 99.8621 99.8051 99.7488 99.6929 99.6377 99.5832 99.5292 99.4758 99.4230 99.3708 99.3191 99.2682 99.2177 99.1680 99.1188 99.0701 99.0221 98.9748 98.9279 98.8817 98.8362 98.7912 98.7468 98.7030 98.6598 98.6171 98.5751 98.5337 98.4929 98.4527 98.4132 98.3742 98.3358 98.2980 98.2608 98.2241 98.1881 98.1527 98.1179 98.0837 98.0502 98.0172 97.9848 97.9530 97.9218 97.8911 97.8611 97.8317 97.8029 97.7747 97.7472 97.7202 97.6937 97.6680 97.6428 97.6181 97.5941 97.5708 97.5480 97.5258 97.5041 97.4831 97.4627 97.4429 97.4237 97.4052 97.3872 97.3697 97.3530 97.3367 97.3212 97.3062 97.2917 97.2780 97.2648 97.2522 97.2401 97.2288 97.2180 97.2078 97.1981 97.1891 97.1808 97.1730 97.1658 97.1591 97.1531 97.1478 97.1429 97.1388 97.1351 97.1321 97.1298 97.1279 97.1268 97.1261 97.1261 97.1268 97.1279 97.1298 97.1321 97.1351 97.1388 97.1429 97.1478 97.1531 97.1591 97.1658 97.1730 97.1808 97.1891 97.1981 97.2078 97.2180 97.2288 97.2401 97.2522 97.2648 97.2780 97.2917 97.3062 97.3212 97.3367 97.3530 97.3697 97.3872 97.4052 97.4237 97.4429 97.4627 97.4831 97.5041 97.5258 97.5480 97.5708 97.5941 97.6181 97.6428 97.6680 97.6937 97.7202 97.7472 97.7747 97.8029 97.8317 97.8611 97.8911 97.9218 97.9530 97.9848 98.0172 98.0502 98.0837 98.1179 98.1527 98.1881 98.2241 98.2608 98.2980 98.3358 98.3742 98.4132 98.4527 98.4929 98.5337 98.5751 98.6171 98.6598 98.7030 98.7468 98.7912 98.8362 98.8817 98.9279 98.9748 99.0221 99.0701 99.1188 99.1680 99.2177 99.2682 99.3191 99.3708 99.4230 99.4758 99.5292 99.5832 99.6377 99.6929 99.7488 99.8051 99.8621 99.9197 99.9779 100.0000 100.0000 100.0000 100.0000 100.0000 100.0000 100.0000 100.0000 100.0000 100.0000 100.0000 100.0000 100.0000 100.0000 100.0000 100.0000 100.0000 100.0000 100.0000 100.0000 100.0000 100.0000
100.0000 100.0000 100.0000 100.0000 100.0000 100.0000 100.0000 100.0000 100.0000 100.0000 100.0000 100.0000 100.0000 100.0000 100.0000 100.0000 100.0000 100.0000 100.0000 100.0000 100.0000 100.0000 99.9905 99.9323 99.8748 99.8178 99.7613 99.7056 99.6504 99.5957 99.5417 99.4883 99.4356 99.3834 99.3317 99.2807 99.2304 99.1805 99.1313 99.0828 99.0348 98.9874 98.9406 98.8944 98.8487 98.8037 98.7593 98.7155 98.6723 98.6298 98.5877 98.5464 98.5055 98.4654 98.4257 98.3868 98.3483 98.3106 98.2733 98.2368 98.2007 98.1654 98.1305 98.0964 98.0627 98.0298 97.9973 97.9655 97.9343 97.9038 97.8738 97.8444 97.8156 97.7874 97.7597 97.7327 97.7064 97.6805 97.6553 97.6308 97.6068 97.5833 97.5606 97.5383 97.5168 97.4958 97.4754 97.4556 97.4364 97.4177 97.3997 97.3824 97.3655 97.3494 97.3337 97.3187 97.3043 97.2905 97.2773 97.2648 97.2528 97.2413 97.2305 97.2203 97.2108 97.2018 97.1933 97.1856 97.1783 97.1718 97.1658 97.1603 97.1556 97.1513 97.1478 97.1448 97.1423 97.1406 97.1393 97.1388 97.1388 97.1393 97.1406 97.1423 97.1448 97.1478 97.1513 97.1556 97.1603 97.1658 97.1718 97.1783 97.1856 97.1933 97.2018 97.2108 97.2203 97.2305 97.2413 97.2528 97.2648 97.2773 97.2905 97.3043 97.3187 97.3337 97.3494 97.3655 97.3824 97.3997 97.4177 97.4364 97.4556 97.4754 97.4958 97.5168 97.5383 97.5606 97.5833 97.6068 97.6308 97.6553 97.6805 97.7064 97.7327 97.7597 97.7874 97.8156 97.8444 97.8738 97.9038 97.9343 97.9655 97.9973 98.0298 98.0627 98.0964 98.1305 98.1654 98.2007 98.2368 98.2733 98.3106 98.3483 98.3868 98.4257 98.4654 98.5055 98.5464 98.5877 98.6298 98.6723 98.7155 98.7593 98.8037 98.8487 98.8944 98.9406 98.9874 99.0348 99.0828 99.1313 99.1805 99.2304 99.2807 99.3317 99.3834 99.4356 99.4883 99.5417 99.5957 99.6504 99.7056 99.7613 99.8178 99.8748 99.9323 99.9905 100.0000 100.0000 100.0000 100.0000 100.0000 100.0000 100.0000 100.0000 100.0000 100.0000 100.0000 100.0000 100.0000 100.0000 100.0000 100.0000 100.0000 100.0000 100.0000 100.0000 100.0000 100.0000
100.0000 100.0000 100.0000 100.0000 100.0000 100.0000 100.0000 100.0000 100.0000 100.0000 100.0000 100.0000 100.0000 100.0000 100.0000 100.0000 100.0000 100.0000 100.0000 100.0000 100.0000 100.0000 100.0000 99.9455 99.8880 99.8310 99.7746 99.7188 99.6636 99.6089 99.5550 99.5015 99.4488 99.3966 99.3449 99.2939 99.2435 99.1937 99.1445 99.0960 99.0480 99.0006 98.9537 98.9076 98.8620 98.8170 98.7725 98.7288 98.6856 98.6429 98.6009 98.5596 98.5187 98.4785 98.4390 98.4000 98.3615 98.3238 98.2866 98.2499 98.2139 98.1786 98.1437 98.1095 98.0760 98.0430 98.0105 97.9788 97.9476 97.9169 97.8869 97.8576 97.8287 97.8006 97.7729 97.7459 97.7195 97.6937 97.6685 97.6440 97.6200 97.5965 97.5738 97.5516 97.5299 97.5089 97.4886 97.4688 97.4496 97.4309 97.4129 97.3956 97.3787 97.3625 97.3470 97.3320 97.3175 97.3037 97.2905 97.2780 97.2660 97.2545 97.2438 97.2335 97.2240 97.2150 97.2065 97.1988 97.1916 97.1850 97.1790 97.1736 97.1688 97.1646 97.1609 97.1579 97.1556 97.1538 97.1526 97.1519 97.1519 97.1526 97.1538 97.1556 97.1579 97.1609 97.1646 97.1688 97.1736 97.1790 97.1850 97.1916 97.1988 97.2065 97.2150 97.2240 97.2335 97.2438 97.2545 97.2660 97.2780 97.2905 97.3037 97.3175 97.3320 97.3470 97.3625 97.3787 97.3956 97.4129 97.4309 97.4496 97.4688 97.4886 97.5089 97.5299 97.5516 97.5738 97.5965 97.6200 97.6440 97.6685 97.6937 97.7195 97.7459 97.7729 97.8006 97.8287 97.8576 97.8869 97.9169 97.9476 97.9788 98.0105 98.0430 98.0760 98.1095 98.1437 98.1786 98.2139 98.2499 98.2866 98.3238 98.3615 98.4000 98.4390 98.4785 98.5187 98.5596 98.6009 98.6429 98.6856 98.7288 98.7725 98.8170 98.8620 98.9076 98.9537 99.0006 99.0480 99.0960 99.1445 99.1937 99.2435 99.2939 99.3449 99.3966 99.4488 99.5015 99.5550 99.6089 99.6636 99.7188 99.7746 99.8310 99.8880 99.9455 100.0000 100.0000 100.0000 100.0000 100.0000 100.0000 100.0000 100.0000 100.0000 100.0000 100.0000 100.0000 100.0000 100.0000 100.0000 100.0000 100.0000 100.0000 100.0000 100.0000 100.0000 100.0000 100.0000
100.0000 100.0000 100.0000 100.0000 100.0000 100.0000 100.0000 100.0000 100.0000 100.0000 100.0000 100.0000 100.0000 100.0000 100.0000 100.0000 100.0000 100.0000 100.0000 100.0000 100.0000 100.0000 100.0000 99.9594 99.9018 99.8448 99.7883 99.7326 99.6774 99.6227 99.5687 99.5153 99.4625 99.4103 99.3588 99.3077 99.2574 99.2075 99.1583 99.1098 99.0618 99.0143 98.9676 98.9214 98.8757 98.8307 98.7863 98.7425 98.6993 98.6568 98.6148 98.5734 98.5326 98.4924 98.4527 98.4137 98.3753 98.3375 98.3003 98.2638 98.2278 98.1924 98.1576 98.1234 98.0897 98.0567 98.0243 97.9925 97.9613 97.9308 97.9008 97.8714 97.8426 97.8144 97.7867 97.7597 97.7334 97.7075 97.6823 97.6577 97.6338 97.6103 97.5875 97.5653 97.5438 97.5228 97.5024 97.4826 97.4634 97.4447 97.4267 97.4094 97.3925 97.3764 97.3607 97.3457 97.3314 97.3175 97.3043 97.2917 97.2798 97.2683 97.2575 97.2473 97.2378 97.2288 97.2203 97.2125 97.2053 97.1988 97.1928 97.1873 97.1826 97.1783 97.1748 97.1718 97.1693 97.1676 97.1663 97.1658 97.1658 97.1663 97.1676 97.1693 97.1718 97.1748 97.1783 97.1826 97.1873 97.1928 97.1988 97.2053 97.2125 97.2203 97.2288 97.2378 97.2473 97.2575 97.2683 97.2798 97.2917 97.3043 97.3175 97.3314 97.3457 97.3607 97.3764 97.3925 97.4094 97.4267 97.4447 97.4634 97.4826 97.5024 97.5228 97.5438 97.5653 97.5875 97.6103 97.6338 97.6577 97.6823 97.7075 97.7334 97.7597 97.7867 97.8144 97.8426 97.8714 97.9008 97.9308 97.9613 97.9925 98.0243 98.0567 98.0897 98.1234 98.1576 98.1924 98.2278 98.2638 98.3003 98.3375 98.3753 98.4137 98.4527 98.4924 98.5326 98.5734 98.6148 98.6568 98.6993 98.7425 98.7863 98.8307 98.8757 98.9214 98.9676 99.0143 99.0618 99.1098 99.1583 99.2075 99.2574 99.3077 99.3588 99.4103 99.4625 99.5153 99.5687 99.6227 99.6774 99.7326 99.7883 99.8448 99.9018 99.9594 100.0000 100.0000 100.0000 100.0000 100.0000 100.0000 100.0000 100.0000 100.0000 100.0000 100.0000 100.0000 100.0000 100.0000 100.0000 100.0000 100.0000 100.0000 100.0000 100.0000 100.0000 100.0000 100.0000
100.0000 100.0000 100.0000 100.0000 100.0000 100.0000 100.0000 100.0000 100.0000 100.0000 100.0000 100.0000 100.0000 100.0000 100.0000 100.0000 100.0000 100.0000 100.0000 100.0000 100.0000 100.0000 100.0000 99.9737 99.9162 99.8591 99.8028 99.7469 99.6917 99.6372 99.5832 99.5298 99.4770 99.4248 99.3731 99.3221 99.2717 99.2220 99.1727 99.1242 99.0761 99.0288 98.9819 98.9357 98.8902 98.8452 98.8007 98.7570 98.7138 98.6711 98.6291 98.5877 98.5469 98.5067 98.4672 98.4282 98.3898 98.3520 98.3148 98.2781 98.2421 98.2067 98.1719 98.1377 98.1042 98.0712 98.0387 98.0070 97.9758 97.9451 97.9151 97.8858 97.8569 97.8287 97.8012 97.7742 97.7477 97.7220 97.6967 97.6722 97.6482 97.6248 97.6020 97.5798 97.5581 97.5371 97.5168 97.4969 97.4778 97.4591 97.4411 97.4237 97.4069 97.3907 97.3752 97.3602 97.3457 97.3320 97.3187 97.3062 97.2942 97.2827 97.2720 97.2618 97.2522 97.2431 97.2348 97.2270 97.2198 97.2131 97.2071 97.2018 97.1970 97.1928 97.1891 97.1861 97.1838 97.1820 97.1808 97.1801 97.1801 97.1808 97.1820 97.1838 97.1861 97.1891 97.1928 97.1970 97.2018 97.2071 97.2131 97.2198 97.2270 97.2348 97.2431 97.2522 97.2618 97.2720 97.2827 97.2942 97.3062 97.3187 97.3320 97.3457 97.3602 97.3752 97.3907 97.4069 97.4237 97.4411 97.4591 97.4778 97.4969 97.5168 97.5371 97.5581 97.5798 97.6020 97.6248 97.6482 97.6722 97.6967 97.7220 97.7477 97.7742 97.8012 97.8287 97.8569 97.8858 97.9151 97.9451 97.9758 98.0070 98.0387 98.0712 98.1042 98.1377 98.1719 98.2067 98.2421 98.2781 98.3148 98.3520 98.3898 98.4282 98.4672 98.5067 98.5469 98.5877 98.6291 98.6711 98.7138 98.7570 98.8007 98.8452 98.8902 98.9357 98.9819 99.0288 99.0761 99.1242 99.1727 99.2220 99.2717 99.3221 99.3731 99.4248 99.4770 99.5298 99.5832 99.6372 99.6917 99.7469 99.8028 99.8591 99.9162 99.9737 100.0000 100.0000 100.0000 100.0000 100.0000 100.0000 100.0000 100.0000 100.0000 100.0000 100.0000 100.0000 100.0000 100.0000 100.0000 100.0000 100.0000 100.0000 100.0000 100.0000 100.0000 100.0000 100.0000
100.0000 100.0000 100.0000 100.0000 100.0000 100.0000 100.0000 100.0000 100.0000 100.0000 100.0000 100.0000 100.0000 100.0000 100.0000 100.0000 100.0000 100.0000 100.0000 100.0000 100.0000 100.0000 100.0000 99.9887 99.9312 99.8742 99.8178 99.7619 99.7067 99.6522 99.5982 99.5447 99.4920 99.4398 99.3881 99.3371 99.2867 99.2370 99.1877 99.1392 99.0911 99.0438 98.9969 98.9507 98.9052 98.8602 98.8157 98.7720 98.7288 98.6861 98.6441 98.6028 98.5619 98.5217 98.4822 98.4432 98.4048 98.3670 98.3298 98.2931 98.2571 98.2218 98.1869 98.1527 98.1192 98.0862 98.0537 98.0220 97.9908 97.9601 97.9301 97.9008 97.8719 97.8438 97.8161 97.7892 97.7627 97.7369 97.7117 97.6872 97.6632 97.6398 97.6170 97.5948 97.5731 97.5521 97.5318 97.5119 97.4928 97.4741 97.4561 97.4387 97.4219 97.4057 97.3902 97.3752 97.3607 97.3470 97.3337 97.3212 97.3092 97.2977 97.2870 97.2768 97.2672 97.2582 97.2498 97.2420 97.2348 97.2281 97.2221 97.2168 97.2120 97.2078 97.2041 97.2011 97.1988 97.1970 97.1958 97.1951 97.1951 97.1958 97.1970 97.1988 97.2011 97.2041 97.2078 97.2120 97.2168 97.2221 97.2281 97.2348 97.2420 97.2498 97.2582 97.2672 97.2768 97.2870 97.2977 97.3092 97.3212 97.3337 97.3470 97.3607 97.3752 97.3902 97.4057 97.4219 97.4387 97.4561 97.4741 97.4928 97.5119 97.5318 97.5521 97.5731 97.5948 97.6170 97.6398 97.6632 97.6872 97.7117 97.7369 97.7627 97.7892 97.8161 97.8438 97.8719 97.9008 97.9301 97.9601 97.9908 98.0220 98.0537 98.0862 98.1192 98.1527 98.1869 98.2218 98.2571 98.2931 98.3298 98.3670 98.4048 98.4432 98.4822 98.5217 98.5619 98.6028 98.6441 98.6861 98.7288 98.7720 98.8157 98.8602 98.9052 98.9507 98.9969 99.0438 99.0911 99.1392 99.1877 99.2370 99.2867 99.3371 99.3881 99.4398 99.4920 99.5447 99.5982 99.6522 99.7067 99.7619 99.8178 99.8742 99.9312 99.9887 100.0000 100.0000 100.0000 100.0000 100.0000 100.0000 100.0000 100.0000 100.0000 100.0000 100.0000 100.0000 100.0000 100.0000 100.0000 100.0000 100.0000 100.0000 100.0000 100.0000 100.0000 100.0000 100.0000
100.0000 100.0000 100.0000 100.0000 100.0000 100.0000 100.0000 100.0000 100.0000 100.0000 100.0000 100.0000 100.0000 100.0000 100.0000 100.0000 100.0000 100.0000 100.0000 100.0000 100.0000 100.0000 100.0000 100.0000 99.9467 99.8898 99.8333 99.7776 99.7224 99.6677 99.6137 99.5603 99.5075 99.4553 99.4038 99.3528 99.3024 99.2525 99.2034 99.1548 99.1068 99.0593 99.0126 98.9664 98.9207 98.8757 98.8314 98.7875 98.7443 98.7018 98.6598 98.6184 98.5776 98.5374 98.4977 98.4587 98.4203 98.3825 98.3453 98.3088 98.2728 98.2374 98.2026 98.1684 98.1347 98.1017 98.0694 98.0375 98.0063 97.9758 97.9458 97.9163 97.8876 97.8594 97.8317 97.8047 97.7784 97.7525 97.7274 97.7027 97.6787 97.6553 97.6325 97.6103 97.5888 97.5678 97.5473 97.5276 97.5083 97.4898 97.4718 97.4544 97.4376 97.4214 97.4057 97.3907 97.3764 97.3625 97.3494 97.3367 97.3247 97.3133 97.3025 97.2923 97.2827 97.2738 97.2653 97.2575 97.2503 97.2438 97.2378 97.2323 97.2275 97.2233 97.2198 97.2168 97.2143 97.2125 97.2113 97.2108 97.2108 97.2113 97.2125 97.2143 97.2168 97.2198 97.2233 97.2275 97.2323 97.2378 97.2438 97.2503 97.2575 97.2653 97.2738 97.2827 97.2923 97.3025 97.3133 97.3247 97.3367 97.3494 97.3625 97.3764 97.3907 97.4057 97.4214 97.4376 97.4544 97.4718 97.4898 97.5083 97.5276 97.5473 97.5678 97.5888 97.6103 97.6325 97.6553 97.6787 97.7027 97.7274 97.7525 97.7784 97.8047 97.8317 97.8594 97.8876 97.9163 97.9458 97.9758 98.0063 98.0375 98.0694 98.1017 98.1347 98.1684 98.2026 98.2374 98.2728 98.3088 98.3453 98.3825 98.4203 98.4587 98.4977 98.5374 98.5776 98.6184 98.6598 98.7018 98.7443 98.7875 98.8314 98.8757 98.9207 98.9664 99.0126 99.0593 99.1068 99.1548 99.2034 99.2525 99.3024 99.3528 99.4038 99.4553 99.5075 99.5603 99.6137 99.6677 99.7224 99.7776 99.8333 99.8898 99.9467 100.0000 100.0000 100.0000 100.0000 100.0000 100.0000 100.0000 100.0000 100.0000 100.0000 100.0000 100.0000 100.0000 100.0000 100.0000 100.0000 100.0000 100.0000 100.0000 100.0000 100.0000 100.0000 100.0000 100.0000
100.0000 100.0000 100.0000 100.0000 100.0000 100.0000 100.0000 100.0000 100.0000 100.0000 100.0000 100.0000 100.0000 100.0000 100.0000 100.0000 100.0000 100.0000 100.0000 100.0000 100.0000 100.0000 100.0000 100.0000 99.9630 99.9060 99.8495 99.7938 99.7386 99.6839 99.6299 99.5765 99.5238 99.4715 99.4200 99.3689 99.3186 99.2687 99.2195 99.1710 99.1230 99.0755 99.0288 98.9826 98.9369 98.8919 98.8475 98.8037 98.7605 98.7180 98.6760 98.6346 98.5938 98.5536 98.5139 98.4750 98.4365 98.3988 98.3615 98.3250 98.2889 98.2536 98.2188 98.1846 98.1509 98.1179 98.0855 98.0537 98.0225 97.9920 97.9620 97.9326 97.9038 97.8756 97.8479 97.8209 97.7946 97.7687 97.7435 97.7190 97.6950 97.6715 97.6488 97.6265 97.6050 97.5840 97.5636 97.5438 97.5246 97.5059 97.4879 97.4706 97.4537 97.4376 97.4219 97.4069 97.3925 97.3787 97.3655 97.3530 97.3410 97.3295 97.3187 97.3085 97.2990 97.2900 97.2815 97.2738 97.2665 97.2600 97.2540 97.2485 97.2438 97.2395 97.2360 97.2330 97.2305 97.2288 97.2275 97.2270 97.2270 97.2275 97.2288 97.2305 97.2330 97.2360 97.2395 97.2438 97.2485 97.2540 97.2600 97.2665 97.2738 97.2815 97.2900 97.2990 97.3085 97.3187 97.3295 97.3410 97.3530 97.3655 97.3787 97.3925 97.4069 97.4219 97.4376 97.4537 97.4706 97.4879 97.5059 97.5246 97.5438 97.5636 97.5840 97.6050 97.6265 97.6488 97.6715 97.6950 97.7190 97.7435 97.7687 97.7946 97.8209 97.8479 97.8756 97.9038 97.9326 97.9620 97.9920 98.0225 98.0537 98.0855 98.1179 98.1509 98.1846 98.2188 98.2536 98.2889 98.3250 98.3615 98.3988 98.4365 98.4750 98.5139 98.5536 98.5938 98.6346 98.6760 98.7180 98.7605 98.8037 98.8475 98.8919 98.9369 98.9826 99.0288 99.0755 99.1230 99.1710 99.2195 99.2687 99.3186 99.3689 99.4200 99.4715 99.5238 99.5765 99.6299 99.6839 99.7386 99.7938 99.8495 99.9060 99.9630 100.0000 100.0000 100.0000 100.0000 100.0000 100.0000 100.0000 100.0000 100.0000 100.0000 100.0000 100.0000 100.0000 100.0000 100.0000 100.0000 100.0000 100.0000 100.0000 100.0000 100.0000 100.0000 100.0000 100.0000
100.0000 100.0000 100.0000 100.0000 100.0000 100.0000 100.0000 100.0000 100.0000 100.0000 100.0000 100.0000 100.0000 100.0000 100.0000 100.0000 100.0000 100.0000 100.0000 100.0000 100.0000 100.0000 100.0000 100.0000 99.9797 99.9227 99.8663 99.8106 99.7553 99.7007 99.6467 99.5934 99.5405 99.4883 99.4368 99.3858 99.3354 99.2856 99.2364 99.1877 99.1398 99.0923 99.0456 98.9994 98.9537 98.9087 98.8644 98.8205 98.7773 98.7348 98.6928 98.6513 98.6106 98.5704 98.5307 98.4917 98.4534 98.4155 98.3783 98.3418 98.3058 98.2703 98.2356 98.2014 98.1677 98.1347 98.1024 98.0705 98.0393 98.0088 97.9788 97.9493 97.9206 97.8923 97.8648 97.8377 97.8114 97.7856 97.7604 97.7357 97.7117 97.6883 97.6655 97.6433 97.6218 97.6008 97.5803 97.5606 97.5413 97.5228 97.5048 97.4874 97.4706 97.4544 97.4387 97.4237 97.4094 97.3956 97.3824 97.3697 97.3577 97.3464 97.3355 97.3254 97.3157 97.3067 97.2983 97.2905 97.2833 97.2768 97.2708 97.2653 97.2605 97.2563 97.2528 97.2498 97.2473 97.2455 97.2443 97.2438 97.2438 97.2443 97.2455 97.2473 97.2498 97.2528 97.2563 97.2605 97.2653 97.2708 97.2768 97.2833 97.2905 97.2983 97.3067 97.3157 97.3254 97.3355 97.3464 97.3577 97.3697 97.3824 97.3956 97.4094 97.4237 97.4387 97.4544 97.4706 97.4874 97.5048 97.5228 97.5413 97.5606 97.5803 97.6008 97.6218 97.6433 97.6655 97.6883 97.7117 97.7357 97.7604 97.7856 97.8114 97.8377 97.8648 97.8923 97.9206 97.9493 97.9788 98.0088 98.0393 98.0705 98.1024 98.1347 98.1677 98.2014 98.2356 98.2703 98.3058 98.3418 98.3783 98.4155 98.4534 98.4917 98.5307 98.5704 98.6106 98.6513 98.6928 98.7348 98.7773 98.8205 98.8644 98.9087 98.9537 98.9994 99.0456 99.0923 99.1398 99.1877 99.2364 99.2856 99.3354 99.3858 99.4368 99.4883 99.5405 99.5934 99.6467 99.7007 99.7553 99.8106 99.8663 99.9227 99.9797 100.0000 100.0000 100.0000 100.0000 100.0000 100.0000 100.0000 100.0000 100.0000 100.0000 100.0000 100.0000 100.0000 100.0000 100.0000 100.0000 100.0000 100.0000 100.0000 100.0000 100.0000 100.0000 100.0000 100.0000
100.0000 100.0000 100.0000 100.0000 100.0000 100.0000 100.0000 100.0000 100.0000 100.0000 100.0000 100.0000 100.0000 100.0000 100.0000 100.0000 100.0000 100.0000 100.0000 100.0000 100.0000 100.0000 100.0000 100.0000 99.9972 99.9402 99.8838 99.8280 99.7728 99.7181 99.6642 99.6107 99.5580 99.5058 99.4541 99.4031 99.3528 99.3029 99.2537 99.2052 99.1572 99.1098 99.0630 99.0168 98.9711 98.9262 98.8817 98.8380 98.7947 98.7522 98.7101 98.6688 98.6279 98.5877 98.5482 98.5092 98.4707 98.4330 98.3958 98.3591 98.3231 98.2878 98.2529 98.2188 98.1851 98.1522 98.1197 98.0880 98.0567 98.0262 97.9962 97.9668 97.9380 97.9098 97.8821 97.8551 97.8287 97.8029 97.7777 97.7532 97.7292 97.7057 97.6830 97.6607 97.6392 97.6181 97.5978 97.5780 97.5588 97.5401 97.5221 97.5048 97.4879 97.4718 97.4561 97.4411 97.4267 97.4129 97.3997 97.3872 97.3752 97.3637 97.3530 97.3427 97.3332 97.3242 97.3157 97.3080 97.3007 97.2942 97.2882 97.2827 97.2780 97.2738 97.2702 97.2672 97.2648 97.2630 97.2618 97.2612 97.2612 97.2618 97.2630 97.2648 97.2672 97.2702 97.2738 97.2780 97.2827 97.2882 97.2942 97.3007 97.3080 97.3157 97.3242 97.3332 97.3427 97.3530 97.3637 97.3752 97.3872 97.3997 97.4129 97.4267 97.4411 97.4561 97.4718 97.4879 97.5048 97.5221 97.5401 97.5588 97.5780 97.5978 97.6181 97.6392 97.6607 97.6830 97.7057 97.7292 97.7532 97.7777 97.8029 97.8287 97.8551 97.8821 97.9098 97.9380 97.9668 97.9962 98.0262 98.0567 98.0880 98.1197 98.1522 98.1851 98.2188 98.2529 98.2878 98.3231 98.3591 98.3958 98.4330 98.4707 98.5092 98.5482 98.5877 98.6279 98.6688 98.7101 98.7522 98.7947 98.8380 98.8817 98.9262 98.9711 99.0168 99.0630 99.1098 99.1572 99.2052 99.2537 99.3029 99.3528 99.4031 99.4541 99.5058 99.5580 99.6107 99.6642 99.7181 99.7728 99.8280 99.8838 99.9402 99.9972 100.0000 100.0000 100.0000 100.0000 100.0000 100.0000 100.0000 100.0000 100.0000 100.0000 100.0000 100.0000 100.0000 100.0000 100.0000 100.0000 100.0000 100.0000 100.0000 100.0000 100.0000 100.0000 100.0000 100.0000
100.0000 100.0000 100.0000 100.0000 100.0000 100.0000 100.0000 100.0000 100.0000 100.0000 100.0000 100.0000 100.0000 100.0000 100.0000 100.0000 100.0000 100.0000 100.0000 100.0000 100.0000 100.0000 100.0000 100.0000 100.0000 99.9582 99.9018 99.8460 99.7908 99.7361 99.6822 99.6287 99.5760 99.5238 99.4721 99.4211 99.3708 99.3209 99.2717 99.2232 99.1752 99.1278 99.0810 99.0348 98.9891 98.9441 98.8997 98.8560 98.8127 98.7702 98.7281 98.6868 98.6459 98.6058 98.5661 98.5272 98.4887 98.4510 98.4137 98.3772 98.3411 98.3058 98.2709 98.2368 98.2031 98.1702 98.1377 98.1060 98.0747 98.0442 98.0142 97.9848 97.9560 97.9278 97.9001 97.8731 97.8468 97.8209 97.7957 97.7712 97.7472 97.7237 97.7010 97.6787 97.6572 97.6362 97.6158 97.5960 97.5768 97.5581 97.5401 97.5228 97.5059 97.4898 97.4741 97.4591 97.4447 97.4309 97.4177 97.4052 97.3932 97.3817 97.3709 97.3607 97.3512 97.3422 97.3337 97.3260 97.3187 97.3122 97.3062 97.3007 97.2960 97.2917 97.2882 97.2852 97.2827 97.2810 97.2798 97.2792 97.2792 97.2798 97.2810 97.2827 97.2852 97.2882 97.2917 97.2960 97.3007 97.3062 97.3122 97.3187 97.3260 97.3337 97.3422 97.3512 97.3607 97.3709 97.3817 97.3932 97.4052 97.4177 97.4309 97.4447 97.4591 97.4741 97.4898 97.5059 97.5228 97.5401 97.5581 97.5768 97.5960 97.6158 97.6362 97.6572 97.6787 97.7010 97.7237 97.7472 97.7712 97.7957 97.8209 97.8468 97.8731 97.9001 97.9278 97.9560 97.9848 98.0142 98.0442 98.0747 98.1060 98.1377 98.1702 98.2031 98.2368 98.2709 98.3058 98.3411 98.3772 98.4137 98.4510 98.4887 98.5272 98.5661 98.6058 98.6459 98.6868 98.7281 98.7702 98.8127 98.8560 98.8997 98.9441 98.9891 99.0348 99.0810 99.1278 99.1752 99.2232 99.2717 99.3209 99.3708 99.4211 99.4721 99.5238 99.5760 99.6287 99.6822 99.7361 99.7908 99.8460 99.9018 99.9582 100.0000 100.0000 100.0000 100.0000 100.0000 100.0000 100.0000 100.0000 100.0000 100.0000 100.0000 100.0000 100.0000 100.0000 100.0000 100.0000 100.0000 100.0000 100.0000 100.0000 100.0000 100.0000 100.0000 100.0000 100.0000
100.0000 100.0000 100.0000 100.0000 100.0000 100.0000 100.0000 100.0000 100.0000 100.0000 100.0000 100.0000 100.0000 100.0000 100.0000 100.0000 100.0000 100.0000 100.0000 100.0000 100.0000 100.0000 100.0000 100.0000 100.0000 99.9767 99.9203 99.8645 99.8093 99.7548 99.7007 99.6474 99.5945 99.5423 99.4908 99.4398 99.3893 99.3396 99.2904 99.2417 99.1937 99.1463 99.0995 99.0533 99.0078 98.9627 98.9184 98.8745 98.8314 98.7887 98.7468 98.7053 98.6646 98.6244 98.5847 98.5457 98.5074 98.4695 98.4323 98.3958 98.3598 98.3243 98.2896 98.2553 98.2218 98.1887 98.1564 98.1245 98.0934 98.0627 98.0327 98.0033 97.9745 97.9463 97.9188 97.8918 97.8654 97.8396 97.8144 97.7897 97.7657 97.7424 97.7195 97.6974 97.6757 97.6548 97.6343 97.6145 97.5953 97.5768 97.5588 97.5413 97.5246 97.5083 97.4928 97.4778 97.4634 97.4496 97.4364 97.4237 97.4117 97.4004 97.3895 97.3794 97.3697 97.3607 97.3524 97.3445 97.3374 97.3307 97.3247 97.3194 97.3145 97.3103 97.3067 97.3037 97.3013 97.2995 97.2983 97.2977 97.2977 97.2983 97.2995 97.3013 97.3037 97.3067 97.3103 97.3145 97.3194 97.3247 97.3307 97.3374 97.3445 97.3524 97.3607 97.3697 97.3794 97.3895 97.4004 97.4117 97.4237 97.4364 97.4496 97.4634 97.4778 97.4928 97.5083 97.5246 97.5413 97.5588 97.5768 97.5953 97.6145 97.6343 97.6548 97.6757 97.6974 97.7195 97.7424 97.7657 97.7897 97.8144 97.8396 97.8654 97.8918 97.9188 97.9463 97.9745 98.0033 98.0327 98.0627 98.0934 98.1245 98.1564 98.1887 98.2218 98.2553 98.2896 98.3243 98.3598 98.3958 98.4323 98.4695 98.5074 98.5457 98.5847 98.6244 98.6646 98.7053 98.7468 98.7887 98.8314 98.8745 98.9184 98.9627 99.0078 99.0533 99.0995 99.1463 99.1937 99.2417 99.2904 99.3396 99.3893 99.4398 99.4908 99.5423 99.5945 99.6474 99.7007 99.7548 99.8093 99.8645 99.9203 99.9767 100.0000 100.0000 100.0000 100.0000 100.0000 100.0000 100.0000 100.0000 100.0000 100.0000 100.0000 100.0000 100.0000 100.0000 100.0000 100.0000 100.0000 100.0000 100.0000 100.0000 100.0000 100.0000 100.0000 100.0000 100.0000
100.0000 100.0000 100.0000 100.0000 100.0000 100.0000 100.0000 100.0000 100.0000 100.0000 100.0000 100.0000 100.0000 100.0000 100.0000 100.0000 100.0000 100.0000 100.0000 100.0000 100.0000 100.0000 100.0000 100.0000 100.0000 99.9959 99.9395 99.8838 99.8286 99.7739 99.7199 99.6666 99.6137 99.5615 99.5100 99.4590 99.4086 99.3588 99.3096 99.2609 99.2130 99.1655 99.1188 99.0726 99.0269 98.9819 98.9376 98.8937 98.8505 98.8080 98.7660 98.7245 98.6838 98.6436 98.6039 98.5649 98.5266 98.4887 98.4515 98.4150 98.3790 98.3435 98.3088 98.2746 98.2409 98.2079 98.1756 98.1437 98.1125 98.0820 98.0520 98.0225 97.9938 97.9655 97.9380 97.9109 97.8846 97.8588 97.8336 97.8089 97.7849 97.7615 97.7387 97.7165 97.6950 97.6740 97.6535 97.6338 97.6145 97.5960 97.5780 97.5606 97.5438 97.5276 97.5119 97.4969 97.4826 97.4688 97.4556 97.4429 97.4309 97.4196 97.4087 97.3986 97.3889 97.3799 97.3715 97.3637 97.3565 97.3500 97.3440 97.3385 97.3337 97.3295 97.3260 97.3230 97.3205 97.3187 97.3175 97.3170 97.3170 97.3175 97.3187 97.3205 97.3230 97.3260 97.3295 97.3337 97.3385 97.3440 97.3500 97.3565 97.3637 97.3715 97.3799 97.3889 97.3986 97.4087 97.4196 97.4309 97.4429 97.4556 97.4688 97.4826 97.4969 97.5119 97.5276 97.5438 97.5606 97.5780 97.5960 97.6145 97.6338 97.6535 97.6740 97.6950 97.7165 97.7387 97.7615 97.7849 97.8089 97.8336 97.8588 97.8846 97.9109 97.9380 97.9655 97.9938 98.0225 98.0520 98.0820 98.1125 98.1437 98.1756 98.2079 98.2409 98.2746 98.3088 98.3435 98.3790 98.4150 98.4515 98.4887 98.5266 98.5649 98.6039 98.6436 98.6838 98.7245 98.7660 98.8080 98.8505 98.8937 98.9376 98.9819 99.0269 99.0726 99.1188 99.1655 99.2130 99.2609 99.3096 99.3588 99.4086 99.4590 99.5100 99.5615 99.6137 99.6666 99.7199 99.7739 99.8286 99.8838 99.9395 99.9959 100.0000 100.0000 100.0000 100.0000 100.0000 100.0000 100.0000 100.0000 100.0000 100.0000 100.0000 100.0000 100.0000 100.0000 100.0000 100.0000 100.0000 100.0000 100.0000 100.0000 100.0000 100.0000 100.0000 100.0000 100.0000
100.0000 100.0000 100.0000 100.0000 100.0000 100.0000 100.0000 100.0000 100.0000 100.0000 100.0000 100.0000 100.0000 100.0000 100.0000 100.0000 100.0000 100.0000 100.0000 100.0000 100.0000 100.0000 100.0000 100.0000 100.0000 100.0000 99.9594 99.9035 99.8483 99.7938 99.7398 99.6864 99.6335 99.5814 99.5298 99.4788 99.4283 99.3786 99.3294 99.2807 99.2327 99.1853 99.1385 99.0923 99.0468 99.0018 98.9574 98.9136 98.8704 98.8277 98.7857 98.7443 98.7036 98.6633 98.6238 98.5847 98.5464 98.5085 98.4714 98.4347 98.3988 98.3633 98.3286 98.2943 98.2608 98.2278 98.1954 98.1636 98.1324 98.1017 98.0717 98.0423 98.0135 97.9853 97.9578 97.9308 97.9043 97.8786 97.8534 97.8287 97.8047 97.7814 97.7585 97.7364 97.7147 97.6937 97.6733 97.6535 97.6343 97.6158 97.5978 97.5803 97.5636 97.5473 97.5318 97.5168 97.5024 97.4886 97.4754 97.4627 97.4507 97.4394 97.4286 97.4184 97.4087 97.3997 97.3914 97.3835 97.3764 97.3697 97.3637 97.3584 97.3535 97.3494 97.3457 97.3427 97.3404 97.3385 97.3374 97.3367 97.3367 97.3374 97.3385 97.3404 97.3427 97.3457 97.3494 97.3535 97.3584 97.3637 97.3697 97.3764 97.3835 97.3914 97.3997 97.4087 97.4184 97.4286 97.4394 97.4507 97.4627 97.4754 97.4886 97.5024 97.5168 97.5318 97.5473 97.5636 97.5803 97.5978 97.6158 97.6343 97.6535 97.6733 97.6937 97.7147 97.7364 97.7585 97.7814 97.8047 97.8287 97.8534 97.8786 97.9043 97.9308 97.9578 97.9853 98.0135 98.0423 98.0717 98.1017 98.1324 98.1636 98.1954 98.2278 98.2608 98.2943 98.3286 98.3633 98.3988 98.4347 98.4714 98.5085 98.5464 98.5847 98.6238 98.6633 98.7036 98.7443 98.7857 98.8277 98.8704 98.9136 98.9574 99.0018 99.0468 99.0923 99.1385 99.1853 99.2327 99.2807 99.3294 99.3786 99.4283 99.4788 99.5298 99.5814 99.6335 99.6864 99.7398 99.7938 99.8483 99.9035 99.9594 100.0000 100.0000 100.0000 100.0000 100.0000 100.0000 100.0000 100.0000 100.0000 100.0000 100.0000 100.0000 100.0000 100.0000 100.0000 100.0000 100.0000 100.0000 100.0000 100.0000 100.0000 100.0000 100.0000 100.0000 100.0000 100.0000
100.0000 100.0000 100.0000 100.0000 100.0000 100.0000 100.0000 100.0000 100.0000 100.0000 100.0000 100.0000 100.0000 100.0000 100.0000 100.0000 100.0000 100.0000 100.0000 100.0000 100.0000 100.0000 100.0000 100.0000 100.0000 100.0000 99.9797 99.9240 99.8688 99.8141 99.7601 99.7067 99.6539 99.6017 99.5502 99.4992 99.4488 99.3989 99.3498 99.3012 99.2532 99.2057 99.1590 99.1128 99.0671 99.0221 98.9778 98.9339 98.8907 98.8482 98.8062 98.7648 98.7240 98.6838 98.6441 98.6051 98.5667 98.5289 98.4917 98.4552 98.4192 98.3838 98.3490 98.3148 98.2811 98.2481 98.2157 98.1839 98.1527 98.1222 98.0922 98.0627 98.0340 98.0058 97.9781 97.9511 97.9248 97.8989 97.8738 97.8491 97.8251 97.8017 97.7789 97.7567 97.7352 97.7142 97.6937 97.6740 97.6548 97.6362 97.6181 97.6008 97.5840 97.5678 97.5521 97.5371 97.5228 97.5089 97.4958 97.4831 97.4711 97.4597 97.4489 97.4387 97.4292 97.4202 97.4117 97.4039 97.3967 97.3902 97.3842 97.3787 97.3739 97.3697 97.3662 97.3632 97.3607 97.3589 97.3577 97.3572 97.3572 97.3577 97.3589 97.3607 97.3632 97.3662 97.3697 97.3739 97.3787 97.3842 97.3902 97.3967 97.4039 97.4117 97.4202 97.4292 97.4387 97.4489 97.4597 97.4711 97.4831 97.4958 97.5089 97.5228 97.5371 97.5521 97.5678 97.5840 97.6008 97.6181 97.6362 97.6548 97.6740 97.6937 97.7142 97.7352 97.7567 97.7789 97.8017 97.8251 97.8491 97.8738 97.8989 97.9248 97.9511 97.9781 98.0058 98.0340 98.0627 98.0922 98.1222 98.1527 98.1839 98.2157 98.2481 98.2811 98.3148 98.3490 98.3838 98.4192 98.4552 98.4917 98.5289 98.5667 98.6051 98.6441 98.6838 98.7240 98.7648 98.8062 98.8482 98.8907 98.9339 98.9778 99.0221 99.0671 99.1128 99.1590 99.2057 99.2532 99.3012 99.3498 99.3989 99.4488 99.4992 99.5502 99.6017 99.6539 99.7067 99.7601 99.8141 99.8688 99.9240 99.9797 100.0000 100.0000 100.0000 100.0000 100.0000 100.0000 100.0000 100.0000 100.0000 100.0000 100.0000 100.0000 100.0000 100.0000 100.0000 100.0000 100.0000 100.0000 100.0000 100.0000 100.0000 100.0000 100.0000 100.0000 100.0000 100.0000
100.0000 100.0000 100.0000 100.0000 100.0000 100.0000 100.0000 100.0000 100.0000 100.0000 100.0000 100.0000 100.0000 100.0000 100.0000 100.0000 100.0000 100.0000 100.0000 100.0000 100.0000 100.0000 100.0000 100.0000 100.0000 100.0000 100.0000 99.9450 99.8898 99.8351 99.7811 99.7278 99.6749 99.6227 99.5712 99.5202 99.4698 99.4200 99.3708 99.3221 99.2742 99.2267 99.1800 99.1338 99.0881 99.0431 98.9988 98.9549 98.9117 98.8692 98.8272 98.7857 98.7450 98.7048 98.6651 98.6261 98.5877 98.5499 98.5127 98.4762 98.4402 98.4048 98.3700 98.3358 98.3021 98.2691 98.2368 98.2049 98.1737 98.1432 98.1132 98.0837 98.0550 98.0268 97.9992 97.9721 97.9458 97.9200 97.8948 97.8701 97.8461 97.8227 97.7999 97.7777 97.7562 97.7352 97.7147 97.6950 97.6757 97.6572 97.6392 97.6218 97.6050 97.5888 97.5731 97.5581 97.5438 97.5299 97.5168 97.5041 97.4921 97.4808 97.4699 97.4597 97.4501 97.4411 97.4327 97.4249 97.4177 97.4112 97.4052 97.3997 97.3949 97.3907 97.3872 97.3842 97.3817 97.3799 97.3787 97.3782 97.3782 97.3787 97.3799 97.3817 97.3842 97.3872 97.3907 97.3949 97.3997 97.4052 97.4112 97.4177 97.4249 97.4327 97.4411 97.4501 97.4597 97.4699 97.4808 97.4921 97.5041 97.5168 97.5299 97.5438 97.5581 97.5731 97.5888 97.6050 97.6218 97.6392 97.6572 97.6757 97.6950 97.7147 97.7352 97.7562 97.7777 97.7999 97.8227 97.8461 97.8701 97.8948 97.9200 97.9458 97.9721 97.9992 98.0268 98.0550 98.0837 98.1132 98.1432 98.1737 98.2049 98.2368 98.2691 98.3021 98.3358 98.3700 98.4048 98.4402 98.4762 98.5127 98.5499 98.5877 98.6261 98.6651 98.7048 98.7450 98.7857 98.8272 98.8692 98.9117 98.9549 98.9988 99.0431 99.0881 99.1338 99.1800 99.2267 99.2742 99.3221 99.3708 99.4200 99.4698 99.5202 99.5712 99.6227 99.6749 99.7278 99.7811 99.8351 99.8898 99.9450 100.0000 100.0000 100.0000 100.0000 100.0000 100.0000 100.0000 100.0000 100.0000 100.0000 100.0000 100.0000 100.0000 100.0000 100.0000 100.0000 100.0000 100.0000 100.0000 100.0000 100.0000 100.0000 100.0000 100.0000 100.0000 100.0000 100.0000
100.0000 100.0000 100.0000 100.0000 100.0000 100.0000 100.0000 100.0000 100.0000 100.0000 100.0000 100.0000 100.0000 100.0000 100.0000 100.0000 100.0000 100.0000 100.0000 100.0000 100.0000 100.0000 100.0000 100.0000 100.0000 100.0000 100.0000 99.9665 99.9113 99.8568 99.8028 99.7493 99.6966 99.6444 99.5927 99.5417 99.4913 99.4416 99.3923 99.3438 99.2957 99.2484 99.2015 99.1553 99.1098 99.0648 99.0203 98.9766 98.9334 98.8907 98.8487 98.8073 98.7665 98.7263 98.6868 98.6478 98.6094 98.5716 98.5344 98.4977 98.4617 98.4263 98.3915 98.3573 98.3238 98.2908 98.2584 98.2266 98.1954 98.1647 98.1347 98.1054 98.0765 98.0483 98.0208 97.9938 97.9673 97.9416 97.9163 97.8918 97.8678 97.8444 97.8216 97.7994 97.7777 97.7567 97.7364 97.7165 97.6974 97.6787 97.6607 97.6433 97.6265 97.6103 97.5948 97.5798 97.5653 97.5516 97.5383 97.5258 97.5138 97.5024 97.4916 97.4814 97.4718 97.4627 97.4544 97.4466 97.4394 97.4327 97.4267 97.4214 97.4166 97.4124 97.4087 97.4057 97.4034 97.4016 97.4004 97.3997 97.3997 97.4004 97.4016 97.4034 97.4057 97.4087 97.4124 97.4166 97.4214 97.4267 97.4327 97.4394 97.4466 97.4544 97.4627 97.4718 97.4814 97.4916 97.5024 97.5138 97.5258 97.5383 97.5516 97.5653 97.5798 97.5948 97.6103 97.6265 97.6433 97.6607 97.6787 97.6974 97.7165 97.7364 97.7567 97.7777 97.7994 97.8216 97.8444 97.8678 97.8918 97.9163 97.9416 97.9673 97.9938 98.0208 98.0483 98.0765 98.1054 98.1347 98.1647 98.1954 98.2266 98.2584 98.2908 98.3238 98.3573 98.3915 98.4263 98.4617 98.4977 98.5344 98.5716 98.6094 98.6478 98.6868 98.7263 98.7665 98.8073 98.8487 98.8907 98.9334 98.9766 99.0203 99.0648 99.1098 99.1553 99.2015 99.2484 99.2957 99.3438 99.3923 99.4416 99.4913 99.5417 99.5927 99.6444 99.6966 99.7493 99.8028 99.8568 99.9113 99.9665 100.0000 100.0000 100.0000 100.0000 100.0000 100.0000 100.0000 100.0000 100.0000 100.0000 100.0000 100.0000 100.0000 100.0000 100.0000 100.0000 100.0000 100.0000 100.0000 100.0000 100.0000 100.0000 100.0000 100.0000 100.0000 100.0000 100.0000
100.0000 100.0000 100.0000 100.0000 100.0000 100.0000 100.0000 100.0000 100.0000 100.0000 100.0000 100.0000 100.0000 100.0000 100.0000 100.0000 100.0000 100.0000 100.0000 100.0000 100.0000 100.0000 100.0000 100.0000 100.0000 100.0000 100.0000 99.9887 99.9335 99.8790 99.8250 99.7716 99.7188 99.6666 99.6149 99.5640 99.5135 99.4638 99.4146 99.3659 99.3179 99.2706 99.2237 99.1775 99.1320 99.0870 99.0426 98.9988 98.9556 98.9129 98.8709 98.8295 98.7887 98.7485 98.7090 98.6700 98.6316 98.5938 98.5566 98.5199 98.4839 98.4485 98.4137 98.3795 98.3460 98.3130 98.2806 98.2488 98.2176 98.1869 98.1569 98.1275 98.0987 98.0705 98.0430 98.0160 97.9895 97.9638 97.9386 97.9139 97.8899 97.8666 97.8438 97.8216 97.7999 97.7789 97.7585 97.7387 97.7195 97.7010 97.6830 97.6655 97.6488 97.6325 97.6170 97.6020 97.5875 97.5738 97.5606 97.5480 97.5359 97.5246 97.5138 97.5036 97.4939 97.4849 97.4766 97.4688 97.4616 97.4549 97.4489 97.4436 97.4387 97.4346 97.4309 97.4279 97.4256 97.4237 97.4226 97.4219 97.4219 97.4226 97.4237 97.4256 97.4279 97.4309 97.4346 97.4387 97.4436 97.4489 97.4549 97.4616 97.4688 97.4766 97.4849 97.4939 97.5036 97.5138 97.5246 97.5359 97.5480 97.5606 97.5738 97.5875 97.6020 97.6170 97.6325 97.6488 97.6655 97.6830 97.7010 97.7195 97.7387 97.7585 97.7789 97.7999 97.8216 97.8438 97.8666 97.8899 97.9139 97.9386 97.9638 97.9895 98.0160 98.0430 98.0705 98.0987 98.1275 98.1569 98.1869 98.2176 98.2488 98.2806 98.3130 98.3460 98.3795 98.4137 98.4485 98.4839 98.5199 98.5566 98.5938 98.6316 98.6700 98.7090 98.7485 98.7887 98.8295 98.8709 98.9129 98.9556 98.9988 99.0426 99.0870 99.1320 99.1775 99.2237 99.2706 99.3179 99.3659 99.4146 99.4638 99.5135 99.5640 99.6149 99.6666 99.7188 99.7716 99.8250 99.8790 99.9335 99.9887 100.0000 100.0000 100.0000 100.0000 100.0000 100.0000 100.0000 100.0000 100.0000 100.0000 100.0000 100.0000 100.0000 100.0000 100.0000 100.0000 100.0000 100.0000 100.0000 100.0000 100.0000 100.0000 100.0000 100.0000 100.0000 100.0000 100.0000
100.0000 100.0000 100.0000 100.0000 100.0000 100.0000 100.0000 100.0000 100.0000 100.0000 100.0000 100.0000 100.0000 100.0000 100.0000 100.0000 100.0000 100.0000 100.0000 100.0000 100.0000 100.0000 100.0000 100.0000 100.0000 100.0000 100.0000 100.0000 99.9564 99.9018 99.8478 99.7943 99.7416 99.6894 99.6377 99.5867 99.5363 99.4865 99.4373 99.3888 99.3407 99.2934 99.2465 99.2004 99.1548 99.1098 99.0653 99.0216 98.9784 98.9357 98.8937 98.8524 98.8115 98.7713 98.7318 98.6928 98.6543 98.6166 98.5794 98.5427 98.5067 98.4714 98.4365 98.4023 98.3688 98.3358 98.3033 98.2716 98.2404 98.2097 98.1797 98.1504 98.1215 98.0934 98.0657 98.0387 98.0123 97.9865 97.9613 97.9368 97.9128 97.8893 97.8666 97.8444 97.8227 97.8017 97.7814 97.7615 97.7424 97.7237 97.7057 97.6883 97.6715 97.6553 97.6398 97.6248 97.6103 97.5965 97.5833 97.5708 97.5588 97.5473 97.5366 97.5263 97.5168 97.5078 97.4994 97.4916 97.4844 97.4778 97.4718 97.4664 97.4616 97.4574 97.4537 97.4507 97.4484 97.4466 97.4454 97.4447 97.4447 97.4454 97.4466 97.4484 97.4507 97.4537 97.4574 97.4616 97.4664 97.4718 97.4778 97.4844 97.4916 97.4994 97.5078 97.5168 97.5263 97.5366 97.5473 97.5588 97.5708 97.5833 97.5965 97.6103 97.6248 97.6398 97.6553 97.6715 97.6883 97.7057 97.7237 97.7424 97.7615 97.7814 97.8017 97.8227 97.8444 97.8666 97.8893 97.9128 97.9368 97.9613 97.9865 98.0123 98.0387 98.0657 98.0934 98.1215 98.1504 98.1797 98.2097 98.2404 98.2716 98.3033 98.3358 98.3688 98.4023 98.4365 98.4714 98.5067 98.5427 98.5794 98.6166 98.6543 98.6928 98.7318 98.7713 98.8115 98.8524 98.8937 98.9357 98.9784 99.0216 99.0653 99.1098 99.1548 99.2004 99.2465 99.2934 99.3407 99.3888 99.4373 99.4865 99.5363 99.5867 99.6377 99.6894 99.7416 99.7943 99.8478 99.9018 99.9564 100.0000 100.0000 100.0000 100.0000 100.0000 100.0000 100.0000 100.0000 100.0000 100.0000 100.0000 100.0000 100.0000 100.0000 100.0000 100.0000 100.0000 100.0000 100.0000 100.0000 100.0000 100.0000 100.0000 100.0000 100.0000 100.0000 100.0000 100.0000
100.0000 100.0000 100.0000 100.0000 100.0000 100.0000 100.0000 100.0000 100.0000 100.0000 100.0000 100.0000 100.0000 100.0000 100.0000 100.0000 100.0000 100.0000 100.0000 100.0000 100.0000 100.0000 100.0000 100.0000 100.0000 100.0000 100.0000 100.0000 99.9797 99.9252 99.8712 99.8178 99.7649 99.7127 99.6612 99.6102 99.5597 99.5100 99.4608 99.4121 99.3641 99.3167 99.2699 99.2237 99.1782 99.1332 99.0888 99.0450 99.0018 98.9591 98.9172 98.8757 98.8350 98.7947 98.7552 98.7161 98.6778 98.6399 98.6028 98.5661 98.5302 98.4947 98.4600 98.4257 98.3922 98.3591 98.3268 98.2950 98.2638 98.2331 98.2031 98.1737 98.1449 98.1167 98.0892 98.0622 98.0357 98.0100 97.9848 97.9601 97.9361 97.9128 97.8899 97.8678 97.8461 97.8251 97.8047 97.7849 97.7657 97.7472 97.7292 97.7117 97.6950 97.6787 97.6632 97.6482 97.6338 97.6200 97.6068 97.5941 97.5821 97.5708 97.5600 97.5498 97.5401 97.5311 97.5228 97.5149 97.5078 97.5011 97.4951 97.4898 97.4849 97.4808 97.4771 97.4741 97.4718 97.4699 97.4688 97.4681 97.4681 97.4688 97.4699 97.4718 97.4741 97.4771 97.4808 97.4849 97.4898 97.4951 97.5011 97.5078 97.5149 97.5228 97.5311 97.5401 97.5498 97.5600 97.5708 97.5821 97.5941 97.6068 97.6200 97.6338 97.6482 97.6632 97.6787 97.6950 97.7117 97.7292 97.7472 97.7657 97.7849 97.8047 97.8251 97.8461 97.8678 97.8899 97.9128 97.9361 97.9601 97.9848 98.0100 98.0357 98.0622 98.0892 98.1167 98.1449 98.1737 98.2031 98.2331 98.2638 98.2950 98.3268 98.3591 98.3922 98.4257 98.4600 98.4947 98.5302 98.5661 98.6028 98.6399 98.6778 98.7161 98.7552 98.7947 98.8350 98.8757 98.9172 98.9591 99.0018 99.0450 99.0888 99.1332 99.1782 99.2237 99.2699 99.3167 99.3641 99.4121 99.4608 99.5100 99.5597 99.6102 99.6612 99.7127 99.7649 99.8178 99.8712 99.9252 99.9797 100.0000 100.0000 100.0000 100.0000 100.0000 100.0000 100.0000 100.0000 100.0000 100.0000 100.0000 100.0000 100.0000 100.0000 100.0000 100.0000 100.0000 100.0000 100.0000 100.0000 100.0000 100.0000 100.0000 100.0000 100.0000 100.0000 100.0000 100.0000
100.0000 100.0000 100.0000 100.0000 100.0000 100.0000 100.0000 100.0000 100.0000 100.0000 100.0000 100.0000 100.0000 100.0000 100.0000 100.0000 100.0000 100.0000 100.0000 100.0000 100.0000 100.0000 100.0000 100.0000 100.0000 100.0000 100.0000 100.0000 100.0000 99.9492 99.8952 99.8418 99.7889 99.7368 99.6851 99.6342 99.5837 99.5340 99.4848 99.4361 99.3881 99.3407 99.2939 99.2477 99.2022 99.1572 99.1128 99.0690 99.0258 98.9831 98.9411 98.8997 98.8589 98.8187 98.7792 98.7401 98.7018 98.6639 98.6268 98.5901 98.5541 98.5187 98.4839 98.4497 98.4162 98.3832 98.3508 98.3190 98.2878 98.2571 98.2271 98.1977 98.1689 98.1407 98.1132 98.0862 98.0597 98.0340 98.0088 97.9841 97.9601 97.9368 97.9139 97.8918 97.8701 97.8491 97.8287 97.8089 97.7897 97.7712 97.7532 97.7357 97.7190 97.7027 97.6872 97.6722 97.6577 97.6440 97.6308 97.6181 97.6061 97.5948 97.5840 97.5738 97.5641 97.5551 97.5468 97.5389 97.5318 97.5251 97.5191 97.5138 97.5089 97.5048 97.5011 97.4981 97.4958 97.4939 97.4928 97.4921 97.4921 97.4928 97.4939 97.4958 97.4981 97.5011 97.5048 97.5089 97.5138 97.5191 97.5251 97.5318 97.5389 97.5468 97.5551 97.5641 97.5738 97.5840 97.5948 97.6061 97.6181 97.6308 97.6440 97.6577 97.6722 97.6872 97.7027 97.7190 97.7357 97.7532 97.7712 97.7897 97.8089 97.8287 97.8491 97.8701 97.8918 97.9139 97.9368 97.9601 97.9841 98.0088 98.0340 98.0597 98.0862 98.1132 98.1407 98.1689 98.1977 98.2271 98.2571 98.2878 98.3190 98.3508 98.3832 98.4162 98.4497 98.4839 98.5187 98.5541 98.5901 98.6268 98.6639 98.7018 98.7401 98.7792 98.8187 98.8589 98.8997 98.9411 98.9831 99.0258 99.0690 99.1128 99.1572 99.2022 99.2477 99.2939 99.3407 99.3881 99.4361 99.4848 99.5340 99.5837 99.6342 99.6851 99.7368 99.7889 99.8418 99.8952 99.9492 100.0000 100.0000 100.0000 100.0000 100.0000 100.0000 100.0000 100.0000 100.0000 100.0000 100.0000 100.0000 100.0000 100.0000 100.0000 100.0000 100.0000 100.0000 100.0000 100.0000 100.0000 100.0000 100.0000 100.0000 100.0000 100.0000 100.0000 100.0000 100.0000
100.0000 100.0000 100.0000 100.0000 100.0000 100.0000 100.0000 100.0000 100.0000 100.0000 100.0000 100.0000 100.0000 100.0000 100.0000 100.0000 100.0000 100.0000 100.0000 100.0000 100.0000 100.0000 100.0000 100.0000 100.0000 100.0000 100.0000 100.0000 100.0000 99.9737 99.9197 99.8663 99.8136 99.7613 99.7097 99.6587 99.6084 99.5585 99.5093 99.4608 99.4128 99.3654 99.3186 99.2724 99.2267 99.1817 99.1373 99.0935 99.0503 99.0078 98.9657 98.9244 98.8835 98.8434 98.8037 98.7648 98.7263 98.6886 98.6513 98.6148 98.5787 98.5434 98.5085 98.4744 98.4407 98.4077 98.3753 98.3435 98.3123 98.2818 98.2518 98.2224 98.1936 98.1654 98.1377 98.1107 98.0844 98.0585 98.0333 98.0088 97.9848 97.9613 97.9386 97.9163 97.8948 97.8738 97.8534 97.8336 97.8144 97.7957 97.7777 97.7604 97.7435 97.7274 97.7117 97.6967 97.6823 97.6685 97.6553 97.6428 97.6308 97.6193 97.6085 97.5983 97.5888 97.5798 97.5713 97.5636 97.5563 97.5498 97.5438 97.5383 97.5336 97.5293 97.5258 97.5228 97.5203 97.5186 97.5173 97.5168 97.5168 97.5173 97.5186 97.5203 97.5228 97.5258 97.5293 97.5336 97.5383 97.5438 97.5498 97.5563 97.5636 97.5713 97.5798 97.5888 97.5983 97.6085 97.6193 97.6308 97.6428 97.6553 97.6685 97.6823 97.6967 97.7117 97.7274 97.7435 97.7604 97.7777 97.7957 97.8144 97.8336 97.8534 97.8738 97.8948 97.9163 97.9386 97.9613 97.9848 98.0088 98.0333 98.0585 98.0844 98.1107 98.1377 98.1654 98.1936 98.2224 98.2518 98.2818 98.3123 98.3435 98.3753 98.4077 98.4407 98.4744 98.5085 98.5434 98.5787 98.6148 98.6513 98.6886 98.7263 98.7648 98.8037 98.8434 98.8835 98.9244 98.9657 99.0078 99.0503 99.0935 99.1373 99.1817 99.2267 99.2724 99.3186 99.3654 99.4128 99.4608 99.5093 99.5585 99.6084 99.6587 99.7097 99.7613 99.8136 99.8663 99.9197 99.9737 100.0000 100.0000 100.0000 100.0000 100.0000 100.0000 100.0000 100.0000 100.0000 100.0000 100.0000 100.0000 100.0000 100.0000 100.0000 100.0000 100.0000 100.0000 100.0000 100.0000 100.0000 100.0000 100.0000 100.0000 100.0000 100.0000 100.0000 100.0000 100.0000
100.0000 100.0000 100.0000 100.0000 100.0000 100.0000 100.0000 100.0000 100.0000 100.0000 100.0000 100.0000 100.0000 100.0000 100.0000 100.0000 100.0000 100.0000 100.0000 100.0000 100.0000 100.0000 100.0000 100.0000 100.0000 100.0000 100.0000 100.0000 100.0000 99.9989 99.9450 99.8915 99.8388 99.7866 99.7349 99.6839 99.6335 99.5837 99.5345 99.4860 99.4380 99.3906 99.3438 99.2976 99.2519 99.2070 99.1625 99.1188 99.0755 99.0329 98.9909 98.9496 98.9087 98.8685 98.8290 98.7900 98.7515 98.7138 98.6766 98.6399 98.6039 98.5686 98.5337 98.4995 98.4660 98.4330 98.4005 98.3688 98.3375 98.3070 98.2769 98.2476 98.2188 98.1906 98.1629 98.1359 98.1095 98.0837 98.0585 98.0340 98.0100 97.9865 97.9638 97.9416 97.9200 97.8989 97.8786 97.8588 97.8396 97.8209 97.8029 97.7856 97.7687 97.7525 97.7369 97.7220 97.7075 97.6937 97.6805 97.6680 97.6560 97.6445 97.6338 97.6235 97.6140 97.6050 97.5965 97.5888 97.5815 97.5750 97.5690 97.5636 97.5588 97.5546 97.5510 97.5480 97.5456 97.5438 97.5426 97.5419 97.5419 97.5426 97.5438 97.5456 97.5480 97.5510 97.5546 97.5588 97.5636 97.5690 97.5750 97.5815 97.5888 97.5965 97.6050 97.6140 97.6235 97.6338 97.6445 97.6560 97.6680 97.6805 97.6937 97.7075 97.7220 97.7369 97.7525 97.7687 97.7856 97.8029 97.8209 97.8396 97.8588 97.8786 97.8989 97.9200 97.9416 97.9638 97.9865 98.0100 98.0340 98.0585 98.0837 98.1095 98.1359 98.1629 98.1906 98.2188 98.2476 98.2769 98.3070 98.3375 98.3688 98.4005 98.4330 98.4660 98.4995 98.5337 98.5686 98.6039 98.6399 98.6766 98.7138 98.7515 98.7900 98.8290 98.8685 98.9087 98.9496 98.9909 99.0329 99.0755 99.1188 99.1625 99.2070 99.2519 99.2976 99.3438 99.3906 99.4380 99.4860 99.5345 99.5837 99.6335 99.6839 99.7349 99.7866 99.8388 99.8915 99.9450 99.9989 100.0000 100.0000 100.0000 100.0000 100.0000 100.0000 100.0000 100.0000 100.0000 100.0000 100.0000 100.0000 100.0000 100.0000 100.0000 100.0000 100.0000 100.0000 100.0000 100.0000 100.0000 100.0000 100.0000 100.0000 100.0000 100.0000 100.0000 100.0000 100.0000
100.0000 100.0000 100.0000 100.0000 100.0000 100.0000 100.0000 100.0000 100.0000 100.0000 100.0000 100.0000 100.0000 100.0000 100.0000 100.0000 100.0000 100.0000 100.0000 100.0000 100.0000 100.0000 100.0000 100.0000 100.0000 100.0000 100.0000 100.0000 100.0000 100.0000 99.9707 99.9173 99.8645 99.8123 99.7608 99.7097 99.6594 99.6095 99.5603 99.5118 99.4638 99.4163 99.3696 99.3234 99.2777 99.2327 99.1883 99.1445 99.1013 99.0588 99.0168 98.9754 98.9346 98.8944 98.8547 98.8157 98.7773 98.7395 98.7023 98.6658 98.6298 98.5944 98.5596 98.5254 98.4917 98.4587 98.4263 98.3945 98.3633 98.3328 98.3028 98.2733 98.2446 98.2164 98.1887 98.1617 98.1354 98.1095 98.0844 98.0597 98.0357 98.0123 97.9895 97.9673 97.9458 97.9248 97.9043 97.8846 97.8654 97.8468 97.8287 97.8114 97.7946 97.7784 97.7627 97.7477 97.7334 97.7195 97.7064 97.6937 97.6817 97.6703 97.6595 97.6493 97.6398 97.6308 97.6223 97.6145 97.6073 97.6008 97.5948 97.5893 97.5845 97.5803 97.5768 97.5738 97.5713 97.5696 97.5683 97.5678 97.5678 97.5683 97.5696 97.5713 97.5738 97.5768 97.5803 97.5845 97.5893 97.5948 97.6008 97.6073 97.6145 97.6223 97.6308 97.6398 97.6493 97.6595 97.6703 97.6817 97.6937 97.7064 97.7195 97.7334 97.7477 97.7627 97.7784 97.7946 97.8114 97.8287 97.8468 97.8654 97.8846 97.9043 97.9248 97.9458 97.9673 97.9895 98.0123 98.0357 98.0597 98.0844 98.1095 98.1354 98.1617 98.1887 98.2164 98.2446 98.2733 98.3028 98.3328 98.3633 98.3945 98.4263 98.4587 98.4917 98.5254 98.5596 98.5944 98.6298 98.6658 98.7023 98.7395 98.7773 98.8157 98.8547 98.8944 98.9346 98.9754 99.0168 99.0588 99.1013 99.1445 99.1883 99.2327 99.2777 99.3234 99.3696 99.4163 99.4638 99.5118 99.5603 99.6095 99.6594 99.7097 99.7608 99.8123 99.8645 99.9173 99.9707 100.0000 100.0000 100.0000 100.0000 100.0000 100.0000 100.0000 100.0000 100.0000 100.0000 100.0000 100.0000 100.0000 100.0000 100.0000 100.0000 100.0000 100.0000 100.0000 100.0000 100.0000 100.0000 100.0000 100.0000 100.0000 100.0000 100.0000 100.0000 100.0000 100.0000
100.0000 100.0000 100.0000 100.0000 100.0000 100.0000 100.0000 100.0000 100.0000 100.0000 100.0000 100.0000 100.0000 100.0000 100.0000 100.0000 100.0000 100.0000 100.0000 100.0000 100.0000 100.0000 100.0000 100.0000 100.0000 100.0000 100.0000 100.0000 100.0000 100.0000 99.9972 99.9437 99.8910 99.8388 99.7871 99.7361 99.6857 99.6359 99.5867 99.5382 99.4901 99.4428 99.3959 99.3498 99.3041 99.2592 99.2147 99.1710 99.1278 99.0851 99.0431 99.0018 98.9609 98.9207 98.8812 98.8422 98.8037 98.7660 98.7288 98.6921 98.6561 98.6208 98.5859 98.5517 98.5182 98.4852 98.4527 98.4210 98.3898 98.3591 98.3291 98.2998 98.2709 98.2428 98.2151 98.1881 98.1617 98.1359 98.1107 98.0862 98.0622 98.0387 98.0160 97.9938 97.9721 97.9511 97.9308 97.9109 97.8918 97.8731 97.8551 97.8377 97.8209 97.8047 97.7892 97.7742 97.7597 97.7459 97.7327 97.7202 97.7082 97.6967 97.6860 97.6757 97.6662 97.6572 97.6488 97.6410 97.6338 97.6272 97.6212 97.6158 97.6110 97.6068 97.6031 97.6001 97.5978 97.5960 97.5948 97.5941 97.5941 97.5948 97.5960 97.5978 97.6001 97.6031 97.6068 97.6110 97.6158 97.6212 97.6272 97.6338 97.6410 97.6488 97.6572 97.6662 97.6757 97.6860 97.6967 97.7082 97.7202 97.7327 97.7459 97.7597 97.7742 97.7892 97.8047 97.8209 97.8377 97.8551 97.8731 97.8918 97.9109 97.9308 97.9511 97.9721 97.9938 98.0160 98.0387 98.0622 98.0862 98.1107 98.1359 98.1617 98.1881 98.2151 98.2428 98.2709 98.2998 98.3291 98.3591 98.3898 98.4210 98.4527 98.4852 98.5182 98.5517 98.5859 98.6208 98.6561 98.6921 98.7288 98.7660 98.8037 98.8422 98.8812 98.9207 98.9609 99.0018 99.0431 99.0851 99.1278 99.1710 99.2147 99.2592 99.3041 99.3498 99.3959 99.4428 99.4901 99.5382 99.5867 99.6359 99.6857 99.7361 99.7871 99.8388 99.8910 99.9437 99.9972 100.0000 100.0000 100.0000 100.0000 100.0000 100.0000 100.0000 100.0000 100.0000 100.0000 100.0000 100.0000 100.0000 100.0000 100.0000 100.0000 100.0000 100.0000 100.0000 100.0000 100.0000 100.0000 100.0000 100.0000 100.0000 100.0000 100.0000 100.0000 100.0000 100.0000
100.0000 100.0000 100.0000 100.0000 100.0000 100.0000 100.0000 100.0000 100.0000 100.0000 100.0000 100.0000 100.0000 100.0000 100.0000 100.0000 100.0000 100.0000 100.0000 100.0000 100.0000 100.0000 100.0000 100.0000 100.0000 100.0000 100.0000 100.0000 100.0000 100.0000 100.0000 99.9707 99.9180 99.8658 99.8141 99.7631 99.7127 99.6629 99.6137 99.5652 99.5172 99.4698 99.4230 99.3768 99.3311 99.2862 99.2417 99.1980 99.1548 99.1121 99.0701 99.0288 98.9879 98.9477 98.9082 98.8692 98.8307 98.7930 98.7558 98.7191 98.6831 98.6478 98.6129 98.5787 98.5452 98.5122 98.4797 98.4480 98.4167 98.3862 98.3561 98.3268 98.2980 98.2698 98.2421 98.2151 98.1887 98.1629 98.1377 98.1132 98.0892 98.0657 98.0430 98.0208 97.9992 97.9781 97.9578 97.9380 97.9188 97.9001 97.8821 97.8648 97.8479 97.8317 97.8161 97.8012 97.7867 97.7729 97.7597 97.7472 97.7352 97.7237 97.7130 97.7027 97.6932 97.6842 97.6757 97.6680 97.6607 97.6542 97.6482 97.6428 97.6380 97.6338 97.6302 97.6272 97.6248 97.6230 97.6218 97.6212 97.6212 97.6218 97.6230 97.6248 97.6272 97.6302 97.6338 97.6380 97.6428 97.6482 97.6542 97.6607 97.6680 97.6757 97.6842 97.6932 97.7027 97.7130 97.7237 97.7352 97.7472 97.7597 97.7729 97.7867 97.8012 97.8161 97.8317 97.8479 97.8648 97.8821 97.9001 97.9188 97.9380 97.9578 97.9781 97.9992 98.0208 98.0430 98.0657 98.0892 98.1132 98.1377 98.1629 98.1887 98.2151 98.2421 98.2698 98.2980 98.3268 98.3561 98.3862 98.4167 98.4480 98.4797 98.5122 98.5452 98.5787 98.6129 98.6478 98.6831 98.7191 98.7558 98.7930 98.8307 98.8692 98.9082 98.9477 98.9879 99.0288 99.0701 99.1121 99.1548 99.1980 99.2417 99.2862 99.3311 99.3768 99.4230 99.4698 99.5172 99.5652 99.6137 99.6629 99.7127 99.7631 99.8141 99.8658 99.9180 99.9707 100.0000 100.0000 100.0000 100.0000 100.0000 100.0000 100.0000 100.0000 100.0000 100.0000 100.0000 100.0000 100.0000 100.0000 100.0000 100.0000 100.0000 100.0000 100.0000 100.0000 100.0000 100.0000 100.0000 100.0000 100.0000 100.0000 100.0000 100.0000 100.0000 100.0000 100.0000
100.0000 100.0000 100.0000 100.0000 100.0000 100.0000 100.0000 100.0000 100.0000 100.0000 100.0000 100.0000 100.0000 100.0000 100.0000 100.0000 100.0000 100.0000 100.0000 100.0000 100.0000 100.0000 100.0000 100.0000 100.0000 100.0000 100.0000 100.0000 100.0000 100.0000 100.0000 99.9984 99.9455 99.8933 99.8418 99.7908 99.7404 99.6906 99.6414 99.5927 99.5447 99.4973 99.4505 99.4043 99.3588 99.3137 99.2694 99.2255 99.1823 99.1398 99.0978 99.0563 99.0156 98.9754 98.9357 98.8967 98.8584 98.8205 98.7833 98.7468 98.7108 98.6753 98.6406 98.6064 98.5727 98.5397 98.5074 98.4755 98.4444 98.4137 98.3838 98.3543 98.3256 98.2973 98.2698 98.2428 98.2164 98.1906 98.1654 98.1407 98.1167 98.0934 98.0705 98.0483 98.0268 98.0058 97.9853 97.9655 97.9463 97.9278 97.9098 97.8923 97.8756 97.8594 97.8438 97.8287 97.8144 97.8006 97.7874 97.7747 97.7627 97.7514 97.7405 97.7304 97.7207 97.7117 97.7034 97.6955 97.6883 97.6817 97.6757 97.6703 97.6655 97.6613 97.6577 97.6548 97.6523 97.6505 97.6493 97.6488 97.6488 97.6493 97.6505 97.6523 97.6548 97.6577 97.6613 97.6655 97.6703 97.6757 97.6817 97.6883 97.6955 97.7034 97.7117 97.7207 97.7304 97.7405 97.7514 97.7627 97.7747 97.7874 97.8006 97.8144 97.8287 97.8438 97.8594 97.8756 97.8923 97.9098 97.9278 97.9463 97.9655 97.9853 98.0058 98.0268 98.0483 98.0705 98.0934 98.1167 98.1407 98.1654 98.1906 98.2164 98.2428 98.2698 98.2973 98.3256 98.3543 98.3838 98.4137 98.4444 98.4755 98.5074 98.5397 98.5727 98.6064 98.6406 98.6753 98.7108 98.7468 98.7833 98.8205 98.8584 98.8967 98.9357 98.9754 99.0156 99.0563 99.0978 99.1398 99.1823 99.2255 99.2694 99.3137 99.3588 99.4043 99.4505 99.4973 99.5447 99.5927 99.6414 99.6906 99.7404 99.7908 99.8418 99.8933 99.9455 99.9984 100.0000 100.0000 100.0000 100.0000 100.0000 100.0000 100.0000 100.0000 100.0000 100.0000 100.0000 100.0000 100.0000 100.0000 100.0000 100.0000 100.0000 100.0000 100.0000 100.0000 100.0000 100.0000 100.0000 100.0000 100.0000 100.0000 100.0000 100.0000 100.0000 100.0000 100.0000
100.0000 100.0000 100.0000 100.0000 100.0000 100.0000 100.0000 100.0000 100.0000 100.0000 100.0000 100.0000 100.0000 100.0000 100.0000 100.0000 100.0000 100.0000 100.0000 100.0000 100.0000 100.0000 100.0000 100.0000 100.0000 100.0000 100.0000 100.0000 100.0000 100.0000 100.0000 100.0000 99.9737 99.9215 99.8700 99.8190 99.7686 99.7188 99.6696 99.6209 99.5730 99.5255 99.4788 99.4326 99.3869 99.3419 99.2976 99.2537 99.2105 99.1680 99.1260 99.0846 99.0438 99.0036 98.9639 98.9249 98.8865 98.8487 98.8115 98.7750 98.7390 98.7036 98.6688 98.6346 98.6009 98.5679 98.5356 98.5037 98.4725 98.4420 98.4120 98.3825 98.3538 98.3256 98.2980 98.2709 98.2446 98.2188 98.1936 98.1689 98.1449 98.1215 98.0987 98.0765 98.0550 98.0340 98.0135 97.9938 97.9745 97.9560 97.9380 97.9206 97.9038 97.8876 97.8719 97.8569 97.8426 97.8287 97.8156 97.8029 97.7909 97.7796 97.7687 97.7585 97.7489 97.7399 97.7315 97.7237 97.7165 97.7100 97.7040 97.6985 97.6937 97.6895 97.6860 97.6830 97.6805 97.6787 97.6775 97.6770 97.6770 97.6775 97.6787 97.6805 97.6830 97.6860 97.6895 97.6937 97.6985 97.7040 97.7100 97.7165 97.7237 97.7315 97.7399 97.7489 97.7585 97.7687 97.7796 97.7909 97.8029 97.8156 97.8287 97.8426 97.8569 97.8719 97.8876 97.9038 97.9206 97.9380 97.9560 97.9745 97.9938 98.0135 98.0340 98.0550 98.0765 98.0987 98.1215 98.1449 98.1689 98.1936 98.2188 98.2446 98.2709 98.2980 98.3256 98.3538 98.3825 98.4120 98.4420 98.4725 98.5037 98.5356 98.5679 98.6009 98.6346 98.6688 98.7036 98.7390 98.7750 98.8115 98.8487 98.8865 98.9249 98.9639 99.0036 99.0438 99.0846 99.1260 99.1680 99.2105 99.2537 99.2976 99.3419 99.3869 99.4326 99.4788 99.5255 99.5730 99.6209 99.6696 99.7188 99.7686 99.8190 99.8700 99.9215 99.9737 100.0000 100.0000 100.0000 100.0000 100.0000 100.0000 100.0000 100.0000 100.0000 100.0000 100.0000 100.0000 100.0000 100.0000 100.0000 100.0000 100.0000 100.0000 100.0000 100.0000 100.0000 100.0000 100.0000 100.0000 100.0000 100.0000 100.0000 100.0000 100.0000 100.0000 100.0000 100.0000
100.0000 100.0000 100.0000 100.0000 100.0000 100.0000 100.0000 100.0000 100.0000 100.0000 100.0000 100.0000 100.0000 100.0000 100.0000 100.0000 100.0000 100.0000 100.0000 100.0000 100.0000 100.0000 100.0000 100.0000 100.0000 100.0000 100.0000 100.0000 100.0000 100.0000 100.0000 100.0000 100.0000 99.9504 99.8988 99.8478 99.7973 99.7476 99.6984 99.6497 99.6017 99.5543 99.5075 99.4613 99.4158 99.3708 99.3264 99.2826 99.2394 99.1967 99.1548 99.1133 99.0726 99.0323 98.9928 98.9537 98.9154 98.8775 98.8404 98.8037 98.7678 98.7323 98.6976 98.6633 98.6298 98.5968 98.5644 98.5326 98.5014 98.4707 98.4407 98.4113 98.3825 98.3543 98.3268 98.2998 98.2733 98.2476 98.2224 98.1977 98.1737 98.1504 98.1275 98.1054 98.0837 98.0627 98.0423 98.0225 98.0033 97.9848 97.9668 97.9493 97.9326 97.9163 97.9008 97.8858 97.8714 97.8576 97.8444 97.8317 97.8197 97.8084 97.7976 97.7874 97.7777 97.7687 97.7604 97.7525 97.7454 97.7387 97.7327 97.7274 97.7225 97.7184 97.7147 97.7117 97.7094 97.7075 97.7064 97.7057 97.7057 97.7064 97.7075 97.7094 97.7117 97.7147 97.7184 97.7225 97.7274 97.7327 97.7387 97.7454 97.7525 97.7604 97.7687 97.7777 97.7874 97.7976 97.8084 97.8197 97.8317 97.8444 97.8576 97.8714 97.8858 97.9008 97.9163 97.9326 97.9493 97.9668 97.9848 98.0033 98.0225 98.0423 98.0627 98.0837 98.1054 98.1275 98.1504 98.1737 98.1977 98.2224 98.2476 98.2733 98.2998 98.3268 98.3543 98.3825 98.4113 98.4407 98.4707 98.5014 98.5326 98.5644 98.5968 98.6298 98.6633 98.6976 98.7323 98.7678 98.8037 98.8404 98.8775 98.9154 98.9537 98.9928 99.0323 99.0726 99.1133 99.1548 99.1967 99.2394 99.2826 99.3264 99.3708 99.4158 99.4613 99.5075 99.5543 99.6017 99.6497 99.6984 99.7476 99.7973 99.8478 99.8988 99.9504 100.0000 100.0000 100.0000 100.0000 100.0000 100.0000 100.0000 100.0000 100.0000 100.0000 100.0000 100.0000 100.0000 100.0000 100.0000 100.0000 100.0000 100.0000 100.0000 100.0000 100.0000 100.0000 100.0000 100.0000 100.0000 100.0000 100.0000 100.0000 100.0000 100.0000 100.0000 100.0000 100.0000
100.0000 100.0000 100.0000 100.0000 100.0000 100.0000 100.0000 100.0000 100.0000 100.0000 100.0000 100.0000 100.0000 100.0000 100.0000 100.0000 100.0000 100.0000 100.0000 100.0000 100.0000 100.0000 100.0000 100.0000 100.0000 100.0000 100.0000 100.0000 100.0000 100.0000 100.0000 100.0000 100.0000 99.9797 99.9282 99.8772 99.8268 99.7769 99.7278 99.6791 99.6312 99.5837 99.5370 99.4908 99.4451 99.4001 99.3558 99.3119 99.2687 99.2262 99.1842 99.1428 99.1020 99.0618 99.0221 98.9831 98.9447 98.9069 98.8697 98.8332 98.7972 98.7618 98.7270 98.6928 98.6591 98.6261 98.5938 98.5619 98.5307 98.5002 98.4702 98.4407 98.4120 98.3838 98.3561 98.3291 98.3028 98.2769 98.2518 98.2271 98.2031 98.1797 98.1569 98.1347 98.1132 98.0922 98.0717 98.0520 98.0327 98.0142 97.9962 97.9788 97.9620 97.9458 97.9301 97.9151 97.9008 97.8869 97.8738 97.8611 97.8491 97.8377 97.8269 97.8167 97.8072 97.7982 97.7897 97.7819 97.7747 97.7682 97.7622 97.7567 97.7519 97.7477 97.7442 97.7412 97.7387 97.7369 97.7357 97.7352 97.7352 97.7357 97.7369 97.7387 97.7412 97.7442 97.7477 97.7519 97.7567 97.7622 97.7682 97.7747 97.7819 97.7897 97.7982 97.8072 97.8167 97.8269 97.8377 97.8491 97.8611 97.8738 97.8869 97.9008 97.9151 97.9301 97.9458 97.9620 97.9788 97.9962 98.0142 98.0327 98.0520 98.0717 98.0922 98.1132 98.1347 98.1569 98.1797 98.2031 98.2271 98.2518 98.2769 98.3028 98.3291 98.3561 98.3838 98.4120 98.4407 98.4702 98.5002 98.5307 98.5619 98.5938 98.6261 98.6591 98.6928 98.7270 98.7618 98.7972 98.8332 98.8697 98.9069 98.9447 98.9831 99.0221 99.0618 99.1020 99.1428 99.1842 99.2262 99.2687 99.3119 99.3558 99.4001 99.4451 99.4908 99.5370 99.5837 99.6312 99.6791 99.7278 99.7769 99.8268 99.8772 99.9282 99.9797 100.0000 100.0000 100.0000 100.0000 100.0000 100.0000 100.0000 100.0000 100.0000 100.0000 100.0000 100.0000 100.0000 100.0000 100.0000 100.0000 100.0000 100.0000 100.0000 100.0000 100.0000 100.0000 100.0000 100.0000 100.0000 100.0000 100.0000 100.0000 100.0000 100.0000 100.0000 100.0000 100.0000
100.0000 100.0000 100.0000 100.0000 100.0000 100.0000 100.0000 100.0000 100.0000 100.0000 100.0000 100.0000 100.0000 100.0000 100.0000 100.0000 100.0000 100.0000 100.0000 100.0000 100.0000 100.0000 100.0000 100.0000 100.0000 100.0000 100.0000 100.0000 100.0000 100.0000 100.0000 100.0000 100.0000 100.0000 99.9582 99.9072 99.8568 99.8070 99.7578 99.7091 99.6612 99.6137 99.5670 99.5208 99.4751 99.4301 99.3858 99.3419 99.2987 99.2562 99.2142 99.1727 99.1320 99.0918 99.0521 99.0131 98.9748 98.9369 98.8997 98.8632 98.8272 98.7917 98.7570 98.7228 98.6891 98.6561 98.6238 98.5919 98.5607 98.5302 98.5002 98.4707 98.4420 98.4137 98.3862 98.3591 98.3328 98.3070 98.2818 98.2571 98.2331 98.2097 98.1869 98.1647 98.1432 98.1222 98.1017 98.0820 98.0627 98.0442 98.0262 98.0088 97.9920 97.9758 97.9601 97.9451 97.9308 97.9169 97.9038 97.8911 97.8791 97.8678 97.8569 97.8468 97.8371 97.8281 97.8197 97.8119 97.8047 97.7982 97.7922 97.7867 97.7819 97.7777 97.7742 97.7712 97.7687 97.7669 97.7657 97.7652 97.7652 97.7657 97.7669 97.7687 97.7712 97.7742 97.7777 97.7819 97.7867 97.7922 97.7982 97.8047 97.8119 97.8197 97.8281 97.8371 97.8468 97.8569 97.8678 97.8791 97.8911 97.9038 97.9169 97.9308 97.9451 97.9601 97.9758 97.9920 98.0088 98.0262 98.0442 98.0627 98.0820 98.1017 98.1222 98.1432 98.1647 98.1869 98.2097 98.2331 98.2571 98.2818 98.3070 98.3328 98.3591 98.3862 98.4137 98.4420 98.4707 98.5002 98.5302 98.5607 98.5919 98.6238 98.6561 98.6891 98.7228 98.7570 98.7917 98.8272 98.8632 98.8997 98.9369 98.9748 99.0131 99.0521 99.0918 99.1320 99.1727 99.2142 99.2562 99.2987 99.3419 99.3858 99.4301 99.4751 99.5208 99.5670 99.6137 99.6612 99.7091 99.7578 99.8070 99.8568 99.9072 99.9582 100.0000 100.0000 100.0000 100.0000 100.0000 100.0000 100.0000 100.0000 100.0000 100.0000 100.0000 100.0000 100.0000 100.0000 100.0000 100.0000 100.0000 100.0000 100.0000 100.0000 100.0000 100.0000 100.0000 100.0000 100.0000 100.0000 100.0000 100.0000 100.0000 100.0000 100.0000 100.0000 100.0000 100.0000
100.0000 100.0000 100.0000 100.0000 100.0000 100.0000 100.0000 100.0000 100.0000 100.0000 100.0000 100.0000 100.0000 100.0000 100.0000 100.0000 100.0000 100.0000 100.0000 100.0000 100.0000 100.0000 100.0000 100.0000 100.0000 100.0000 100.0000 100.0000 100.0000 100.0000 100.0000 100.0000 100.0000 100.0000 99.9887 99.9377 99.8873 99.8375 99.7883 99.7398 99.6917 99.6444 99.5975 99.5513 99.5058 99.4608 99.4163 99.3726 99.3294 99.2867 99.2447 99.2034 99.1625 99.1223 99.0828 99.0438 99.0053 98.9676 98.9304 98.8937 98.8577 98.8224 98.7875 98.7533 98.7198 98.6868 98.6543 98.6226 98.5914 98.5607 98.5307 98.5014 98.4725 98.4444 98.4167 98.3898 98.3633 98.3375 98.3123 98.2878 98.2638 98.2404 98.2176 98.1954 98.1737 98.1527 98.1324 98.1125 98.0934 98.0747 98.0567 98.0393 98.0225 98.0063 97.9908 97.9758 97.9613 97.9476 97.9343 97.9218 97.9098 97.8983 97.8876 97.8774 97.8678 97.8588 97.8504 97.8426 97.8354 97.8287 97.8227 97.8174 97.8126 97.8084 97.8047 97.8017 97.7994 97.7976 97.7964 97.7957 97.7957 97.7964 97.7976 97.7994 97.8017 97.8047 97.8084 97.8126 97.8174 97.8227 97.8287 97.8354 97.8426 97.8504 97.8588 97.8678 97.8774 97.8876 97.8983 97.9098 97.9218 97.9343 97.9476 97.9613 97.9758 97.9908 98.0063 98.0225 98.0393 98.0567 98.0747 98.0934 98.1125 98.1324 98.1527 98.1737 98.1954 98.2176 98.2404 98.2638 98.2878 98.3123 98.3375 98.3633 98.3898 98.4167 98.4444 98.4725 98.5014 98.5307 98.5607 98.5914 98.6226 98.6543 98.6868 98.7198 98.7533 98.7875 98.8224 98.8577 98.8937 98.9304 98.9676 99.0053 99.0438 99.0828 99.1223 99.1625 99.2034 99.2447 99.2867 99.3294 99.3726 99.4163 99.4608 99.5058 99.5513 99.5975 99.6444 99.6917 99.7398 99.7883 99.8375 99.8873 99.9377 99.9887 100.0000 100.0000 100.0000 100.0000 100.0000 100.0000 100.0000 100.0000 100.0000 100.0000 100.0000 100.0000 100.0000 100.0000 100.0000 100.0000 100.0000 100.0000 100.0000 100.0000 100.0000 100.0000 100.0000 100.0000 100.0000 100.0000 100.0000 100.0000 100.0000 100.0000 100.0000 100.0000 100.0000 100.0000
100.0000 100.0000 100.0000 100.0000 100.0000 100.0000 100.0000 100.0000 100.0000 100.0000 100.0000 100.0000 100.0000 100.0000 100.0000 100.0000 100.0000 100.0000 100.0000 100.0000 100.0000 100.0000 100.0000 100.0000 100.0000 100.0000 100.0000 100.0000 100.0000 100.0000 100.0000 100.0000 100.0000 100.0000 100.0000 99.9690 99.9185 99.8688 99.8196 99.7709 99.7229 99.6756 99.6287 99.5825 99.5370 99.4920 99.4476 99.4038 99.3606 99.3179 99.2759 99.2345 99.1937 99.1535 99.1140 99.0750 99.0366 98.9988 98.9616 98.9249 98.8889 98.8535 98.8187 98.7845 98.7510 98.7180 98.6856 98.6538 98.6226 98.5919 98.5619 98.5326 98.5037 98.4755 98.4480 98.4210 98.3945 98.3688 98.3435 98.3190 98.2950 98.2716 98.2488 98.2266 98.2049 98.1839 98.1636 98.1437 98.1245 98.1060 98.0880 98.0705 98.0537 98.0375 98.0220 98.0070 97.9925 97.9788 97.9655 97.9530 97.9410 97.9296 97.9188 97.9086 97.8989 97.8899 97.8816 97.8738 97.8666 97.8599 97.8539 97.8486 97.8438 97.8396 97.8359 97.8329 97.8306 97.8287 97.8276 97.8269 97.8269 97.8276 97.8287 97.8306 97.8329 97.8359 97.8396 97.8438 97.8486 97.8539 97.8599 97.8666 97.8738 97.8816 97.8899 97.8989 97.9086 97.9188 97.9296 97.9410 97.9530 97.9655 97.9788 97.9925 98.0070 98.0220 98.0375 98.0537 98.0705 98.0880 98.1060 98.1245 98.1437 98.1636 98.1839 98.2049 98.2266 98.2488 98.2716 98.2950 98.3190 98.3435 98.3688 98.3945 98.4210 98.4480 98.4755 98.5037 98.5326 98.5619 98.5919 98.6226 98.6538 98.6856 98.7180 98.7510 98.7845 98.8187 98.8535 98.8889 98.9249 98.9616 98.9988 99.0366 99.0750 99.1140 99.1535 99.1937 99.2345 99.2759 99.3179 99.3606 99.4038 99.4476 99.4920 99.5370 99.5825 99.6287 99.6756 99.7229 99.7709 99.8196 99.8688 99.9185 99.9690 100.0000 100.0000 100.0000 100.0000 100.0000 100.0000 100.0000 100.0000 100.0000 100.0000 100.0000 100.0000 100.0000 100.0000 100.0000 100.0000 100.0000 100.0000 100.0000 100.0000 100.0000 100.0000 100.0000 100.0000 100.0000 100.0000 100.0000 100.0000 100.0000 100.0000 100.0000 100.0000 100.0000 100.0000 100.0000
100.0000 100.0000 100.0000 100.0000 100.0000 100.0000 100.0000 100.0000 100.0000 100.0000 100.0000 100.0000 100.0000 100.0000 100.0000 100.0000 100.0000 100.0000 100.0000 100.0000 100.0000 100.0000 100.0000 100.0000 100.0000 100.0000 100.0000 100.0000 100.0000 100.0000 100.0000 100.0000 100.0000 100.0000 100.0000 100.0000 99.9504 99.9005 99.8513 99.8028 99.7548 99.7074 99.6606 99.6144 99.5687 99.5238 99.4793 99.4356 99.3923 99.3498 99.3077 99.2664 99.2255 99.1853 99.1458 99.1068 99.0683 99.0306 98.9934 98.9567 98.9207 98.8854 98.8505 98.8163 98.7827 98.7498 98.7173 98.6856 98.6543 98.6238 98.5938 98.5644 98.5356 98.5074 98.4797 98.4527 98.4263 98.4005 98.3753 98.3508 98.3268 98.3033 98.2806 98.2584 98.2368 98.2157 98.1954 98.1756 98.1564 98.1377 98.1197 98.1024 98.0855 98.0694 98.0537 98.0387 98.0243 98.0105 97.9973 97.9848 97.9728 97.9613 97.9506 97.9403 97.9308 97.9218 97.9133 97.9056 97.8983 97.8918 97.8858 97.8803 97.8756 97.8714 97.8678 97.8648 97.8624 97.8606 97.8594 97.8588 97.8588 97.8594 97.8606 97.8624 97.8648 97.8678 97.8714 97.8756 97.8803 97.8858 97.8918 97.8983 97.9056 97.9133 97.9218 97.9308 97.9403 97.9506 97.9613 97.9728 97.9848 97.9973 98.0105 98.0243 98.0387 98.0537 98.0694 98.0855 98.1024 98.1197 98.1377 98.1564 98.1756 98.1954 98.2157 98.2368 98.2584 98.2806 98.3033 98.3268 98.3508 98.3753 98.4005 98.4263 98.4527 98.4797 98.5074 98.5356 98.5644 98.5938 98.6238 98.6543 98.6856 98.7173 98.7498 98.7827 98.8163 98.8505 98.8854 98.9207 98.9567 98.9934 99.0306 99.0683 99.1068 99.1458 99.1853 99.2255 99.2664 99.3077 99.3498 99.3923 99.4356 99.4793 99.5238 99.5687 99.6144 99.6606 99.7074 99.7548 99.8028 99.8513 99.9005 99.9504 100.0000 100.0000 100.0000 100.0000 100.0000 100.0000 100.0000 100.0000 100.0000 100.0000 100.0000 100.0000 100.0000 100.0000 100.0000 100.0000 100.0000 100.0000 100.0000 100.0000 100.0000 100.0000 100.0000 100.0000 100.0000 100.0000 100.0000 100.0000 100.0000 100.0000 100.0000 100.0000 100.0000 100.0000 100.0000 100.0000
100.0000 100.0000 100.0000 100.0000 100.0000 100.0000 100.0000 100.0000 100.0000 100.0000 100.0000 100.0000 100.0000 100.0000 100.0000 100.0000 100.0000 100.0000 100.0000 100.0000 100.0000 100.0000 100.0000 100.0000 100.0000 100.0000 100.0000 100.0000 100.0000 100.0000 100.0000 100.0000 100.0000 100.0000 100.0000 100.0000 99.9827 99.9330 99.8838 99.8351 99.7871 99.7398 99.6929 99.6467 99.6012 99.5562 99.5118 99.4680 99.4248 99.3821 99.3401 99.2987 99.2579 99.2177 99.1782 99.1392 99.1008 99.0630 99.0258 98.9891 98.9531 98.9177 98.8829 98.8487 98.8152 98.7822 98.7498 98.7180 98.6868 98.6561 98.6261 98.5968 98.5679 98.5397 98.5122 98.4852 98.4587 98.4330 98.4077 98.3832 98.3591 98.3358 98.3130 98.2908 98.2691 98.2481 98.2278 98.2079 98.1887 98.1702 98.1522 98.1347 98.1179 98.1017 98.0862 98.0712 98.0567 98.0430 98.0298 98.0172 98.0052 97.9938 97.9830 97.9728 97.9631 97.9541 97.9458 97.9380 97.9308 97.9241 97.9181 97.9128 97.9079 97.9038 97.9001 97.8971 97.8948 97.8929 97.8918 97.8911 97.8911 97.8918 97.8929 97.8948 97.8971 97.9001 97.9038 97.9079 97.9128 97.9181 97.9241 97.9308 97.9380 97.9458 97.9541 97.9631 97.9728 97.9830 97.9938 98.0052 98.0172 98.0298 98.0430 98.0567 98.0712 98.0862 98.1017 98.1179 98.1347 98.1522 98.1702 98.1887 98.2079 98.2278 98.2481 98.2691 98.2908 98.3130 98.3358 98.3591 98.3832 98.4077 98.4330 98.4587 98.4852 98.5122 98.5397 98.5679 98.5968 98.6261 98.6561 98.6868 98.7180 98.7498 98.7822 98.8152 98.8487 98.8829 98.9177 98.9531 98.9891 99.0258 99.0630 99.1008 99.1392 99.1782 99.2177 99.2579 99.2987 99.3401 99.3821 99.4248 99.4680 99.5118 99.5562 99.6012 99.6467 99.6929 99.7398 99.7871 99.8351 99.8838 99.9330 99.9827 100.0000 100.0000 100.0000 100.0000 100.0000 100.0000 100.0000 100.0000 100.0000 100.0000 100.0000 100.0000 100.0000 100.0000 100.0000 100.0000 100.0000 100.0000 100.0000 100.0000 100.0000 100.0000 100.0000 100.0000 100.0000 100.0000 100.0000 100.0000 100.0000 100.0000 100.0000 100.0000 100.0000 100.0000 100.0000 100.0000
100.0000 100.0000 100.0000 100.0000 100.0000 100.0000 100.0000 100.0000 100.0000 100.0000 100.0000 100.0000 100.0000 100.0000 100.0000 100.0000 100.0000 100.0000 100.0000 100.0000 100.0000 100.0000 100.0000 100.0000 100.0000 100.0000 100.0000 100.0000 100.0000 100.0000 100.0000 100.0000 100.0000 100.0000 100.0000 100.0000 100.0000 99.9660 99.9167 99.8681 99.8201 99.7728 99.7259 99.6797 99.6342 99.5892 99.5447 99.5010 99.4578 99.4151 99.3731 99.3317 99.2909 99.2507 99.2112 99.1722 99.1338 99.0960 99.0588 99.0221 98.9861 98.9507 98.9159 98.8817 98.8482 98.8152 98.7827 98.7510 98.7198 98.6891 98.6591 98.6298 98.6009 98.5727 98.5452 98.5182 98.4917 98.4660 98.4407 98.4162 98.3922 98.3688 98.3460 98.3238 98.3021 98.2811 98.2608 98.2409 98.2218 98.2031 98.1851 98.1677 98.1509 98.1347 98.1192 98.1042 98.0897 98.0760 98.0627 98.0502 98.0382 98.0268 98.0160 98.0058 97.9962 97.9871 97.9788 97.9710 97.9638 97.9571 97.9511 97.9458 97.9410 97.9368 97.9331 97.9301 97.9278 97.9260 97.9248 97.9241 97.9241 97.9248 97.9260 97.9278 97.9301 97.9331 97.9368 97.9410 97.9458 97.9511 97.9571 97.9638 97.9710 97.9788 97.9871 97.9962 98.0058 98.0160 98.0268 98.0382 98.0502 98.0627 98.0760 98.0897 98.1042 98.1192 98.1347 98.1509 98.1677 98.1851 98.2031 98.2218 98.2409 98.2608 98.2811 98.3021 98.3238 98.3460 98.3688 98.3922 98.4162 98.4407 98.4660 98.4917 98.5182 98.5452 98.5727 98.6009 98.6298 98.6591 98.6891 98.7198 98.7510 98.7827 98.8152 98.8482 98.8817 98.9159 98.9507 98.9861 99.0221 99.0588 99.0960 99.1338 99.1722 99.2112 99.2507 99.2909 99.3317 99.3731 99.4151 99.4578 99.5010 99.5447 99.5892 99.6342 99.6797 99.7259 99.7728 99.8201 99.8681 99.9167 99.9660 100.0000 100.0000 100.0000 100.0000 100.0000 100.0000 100.0000 100.0000 100.0000 100.0000 100.0000 100.0000 100.0000 100.0000 100.0000 100.0000 100.0000 100.0000 100.0000 100.0000 100.0000 100.0000 100.0000 100.0000 100.0000 100.0000 100.0000 100.0000 100.0000 100.0000 100.0000 100.0000 100.0000 100.0000 100.0000 100.0000 100.0000
100.0000 100.0000 100.0000 100.0000 100.0000 100.0000 100.0000 100.0000 100.0000 100.0000 100.0000 100.0000 100.0000 100.0000 100.0000 100.0000 100.0000 100.0000 100.0000 100.0000 100.0000 100.0000 100.0000 100.0000 100.0000 100.0000 100.0000 100.0000 100.0000 100.0000 100.0000 100.0000 100.0000 100.0000 100.0000 100.0000 100.0000 99.9995 99.9504 99.9018 99.8538 99.8063 99.7596 99.7134 99.6677 99.6227 99.5784 99.5345 99.4913 99.4488 99.4068 99.3654 99.3246 99.2844 99.2447 99.2057 99.1673 99.1295 99.0923 99.0558 99.0198 98.9844 98.9496 98.9154 98.8817 98.8487 98.8163 98.7845 98.7533 98.7228 98.6928 98.6633 98.6346 98.6064 98.5787 98.5517 98.5254 98.4995 98.4744 98.4497 98.4257 98.4023 98.3795 98.3573 98.3358 98.3148 98.2943 98.2746 98.2553 98.2368 98.2188 98.2014 98.1846 98.1684 98.1527 98.1377 98.1234 98.1095 98.0964 98.0837 98.0717 98.0603 98.0495 98.0393 98.0298 98.0208 98.0123 98.0045 97.9973 97.9908 97.9848 97.9793 97.9745 97.9703 97.9668 97.9638 97.9613 97.9596 97.9583 97.9578 97.9578 97.9583 97.9596 97.9613 97.9638 97.9668 97.9703 97.9745 97.9793 97.9848 97.9908 97.9973 98.0045 98.0123 98.0208 98.0298 98.0393 98.0495 98.0603 98.0717 98.0837 98.0964 98.1095 98.1234 98.1377 98.1527 98.1684 98.1846 98.2014 98.2188 98.2368 98.2553 98.2746 98.2943 98.3148 98.3358 98.3573 98.3795 98.4023 98.4257 98.4497 98.4744 98.4995 98.5254 98.5517 98.5787 98.6064 98.6346 98.6633 98.6928 98.7228 98.7533 98.7845 98.8163 98.8487 98.8817 98.9154 98.9496 98.9844 99.0198 99.0558 99.0923 99.1295 99.1673 99.2057 99.2447 99.2844 99.3246 99.3654 99.4068 99.4488 99.4913 99.5345 99.5784 99.6227 99.6677 99.7134 99.7596 99.8063 99.8538 99.9018 99.9504 99.9995 100.0000 100.0000 100.0000 100.0000 100.0000 100.0000 100.0000 100.0000 100.0000 100.0000 100.0000 100.0000 100.0000 100.0000 100.0000 100.0000 100.0000 100.0000 100.0000 100.0000 100.0000 100.0000 100.0000 100.0000 100.0000 100.0000 100.0000 100.0000 100.0000 100.0000 100.0000 100.0000 100.0000 100.0000 100.0000 100.0000 100.0000
100.0000 100.0000 100.0000 100.0000 100.0000 100.0000 100.0000 100.0000 100.0000 100.0000 100.0000 100.0000 100.0000 100.0000 100.0000 100.0000 100.0000 100.0000 100.0000 100.0000 100.0000 100.0000 100.0000 100.0000 100.0000 100.0000 100.0000 100.0000 100.0000 100.0000 100.0000 100.0000 100.0000 100.0000 100.0000 100.0000 100.0000 100.0000 99.9845 99.9360 99.8880 99.8405 99.7938 99.7476 99.7019 99.6569 99.6125 99.5687 99.5255 99.4830 99.4410 99.3996 99.3588 99.3186 99.2789 99.2399 99.2015 99.1637 99.1265 99.0900 99.0540 99.0186 98.9838 98.9496 98.9159 98.8829 98.8505 98.8187 98.7875 98.7570 98.7270 98.6976 98.6688 98.6406 98.6129 98.5859 98.5596 98.5337 98.5085 98.4839 98.4600 98.4365 98.4137 98.3915 98.3700 98.3490 98.3286 98.3088 98.2896 98.2709 98.2529 98.2356 98.2188 98.2026 98.1869 98.1719 98.1576 98.1437 98.1305 98.1179 98.1060 98.0945 98.0837 98.0735 98.0640 98.0550 98.0465 98.0387 98.0315 98.0250 98.0190 98.0135 98.0088 98.0045 98.0010 97.9980 97.9955 97.9938 97.9925 97.9920 97.9920 97.9925 97.9938 97.9955 97.9980 98.0010 98.0045 98.0088 98.0135 98.0190 98.0250 98.0315 98.0387 98.0465 98.0550 98.0640 98.0735 98.0837 98.0945 98.1060 98.1179 98.1305 98.1437 98.1576 98.1719 98.1869 98.2026 98.2188 98.2356 98.2529 98.2709 98.2896 98.3088 98.3286 98.3490 98.3700 98.3915 98.4137 98.4365 98.4600 98.4839 98.5085 98.5337 98.5596 98.5859 98.6129 98.6406 98.6688 98.6976 98.7270 98.7570 98.7875 98.8187 98.8505 98.8829 98.9159 98.9496 98.9838 99.0186 99.0540 99.0900 99.1265 99.1637 99.2015 99.2399 99.2789 99.3186 99.3588 99.3996 99.4410 99.4830 99.5255 99.5687 99.6125 99.6569 99.7019 99.7476 99.7938 99.8405 99.8880 99.9360 99.9845 100.0000 100.0000 100.0000 100.0000 100.0000 100.0000 100.0000 100.0000 100.0000 100.0000 100.0000 100.0000 100.0000 100.0000 100.0000 100.0000 100.0000 100.0000 100.0000 100.0000 100.0000 100.0000 100.0000 100.0000 100.0000 100.0000 100.0000 100.0000 100.0000 100.0000 100.0000 100.0000 100.0000 100.0000 100.0000 100.0000 100.0000 100.0000
100.0000 100.0000 100.0000 100.0000 100.0000 100.0000 100.0000 100.0000 100.0000 100.0000 100.0000 100.0000 100.0000 100.0000 100.0000 100.0000 100.0000 100.0000 100.0000 100.0000 100.0000 100.0000 100.0000 100.0000 100.0000 100.0000 100.0000 100.0000 100.0000 100.0000 100.0000 100.0000 100.0000 100.0000 100.0000 100.0000 100.0000 100.0000 100.0000 99.9707 99.9227 99.8753 99.8286 99.7823 99.7368 99.6917 99.6474 99.6035 99.5603 99.5178 99.4758 99.4343 99.3936 99.3534 99.3137 99.2747 99.2364 99.1985 99.1613 99.1248 99.0888 99.0533 99.0186 98.9844 98.9507 98.9177 98.8854 98.8535 98.8224 98.7917 98.7618 98.7323 98.7036 98.6753 98.6478 98.6208 98.5944 98.5686 98.5434 98.5187 98.4947 98.4714 98.4485 98.4263 98.4048 98.3838 98.3633 98.3435 98.3243 98.3058 98.2878 98.2703 98.2536 98.2374 98.2218 98.2067 98.1924 98.1786 98.1654 98.1527 98.1407 98.1294 98.1185 98.1084 98.0987 98.0897 98.0814 98.0735 98.0663 98.0597 98.0537 98.0483 98.0435 98.0393 98.0357 98.0327 98.0303 98.0285 98.0273 98.0268 98.0268 98.0273 98.0285 98.0303 98.0327 98.0357 98.0393 98.0435 98.0483 98.0537 98.0597 98.0663 98.0735 98.0814 98.0897 98.0987 98.1084 98.1185 98.1294 98.1407 98.1527 98.1654 98.1786 98.1924 98.2067 98.2218 98.2374 98.2536 98.2703 98.2878 98.3058 98.3243 98.3435 98.3633 98.3838 98.4048 98.4263 98.4485 98.4714 98.4947 98.5187 98.5434 98.5686 98.5944 98.6208 98.6478 98.6753 98.7036 98.7323 98.7618 98.7917 98.8224 98.8535 98.8854 98.9177 98.9507 98.9844 99.0186 99.0533 99.0888 99.1248 99.1613 99.1985 99.2364 99.2747 99.3137 99.3534 99.3936 99.4343 99.4758 99.5178 99.5603 99.6035 99.6474 99.6917 99.7368 99.7823 99.8286 99.8753 99.9227 99.9707 100.0000 100.0000 100.0000 100.0000 100.0000 100.0000 100.0000 100.0000 100.0000 100.0000 100.0000 100.0000 100.0000 100.0000 100.0000 100.0000 100.0000 100.0000 100.0000 100.0000 100.0000 100.0000 100.0000 100.0000 100.0000 100.0000 100.0000 100.0000 100.0000 100.0000 100.0000 100.0000 100.0000 100.0000 100.0000 100.0000 100.0000 100.0000 100.0000
100.0000 100.0000 100.0000 100.0000 100.0000 100.0000 100.0000 100.0000 100.0000 100.0000 100.0000 100.0000 100.0000 100.0000 100.0000 100.0000 100.0000 100.0000 100.0000 100.0000 100.0000 100.0000 100.0000 100.0000 100.0000 100.0000 100.0000 100.0000 100.0000 100.0000 100.0000 100.0000 100.0000 100.0000 100.0000 100.0000 100.0000 100.0000 100.0000 100.0000 99.9582 99.9107 99.8640 99.8178 99.7721 99.7271 99.6827 99.6389 99.5957 99.5532 99.5112 99.4698 99.4290 99.3888 99.3491 99.3101 99.2717 99.2339 99.1967 99.1602 99.1242 99.0888 99.0540 99.0198 98.9861 98.9531 98.9207 98.8889 98.8577 98.8272 98.7972 98.7678 98.7390 98.7108 98.6831 98.6561 98.6298 98.6039 98.5787 98.5541 98.5302 98.5067 98.4839 98.4617 98.4402 98.4192 98.3988 98.3790 98.3598 98.3411 98.3231 98.3058 98.2889 98.2728 98.2571 98.2421 98.2278 98.2139 98.2007 98.1881 98.1762 98.1647 98.1539 98.1437 98.1342 98.1252 98.1167 98.1089 98.1017 98.0952 98.0892 98.0837 98.0790 98.0747 98.0712 98.0682 98.0657 98.0640 98.0627 98.0622 98.0622 98.0627 98.0640 98.0657 98.0682 98.0712 98.0747 98.0790 98.0837 98.0892 98.0952 98.1017 98.1089 98.1167 98.1252 98.1342 98.1437 98.1539 98.1647 98.1762 98.1881 98.2007 98.2139 98.2278 98.2421 98.2571 98.2728 98.2889 98.3058 98.3231 98.3411 98.3598 98.3790 98.3988 98.4192 98.4402 98.4617 98.4839 98.5067 98.5302 98.5541 98.5787 98.6039 98.6298 98.6561 98.6831 98.7108 98.7390 98.7678 98.7972 98.8272 98.8577 98.8889 98.9207 98.9531 98.9861 99.0198 99.0540 99.0888 99.1242 99.1602 99.1967 99.2339 99.2717 99.3101 99.3491 99.3888 99.4290 99.4698 99.5112 99.5532 99.5957 99.6389 99.6827 99.7271 99.7721 99.8178 99.8640 99.9107 99.9582 100.0000 100.0000 100.0000 100.0000 100.0000 100.0000 100.0000 100.0000 100.0000 100.0000 100.0000 100.0000 100.0000 100.0000 100.0000 100.0000 100.0000 100.0000 100.0000 100.0000 100.0000 100.0000 100.0000 100.0000 100.0000 100.0000 100.0000 100.0000 100.0000 100.0000 100.0000 100.0000 100.0000 100.0000 100.0000 100.0000 100.0000 100.0000 100.0000 100.0000
100.0000 100.0000 100.0000 100.0000 100.0000 100.0000 100.0000 100.0000 100.0000 100.0000 100.0000 100.0000 100.0000 100.0000 100.0000 100.0000 100.0000 100.0000 100.0000 100.0000 100.0000 100.0000 100.0000 100.0000 100.0000 100.0000 100.0000 100.0000 100.0000 100.0000 100.0000 100.0000 100.0000 100.0000 100.0000 100.0000 100.0000 100.0000 100.0000 100.0000 99.9942 99.9467 99.9000 99.8538 99.8081 99.7631 99.7188 99.6749 99.6317 99.5892 99.5472 99.5058 99.4650 99.4248 99.3851 99.3461 99.3077 99.2699 99.2327 99.1962 99.1602 99.1248 99.0900 99.0558 99.0221 98.9891 98.9567 98.9249 98.8937 98.8632 98.8332 98.8037 98.7750 98.7468 98.7191 98.6921 98.6658 98.6399 98.6148 98.5901 98.5661 98.5427 98.5199 98.4977 98.4762 98.4552 98.4347 98.4150 98.3958 98.3772 98.3591 98.3418 98.3250 98.3088 98.2931 98.2781 98.2638 98.2499 98.2368 98.2241 98.2121 98.2007 98.1899 98.1797 98.1702 98.1612 98.1527 98.1449 98.1377 98.1312 98.1252 98.1197 98.1149 98.1107 98.1072 98.1042 98.1017 98.1000 98.0987 98.0982 98.0982 98.0987 98.1000 98.1017 98.1042 98.1072 98.1107 98.1149 98.1197 98.1252 98.1312 98.1377 98.1449 98.1527 98.1612 98.1702 98.1797 98.1899 98.2007 98.2121 98.2241 98.2368 98.2499 98.2638 98.2781 98.2931 98.3088 98.3250 98.3418 98.3591 98.3772 98.3958 98.4150 98.4347 98.4552 98.4762 98.4977 98.5199 98.5427 98.5661 98.5901 98.6148 98.6399 98.6658 98.6921 98.7191 98.7468 98.7750 98.8037 98.8332 98.8632 98.8937 98.9249 98.9567 98.9891 99.0221 99.0558 99.0900 99.1248 99.1602 99.1962 99.2327 99.2699 99.3077 99.3461 99.3851 99.4248 99.4650 99.5058 99.5472 99.5892 99.6317 99.6749 99.7188 99.7631 99.8081 99.8538 99.9000 99.9467 99.9942 100.0000 100.0000 100.0000 100.0000 100.0000 100.0000 100.0000 100.0000 100.0000 100.0000 100.0000 100.0000 100.0000 100.0000 100.0000 100.0000 100.0000 100.0000 100.0000 100.0000 100.0000 100.0000 100.0000 100.0000 100.0000 100.0000 100.0000 100.0000 100.0000 100.0000 100.0000 100.0000 100.0000 100.0000 100.0000 100.0000 100.0000 100.0000 100.0000 100.0000
100.0000 100.0000 100.0000 100.0000 100.0000 100.0000 100.0000 100.0000 100.0000 100.0000 100.0000 100.0000 100.0000 100.0000 100.0000 100.0000 100.0000 100.0000 100.0000 100.0000 100.0000 100.0000 100.0000 100.0000 100.0000 100.0000 100.0000 100.0000 100.0000 100.0000 100.0000 100.0000 100.0000 100.0000 100.0000 100.0000 100.0000 100.0000 100.0000 100.0000 100.0000 99.9834 99.9365 99.8903 99.8448 99.7998 99.7553 99.7116 99.6684 99.6257 99.5837 99.5423 99.5015 99.4613 99.4218 99.3828 99.3444 99.3066 99.2694 99.2327 99.1967 99.1613 99.1265 99.0923 99.0588 99.0258 98.9934 98.9616 98.9304 98.8997 98.8697 98.8404 98.8115 98.7833 98.7558 98.7288 98.7023 98.6766 98.6513 98.6268 98.6028 98.5794 98.5566 98.5344 98.5127 98.4917 98.4714 98.4515 98.4323 98.4137 98.3958 98.3783 98.3615 98.3453 98.3298 98.3148 98.3003 98.2866 98.2733 98.2608 98.2488 98.2374 98.2266 98.2164 98.2067 98.1977 98.1894 98.1816 98.1744 98.1677 98.1617 98.1564 98.1516 98.1474 98.1437 98.1407 98.1384 98.1365 98.1354 98.1347 98.1347 98.1354 98.1365 98.1384 98.1407 98.1437 98.1474 98.1516 98.1564 98.1617 98.1677 98.1744 98.1816 98.1894 98.1977 98.2067 98.2164 98.2266 98.2374 98.2488 98.2608 98.2733 98.2866 98.3003 98.3148 98.3298 98.3453 98.3615 98.3783 98.3958 98.4137 98.4323 98.4515 98.4714 98.4917 98.5127 98.5344 98.5566 98.5794 98.6028 98.6268 98.6513 98.6766 98.7023 98.7288 98.7558 98.7833 98.8115 98.8404 98.8697 98.8997 98.9304 98.9616 98.9934 99.0258 99.0588 99.0923 99.1265 99.1613 99.1967 99.2327 99.2694 99.3066 99.3444 99.3828 99.4218 99.4613 99.5015 99.5423 99.5837 99.6257 99.6684 99.7116 99.7553 99.7998 99.8448 99.8903 99.9365 99.9834 100.0000 100.0000 100.0000 100.0000 100.0000 100.0000 100.0000 100.0000 100.0000 100.0000 100.0000 100.0000 100.0000 100.0000 100.0000 100.0000 100.0000 100.0000 100.0000 100.0000 100.0000 100.0000 100.0000 100.0000 100.0000 100.0000 100.0000 100.0000 100.0000 100.0000 100.0000 100.0000 100.0000 100.0000 100.0000 100.0000 100.0000 100.0000 100.0000 100.0000 100.0000
100.0000 100.0000 100.0000 100.0000 100.0000 100.0000 100.0000 100.0000 100.0000 100.0000 100.0000 100.0000 100.0000 100.0000 100.0000 100.0000 100.0000 100.0000 100.0000 100.0000 100.0000 100.0000 100.0000 100.0000 100.0000 100.0000 100.0000 100.0000 100.0000 100.0000 100.0000 100.0000 100.0000 100.0000 100.0000 100.0000 100.0000 100.0000 100.0000 100.0000 100.0000 100.0000 99.9737 99.9275 99.8820 99.8370 99.7926 99.7488 99.7056 99.6629 99.6209 99.5795 99.5387 99.4985 99.4590 99.4200 99.3816 99.3438 99.3066 99.2699 99.2339 99.1985 99.1637 99.1295 99.0960 99.0630 99.0306 98.9988 98.9676 98.9369 98.9069 98.8775 98.8487 98.8205 98.7930 98.7660 98.7395 98.7138 98.6886 98.6639 98.6399 98.6166 98.5938 98.5716 98.5499 98.5289 98.5085 98.4887 98.4695 98.4510 98.4330 98.4155 98.3988 98.3825 98.3670 98.3520 98.3375 98.3238 98.3106 98.2980 98.2859 98.2746 98.2638 98.2536 98.2439 98.2349 98.2266 98.2188 98.2116 98.2049 98.1989 98.1936 98.1887 98.1846 98.1809 98.1779 98.1756 98.1737 98.1726 98.1719 98.1719 98.1726 98.1737 98.1756 98.1779 98.1809 98.1846 98.1887 98.1936 98.1989 98.2049 98.2116 98.2188 98.2266 98.2349 98.2439 98.2536 98.2638 98.2746 98.2859 98.2980 98.3106 98.3238 98.3375 98.3520 98.3670 98.3825 98.3988 98.4155 98.4330 98.4510 98.4695 98.4887 98.5085 98.5289 98.5499 98.5716 98.5938 98.6166 98.6399 98.6639 98.6886 98.7138 98.7395 98.7660 98.7930 98.8205 98.8487 98.8775 98.9069 98.9369 98.9676 98.9988 99.0306 99.0630 99.0960 99.1295 99.1637 99.1985 99.2339 99.2699 99.3066 99.3438 99.3816 99.4200 99.4590 99.4985 99.5387 99.5795 99.6209 99.6629 99.7056 99.7488 99.7926 99.8370 99.8820 99.9275 99.9737 100.0000 100.0000 100.0000 100.0000 100.0000 100.0000 100.0000 100.0000 100.0000 100.0000 100.0000 100.0000 100.0000 100.0000 100.0000 100.0000 100.0000 100.0000 100.0000 100.0000 100.0000 100.0000 100.0000 100.0000 100.0000 100.0000 100.0000 100.0000 100.0000 100.0000 100.0000 100.0000 100.0000 100.0000 100.0000 100.0000 100.0000 100.0000 100.0000 100.0000 100.0000 100.0000
100.0000 100.0000 100.0000 100.0000 100.0000 100.0000 100.0000 100.0000 100.0000 100.0000 100.0000 100.0000 100.0000 100.0000 100.0000 100.0000 100.0000 100.0000 100.0000 100.0000 100.0000 100.0000 100.0000 100.0000 100.0000 100.0000 100.0000 100.0000 100.0000 100.0000 100.0000 100.0000 100.0000 100.0000 100.0000 100.0000 100.0000 100.0000 100.0000 100.0000 100.0000 100.0000 100.0000 99.9654 99.9197 99.8748 99.8303 99.7866 99.7434 99.7007 99.6587 99.6174 99.5765 99.5363 99.4968 99.4578 99.4193 99.3816 99.3444 99.3077 99.2717 99.2364 99.2015 99.1673 99.1338 99.1008 99.0683 99.0366 99.0053 98.9748 98.9447 98.9154 98.8865 98.8584 98.8307 98.8037 98.7773 98.7515 98.7263 98.7018 98.6778 98.6543 98.6316 98.6094 98.5877 98.5667 98.5464 98.5266 98.5074 98.4887 98.4707 98.4534 98.4365 98.4203 98.4048 98.3898 98.3753 98.3615 98.3483 98.3358 98.3238 98.3123 98.3016 98.2913 98.2818 98.2728 98.2643 98.2566 98.2494 98.2428 98.2368 98.2314 98.2266 98.2224 98.2188 98.2157 98.2134 98.2116 98.2104 98.2097 98.2097 98.2104 98.2116 98.2134 98.2157 98.2188 98.2224 98.2266 98.2314 98.2368 98.2428 98.2494 98.2566 98.2643 98.2728 98.2818 98.2913 98.3016 98.3123 98.3238 98.3358 98.3483 98.3615 98.3753 98.3898 98.4048 98.4203 98.4365 98.4534 98.4707 98.4887 98.5074 98.5266 98.5464 98.5667 98.5877 98.6094 98.6316 98.6543 98.6778 98.7018 98.7263 98.7515 98.7773 98.8037 98.8307 98.8584 98.8865 98.9154 98.9447 98.9748 99.0053 99.0366 99.0683 99.1008 99.1338 99.1673 99.2015 99.2364 99.2717 99.3077 99.3444 99.3816 99.4193 99.4578 99.4968 99.5363 99.5765 99.6174 99.6587 99.7007 99.7434 99.7866 99.8303 99.8748 99.9197 99.9654 100.0000 100.0000 100.0000 100.0000 100.0000 100.0000 100.0000 100.0000 100.0000 100.0000 100.0000 100.0000 100.0000 100.0000 100.0000 100.0000 100.0000 100.0000 100.0000 100.0000 100.0000 100.0000 100.0000 100.0000 100.0000 100.0000 100.0000 100.0000 100.0000 100.0000 100.0000 100.0000 100.0000 100.0000 100.0000 100.0000 100.0000 100.0000 100.0000 100.0000 100.0000 100.0000 100.0000
100.0000 100.0000 100.0000 100.0000 100.0000 100.0000 100.0000 100.0000 100.0000 100.0000 100.0000 100.0000 100.0000 100.0000 100.0000 100.0000 100.0000 100.0000 100.0000 100.0000 100.0000 100.0000 100.0000 100.0000 100.0000 100.0000 100.0000 100.0000 100.0000 100.0000 100.0000 100.0000 100.0000 100.0000 100.0000 100.0000 100.0000 100.0000 100.0000 100.0000 100.0000 100.0000 100.0000 100.0000 99.9582 99.9132 99.8688 99.8250 99.7818 99.7391 99.6971 99.6557 99.6149 99.5747 99.5352 99.4962 99.4578 99.4200 99.3828 99.3461 99.3101 99.2747 99.2399 99.2057 99.1722 99.1392 99.1068 99.0750 99.0438 99.0131 98.9831 98.9537 98.9249 98.8967 98.8692 98.8422 98.8157 98.7900 98.7648 98.7401 98.7161 98.6928 98.6700 98.6478 98.6261 98.6051 98.5847 98.5649 98.5457 98.5272 98.5092 98.4917 98.4750 98.4587 98.4432 98.4282 98.4137 98.4000 98.3868 98.3742 98.3621 98.3508 98.3400 98.3298 98.3201 98.3111 98.3028 98.2950 98.2878 98.2811 98.2751 98.2698 98.2649 98.2608 98.2571 98.2541 98.2518 98.2499 98.2488 98.2481 98.2481 98.2488 98.2499 98.2518 98.2541 98.2571 98.2608 98.2649 98.2698 98.2751 98.2811 98.2878 98.2950 98.3028 98.3111 98.3201 98.3298 98.3400 98.3508 98.3621 98.3742 98.3868 98.4000 98.4137 98.4282 98.4432 98.4587 98.4750 98.4917 98.5092 98.5272 98.5457 98.5649 98.5847 98.6051 98.6261 98.6478 98.6700 98.6928 98.7161 98.7401 98.7648 98.7900 98.8157 98.8422 98.8692 98.8967 98.9249 98.9537 98.9831 99.0131 99.0438 99.0750 99.1068 99.1392 99.1722 99.2057 99.2399 99.2747 99.3101 99.3461 99.3828 99.4200 99.4578 99.4962 99.5352 99.5747 99.6149 99.6557 99.6971 99.7391 99.7818 99.8250 99.8688 99.9132 99.9582 100.0000 100.0000 100.0000 100.0000 100.0000 100.0000 100.0000 100.0000 100.0000 100.0000 100.0000 100.0000 100.0000 100.0000 100.0000 100.0000 100.0000 100.0000 100.0000 100.0000 100.0000 100.0000 100.0000 100.0000 100.0000 100.0000 100.0000 100.0000 100.0000 100.0000 100.0000 100.0000 100.0000 100.0000 100.0000 100.0000 100.0000 100.0000 100.0000 100.0000 100.0000 100.0000 100.0000 100.0000
100.0000 100.0000 100.0000 100.0000 100.0000 100.0000 100.0000 100.0000 100.0000 100.0000 100.0000 100.0000 100.0000 100.0000 100.0000 100.0000 100.0000 100.0000 100.0000 100.0000 100.0000 100.0000 100.0000 100.0000 100.0000 100.0000 100.0000 100.0000 100.0000 100.0000 100.0000 100.0000 100.0000 100.0000 100.0000 100.0000 100.0000 100.0000 100.0000 100.0000 100.0000 100.0000 100.0000 100.0000 99.9972 99.9522 99.9077 99.8640 99.8208 99.7781 99.7361 99.6947 99.6539 99.6137 99.5742 99.5352 99.4968 99.4590 99.4218 99.3851 99.3491 99.3137 99.2789 99.2447 99.2112 99.1782 99.1458 99.1140 99.0828 99.0521 99.0221 98.9928 98.9639 98.9357 98.9082 98.8812 98.8547 98.8290 98.8037 98.7792 98.7552 98.7318 98.7090 98.6868 98.6651 98.6441 98.6238 98.6039 98.5847 98.5661 98.5482 98.5307 98.5139 98.4977 98.4822 98.4672 98.4527 98.4390 98.4257 98.4132 98.4012 98.3898 98.3790 98.3688 98.3591 98.3501 98.3418 98.3340 98.3268 98.3201 98.3141 98.3088 98.3040 98.2998 98.2961 98.2931 98.2908 98.2889 98.2878 98.2871 98.2871 98.2878 98.2889 98.2908 98.2931 98.2961 98.2998 98.3040 98.3088 98.3141 98.3201 98.3268 98.3340 98.3418 98.3501 98.3591 98.3688 98.3790 98.3898 98.4012 98.4132 98.4257 98.4390 98.4527 98.4672 98.4822 98.4977 98.5139 98.5307 98.5482 98.5661 98.5847 98.6039 98.6238 98.6441 98.6651 98.6868 98.7090 98.7318 98.7552 98.7792 98.8037 98.8290 98.8547 98.8812 98.9082 98.9357 98.9639 98.9928 99.0221 99.0521 99.0828 99.1140 99.1458 99.1782 99.2112 99.2447 99.2789 99.3137 99.3491 99.3851 99.4218 99.4590 99.4968 99.5352 99.5742 99.6137 99.6539 99.6947 99.7361 99.7781 99.8208 99.8640 99.9077 99.9522 99.9972 100.0000 100.0000 100.0000 100.0000 100.0000 100.0000 100.0000 100.0000 100.0000 100.0000 100.0000 100.0000 100.0000 100.0000 100.0000 100.0000 100.0000 100.0000 100.0000 100.0000 100.0000 100.0000 100.0000 100.0000 100.0000 100.0000 100.0000 100.0000 100.0000 100.0000 100.0000 100.0000 100.0000 100.0000 100.0000 100.0000 100.0000 100.0000 100.0000 100.0000 100.0000 100.0000 100.0000 100.0000
100.0000 100.0000 100.0000 100.0000 100.0000 100.0000 100.0000 100.0000 100.0000 100.0000 100.0000 100.0000 100.0000 100.0000 100.0000 100.0000 100.0000 100.0000 100.0000 100.0000 100.0000 100.0000 100.0000 100.0000 100.0000 100.0000 100.0000 100.0000 100.0000 100.0000 100.0000 100.0000 100.0000 100.0000 100.0000 100.0000 100.0000 100.0000 100.0000 100.0000 100.0000 100.0000 100.0000 100.0000 100.0000 99.9917 99.9474 99.9035 99.8603 99.8178 99.7758 99.7344 99.6936 99.6534 99.6137 99.5747 99.5363 99.4985 99.4613 99.4248 99.3888 99.3534 99.3186 99.2844 99.2507 99.2177 99.1853 99.1535 99.1223 99.0918 99.0618 99.0323 99.0036 98.9754 98.9477 98.9207 98.8944 98.8685 98.8434 98.8187 98.7947 98.7713 98.7485 98.7263 98.7048 98.6838 98.6633 98.6436 98.6244 98.6058 98.5877 98.5704 98.5536 98.5374 98.5217 98.5067 98.4924 98.4785 98.4654 98.4527 98.4407 98.4293 98.4185 98.4083 98.3988 98.3898 98.3813 98.3735 98.3663 98.3598 98.3538 98.3483 98.3435 98.3393 98.3358 98.3328 98.3303 98.3286 98.3273 98.3268 98.3268 98.3273 98.3286 98.3303 98.3328 98.3358 98.3393 98.3435 98.3483 98.3538 98.3598 98.3663 98.3735 98.3813 98.3898 98.3988 98.4083 98.4185 98.4293 98.4407 98.4527 98.4654 98.4785 98.4924 98.5067 98.5217 98.5374 98.5536 98.5704 98.5877 98.6058 98.6244 98.6436 98.6633 98.6838 98.7048 98.7263 98.7485 98.7713 98.7947 98.8187 98.8434 98.8685 98.8944 98.9207 98.9477 98.9754 99.0036 99.0323 99.0618 99.0918 99.1223 99.1535 99.1853 99.2177 99.2507 99.2844 99.3186 99.3534 99.3888 99.4248 99.4613 99.4985 99.5363 99.5747 99.6137 99.6534 99.6936 99.7344 99.7758 99.8178 99.8603 99.9035 99.9474 99.9917 100.0000 100.0000 100.0000 100.0000 100.0000 100.0000 100.0000 100.0000 100.0000 100.0000 100.0000 100.0000 100.0000 100.0000 100.0000 100.0000 100.0000 100.0000 100.0000 100.0000 100.0000 100.0000 100.0000 100.0000 100.0000 100.0000 100.0000 100.0000 100.0000 100.0000 100.0000 100.0000 100.0000 100.0000 100.0000 100.0000 100.0000 100.0000 100.0000 100.0000 100.0000 100.0000 100.0000 100.0000 100.0000
100.0000 100.0000 100.0000 100.0000 100.0000 100.0000 100.0000 100.0000 100.0000 100.0000 100.0000 100.0000 100.0000 100.0000 100.0000 100.0000 100.0000 100.0000 100.0000 100.0000 100.0000 100.0000 100.0000 100.0000 100.0000 100.0000 100.0000 100.0000 100.0000 100.0000 100.0000 100.0000 100.0000 100.0000 100.0000 100.0000 100.0000 100.0000 100.0000 100.0000 100.0000 100.0000 100.0000 100.0000 100.0000 100.0000 99.9875 99.9437 99.9005 99.8580 99.8160 99.7746 99.7338 99.6936 99.6539 99.6149 99.5765 99.5387 99.5015 99.4650 99.4290 99.3936 99.3588 99.3246 99.2909 99.2579 99.2255 99.1937 99.1625 99.1320 99.1020 99.0726 99.0438 99.0156 98.9879 98.9609 98.9346 98.9087 98.8835 98.8589 98.8350 98.8115 98.7887 98.7665 98.7450 98.7240 98.7036 98.6838 98.6646 98.6459 98.6279 98.6106 98.5938 98.5776 98.5619 98.5469 98.5326 98.5187 98.5055 98.4929 98.4810 98.4695 98.4587 98.4485 98.4390 98.4300 98.4215 98.4137 98.4065 98.4000 98.3940 98.3885 98.3838 98.3795 98.3760 98.3730 98.3705 98.3688 98.3675 98.3670 98.3670 98.3675 98.3688 98.3705 98.3730 98.3760 98.3795 98.3838 98.3885 98.3940 98.4000 98.4065 98.4137 98.4215 98.4300 98.4390 98.4485 98.4587 98.4695 98.4810 98.4929 98.5055 98.5187 98.5326 98.5469 98.5619 98.5776 98.5938 98.6106 98.6279 98.6459 98.6646 98.6838 98.7036 98.7240 98.7450 98.7665 98.7887 98.8115 98.8350 98.8589 98.8835 98.9087 98.9346 98.9609 98.9879 99.0156 99.0438 99.0726 99.1020 99.1320 99.1625 99.1937 99.2255 99.2579 99.2909 99.3246 99.3588 99.3936 99.4290 99.4650 99.5015 99.5387 99.5765 99.6149 99.6539 99.6936 99.7338 99.7746 99.8160 99.8580 99.9005 99.9437 99.9875 100.0000 100.0000 100.0000 100.0000 100.0000 100.0000 100.0000 100.0000 100.0000 100.0000 100.0000 100.0000 100.0000 100.0000 100.0000 100.0000 100.0000 100.0000 100.0000 100.0000 100.0000 100.0000 100.0000 100.0000 100.0000 100.0000 100.0000 100.0000 100.0000 100.0000 100.0000 100.0000 100.0000 100.0000 100.0000 100.0000 100.0000 100.0000 100.0000 100.0000 100.0000 100.0000 100.0000 100.0000 100.0000 100.0000
100.0000 100.0000 100.0000 100.0000 100.0000 100.0000 100.0000 100.0000 100.0000 100.0000 100.0000 100.0000 100.0000 100.0000 100.0000 100.0000 100.0000 100.0000 100.0000 100.0000 100.0000 100.0000 100.0000 100.0000 100.0000 100.0000 100.0000 100.0000 100.0000 100.0000 100.0000 100.0000 100.0000 100.0000 100.0000 100.0000 100.0000 100.0000 100.0000 100.0000 100.0000 100.0000 100.0000 100.0000 100.0000 100.0000 100.0000 99.9845 99.9413 99.8988 99.8568 99.8153 99.7746 99.7344 99.6947 99.6557 99.6174 99.5795 99.5423 99.5058 99.4698 99.4343 99.3996 99.3654 99.3317 99.2987 99.2664 99.2345 99.2034 99.1727 99.1428 99.1133 99.0846 99.0563 99.0288 99.0018 98.9754 98.9496 98.9244 98.8997 98.8757 98.8524 98.8295 98.8073 98.7857 98.7648 98.7443 98.7245 98.7053 98.6868 98.6688 98.6513 98.6346 98.6184 98.6028 98.5877 98.5734 98.5596 98.5464 98.5337 98.5217 98.5104 98.4995 98.4894 98.4797 98.4707 98.4624 98.4545 98.4474 98.4407 98.4347 98.4293 98.4245 98.4203 98.4167 98.4137 98.4113 98.4095 98.4083 98.4077 98.4077 98.4083 98.4095 98.4113 98.4137 98.4167 98.4203 98.4245 98.4293 98.4347 98.4407 98.4474 98.4545 98.4624 98.4707 98.4797 98.4894 98.4995 98.5104 98.5217 98.5337 98.5464 98.5596 98.5734 98.5877 98.6028 98.6184 98.6346 98.6513 98.6688 98.6868 98.7053 98.7245 98.7443 98.7648 98.7857 98.8073 98.8295 98.8524 98.8757 98.8997 98.9244 98.9496 98.9754 99.0018 99.0288 99.0563 99.0846 99.1133 99.1428 99.1727 99.2034 99.2345 99.2664 99.2987 99.3317 99.3654 99.3996 99.4343 99.4698 99.5058 99.5423 99.5795 99.6174 99.6557 99.6947 99.7344 99.7746 99.8153 99.8568 99.8988 99.9413 99.9845 100.0000 100.0000 100.0000 100.0000 100.0000 100.0000 100.0000 100.0000 100.0000 100.0000 100.0000 100.0000 100.0000 100.0000 100.0000 100.0000 100.0000 100.0000 100.0000 100.0000 100.0000 100.0000 100.0000 100.0000 100.0000 100.0000 100.0000 100.0000 100.0000 100.0000 100.0000 100.0000 100.0000 100.0000 100.0000 100.0000 100.0000 100.0000 100.0000 100.0000 100.0000 100.0000 100.0000 100.0000 100.0000 100.0000 100.0000
100.0000 100.0000 100.0000 100.0000 100.0000 100.0000 100.0000 100.0000 100.0000 100.0000 100.0000 100.0000 100.0000 100.0000 100.0000 100.0000 100.0000 100.0000 100.0000 100.0000 100.0000 100.0000 100.0000 100.0000 100.0000 100.0000 100.0000 100.0000 100.0000 100.0000 100.0000 100.0000 100.0000 100.0000 100.0000 100.0000 100.0000 100.0000 100.0000 100.0000 100.0000 100.0000 100.0000 100.0000 100.0000 100.0000 100.0000 100.0000 99.9827 99.9402 99.8982 99.8568 99.8160 99.7758 99.7361 99.6971 99.6587 99.6209 99.5837 99.5472 99.5112 99.4758 99.4410 99.4068 99.3731 99.3401 99.3077 99.2759 99.2447 99.2142 99.1842 99.1548 99.1260 99.0978 99.0701 99.0431 99.0168 98.9909 98.9657 98.9411 98.9172 98.8937 98.8709 98.8487 98.8272 98.8062 98.7857 98.7660 98.7468 98.7281 98.7101 98.6928 98.6760 98.6598 98.6441 98.6291 98.6148 98.6009 98.5877 98.5751 98.5631 98.5517 98.5409 98.5307 98.5212 98.5122 98.5037 98.4959 98.4887 98.4822 98.4762 98.4707 98.4660 98.4617 98.4582 98.4552 98.4527 98.4510 98.4497 98.4492 98.4492 98.4497 98.4510 98.4527 98.4552 98.4582 98.4617 98.4660 98.4707 98.4762 98.4822 98.4887 98.4959 98.5037 98.5122 98.5212 98.5307 98.5409 98.5517 98.5631 98.5751 98.5877 98.6009 98.6148 98.6291 98.6441 98.6598 98.6760 98.6928 98.7101 98.7281 98.7468 98.7660 98.7857 98.8062 98.8272 98.8487 98.8709 98.8937 98.9172 98.9411 98.9657 98.9909 99.0168 99.0431 99.0701 99.0978 99.1260 99.1548 99.1842 99.2142 99.2447 99.2759 99.3077 99.3401 99.3731 99.4068 99.4410 99.4758 99.5112 99.5472 99.5837 99.6209 99.6587 99.6971 99.7361 99.7758 99.8160 99.8568 99.8982 99.9402 99.9827 100.0000 100.0000 100.0000 100.0000 100.0000 100.0000 100.0000 100.0000 100.0000 100.0000 100.0000 100.0000 100.0000 100.0000 100.0000 100.0000 100.0000 100.0000 100.0000 100.0000 100.0000 100.0000 100.0000 100.0000 100.0000 100.0000 100.0000 100.0000 100.0000 100.0000 100.0000 100.0000 100.0000 100.0000 100.0000 100.0000 100.0000 100.0000 100.0000 100.0000 100.0000 100.0000 100.0000 100.0000 100.0000 100.0000 100.0000 100.0000
100.0000 100.0000 100.0000 100.0000 100.0000 100.0000 100.0000 100.0000 100.0000 100.0000 100.0000 100.0000 100.0000 100.0000 100.0000 100.0000 100.0000 100.0000 100.0000 100.0000 100.0000 100.0000 100.0000 100.0000 100.0000 100.0000 100.0000 100.0000 100.0000 100.0000 100.0000 100.0000 100.0000 100.0000 100.0000 100.0000 100.0000 100.0000 100.0000 100.0000 100.0000 100.0000 100.0000 100.0000 100.0000 100.0000 100.0000 100.0000 100.0000 99.9822 99.9402 99.8988 99.8580 99.8178 99.7781 99.7391 99.7007 99.6629 99.6257 99.5892 99.5532 99.5178 99.4830 99.4488 99.4151 99.3821 99.3498 99.3179 99.2867 99.2562 99.2262 99.1967 99.1680 99.1398 99.1121 99.0851 99.0588 99.0329 99.0078 98.9831 98.9591 98.9357 98.9129 98.8907 98.8692 98.8482 98.8277 98.8080 98.7887 98.7702 98.7522 98.7348 98.7180 98.7018 98.6861 98.6711 98.6568 98.6429 98.6298 98.6171 98.6051 98.5938 98.5829 98.5727 98.5631 98.5541 98.5457 98.5379 98.5307 98.5242 98.5182 98.5127 98.5079 98.5037 98.5002 98.4972 98.4947 98.4929 98.4917 98.4912 98.4912 98.4917 98.4929 98.4947 98.4972 98.5002 98.5037 98.5079 98.5127 98.5182 98.5242 98.5307 98.5379 98.5457 98.5541 98.5631 98.5727 98.5829 98.5938 98.6051 98.6171 98.6298 98.6429 98.6568 98.6711 98.6861 98.7018 98.7180 98.7348 98.7522 98.7702 98.7887 98.8080 98.8277 98.8482 98.8692 98.8907 98.9129 98.9357 98.9591 98.9831 99.0078 99.0329 99.0588 99.0851 99.1121 99.1398 99.1680 99.1967 99.2262 99.2562 99.2867 99.3179 99.3498 99.3821 99.4151 99.4488 99.4830 99.5178 99.5532 99.5892 99.6257 99.6629 99.7007 99.7391 99.7781 99.8178 99.8580 99.8988 99.9402 99.9822 100.0000 100.0000 100.0000 100.0000 100.0000 100.0000 100.0000 100.0000 100.0000 100.0000 100.0000 100.0000 100.0000 100.0000 100.0000 100.0000 100.0000 100.0000 100.0000 100.0000 100.0000 100.0000 100.0000 100.0000 100.0000 100.0000 100.0000 100.0000 100.0000 100.0000 100.0000 100.0000 100.0000 100.0000 100.0000 100.0000 100.0000 100.0000 100.0000 100.0000 100.0000 100.0000 100.0000 100.0000 100.0000 100.0000 100.0000 100.0000 100.0000
100.0000 100.0000 100.0000 100.0000 100.0000 100.0000 100.0000 100.0000 100.0000 100.0000 100.0000 100.0000 100.0000 100.0000 100.0000 100.0000 100.0000 100.0000 100.0000 100.0000 100.0000 100.0000 100.0000 100.0000 100.0000 100.0000 100.0000 100.0000 100.0000 100.0000 100.0000 100.0000 100.0000 100.0000 100.0000 100.0000 100.0000 100.0000 100.0000 100.0000 100.0000 100.0000 100.0000 100.0000 100.0000 100.0000 100.0000 100.0000 100.0000 100.0000 99.9827 99.9413 99.9005 99.8603 99.8208 99.7818 99.7434 99.7056 99.6684 99.6317 99.5957 99.5603 99.5255 99.4913 99.4578 99.4248 99.3923 99.3606 99.3294 99.2987 99.2687 99.2394 99.2105 99.1823 99.1548 99.1278 99.1013 99.0755 99.0503 99.0258 99.0018 98.9784 98.9556 98.9334 98.9117 98.8907 98.8704 98.8505 98.8314 98.8127 98.7947 98.7773 98.7605 98.7443 98.7288 98.7138 98.6993 98.6856 98.6723 98.6598 98.6478 98.6363 98.6256 98.6154 98.6058 98.5968 98.5884 98.5806 98.5734 98.5667 98.5607 98.5554 98.5506 98.5464 98.5427 98.5397 98.5374 98.5356 98.5344 98.5337 98.5337 98.5344 98.5356 98.5374 98.5397 98.5427 98.5464 98.5506 98.5554 98.5607 98.5667 98.5734 98.5806 98.5884 98.5968 98.6058 98.6154 98.6256 98.6363 98.6478 98.6598 98.6723 98.6856 98.6993 98.7138 98.7288 98.7443 98.7605 98.7773 98.7947 98.8127 98.8314 98.8505 98.8704 98.8907 98.9117 98.9334 98.9556 98.9784 99.0018 99.0258 99.0503 99.0755 99.1013 99.1278 99.1548 99.1823 99.2105 99.2394 99.2687 99.2987 99.3294 99.3606 99.3923 99.4248 99.4578 99.4913 99.5255 99.5603 99.5957 99.6317 99.6684 99.7056 99.7434 99.7818 99.8208 99.8603 99.9005 99.9413 99.9827 100.0000 100.0000 100.0000 100.0000 100.0000 100.0000 100.0000 100.0000 100.0000 100.0000 100.0000 100.0000 100.0000 100.0000 100.0000 100.0000 100.0000 100.0000 100.0000 100.0000 100.0000 100.0000 100.0000 100.0000 100.0000 100.0000 100.0000 100.0000 100.0000 100.0000 100.0000 100.0000 100.0000 100.0000 100.0000 100.0000 100.0000 100.0000 100.0000 100.0000 100.0000 100.0000 100.0000 100.0000 100.0000 100.0000 100.0000 100.0000 100.0000 100.0000
100.0000 100.0000 100.0000 100.0000 100.0000 100.0000 100.0000 100.0000 100.0000 100.0000 100.0000 100.0000 100.0000 100.0000 100.0000 100.0000 100.0000 100.0000 100.0000 100.0000 100.0000 100.0000 100.0000 100.0000 100.0000 100.0000 100.0000 100.0000 100.0000 100.0000 100.0000 100.0000 100.0000 100.0000 100.0000 100.0000 100.0000 100.0000 100.0000 100.0000 100.0000 100.0000 100.0000 100.0000 100.0000 100.0000 100.0000 100.0000 100.0000 100.0000 100.0000 99.9845 99.9437 99.9035 99.8640 99.8250 99.7866 99.7488 99.7116 99.6749 99.6389 99.6035 99.5687 99.5345 99.5010 99.4680 99.4356 99.4038 99.3726 99.3419 99.3119 99.2826 99.2537 99.2255 99.1980 99.1710 99.1445 99.1188 99.0935 99.0690 99.0450 99.0216 98.9988 98.9766 98.9549 98.9339 98.9136 98.8937 98.8745 98.8560 98.8380 98.8205 98.8037 98.7875 98.7720 98.7570 98.7425 98.7288 98.7155 98.7030 98.6910 98.6796 98.6688 98.6586 98.6489 98.6399 98.6316 98.6238 98.6166 98.6099 98.6039 98.5986 98.5938 98.5896 98.5859 98.5829 98.5806 98.5787 98.5776 98.5769 98.5769 98.5776 98.5787 98.5806 98.5829 98.5859 98.5896 98.5938 98.5986 98.6039 98.6099 98.6166 98.6238 98.6316 98.6399 98.6489 98.6586 98.6688 98.6796 98.6910 98.7030 98.7155 98.7288 98.7425 98.7570 98.7720 98.7875 98.8037 98.8205 98.8380 98.8560 98.8745 98.8937 98.9136 98.9339 98.9549 98.9766 98.9988 99.0216 99.0450 99.0690 99.0935 99.1188 99.1445 99.1710 99.1980 99.2255 99.2537 99.2826 99.3119 99.3419 99.3726 99.4038 99.4356 99.4680 99.5010 99.5345 99.5687 99.6035 99.6389 99.6749 99.7116 99.7488 99.7866 99.8250 99.8640 99.9035 99.9437 99.9845 100.0000 100.0000 100.0000 100.0000 100.0000 100.0000 100.0000 100.0000 100.0000 100.0000 100.0000 100.0000 100.0000 100.0000 100.0000 100.0000 100.0000 100.0000 100.0000 100.0000 100.0000 100.0000 100.0000 100.0000 100.0000 100.0000 100.0000 100.0000 100.0000 100.0000 100.0000 100.0000 100.0000 100.0000 100.0000 100.0000 100.0000 100.0000 100.0000 100.0000 100.0000 100.0000 100.0000 100.0000 100.0000 100.0000 100.0000 100.0000 100.0000 100.0000 100.0000
100.0000 100.0000 100.0000 100.0000 100.0000 100.0000 100.0000 100.0000 100.0000 100.0000 100.0000 100.0000 100.0000 100.0000 100.0000 100.0000 100.0000 100.0000 100.0000 100.0000 100.0000 100.0000 100.0000 100.0000 100.0000 100.0000 100.0000 100.0000 100.0000 100.0000 100.0000 100.0000 100.0000 100.0000 100.0000 100.0000 100.0000 100.0000 100.0000 100.0000 100.0000 100.0000 100.0000 100.0000 100.0000 100.0000 100.0000 100.0000 100.0000 100.0000 100.0000 100.0000 99.9875 99.9474 99.9077 99.8688 99.8303 99.7926 99.7553 99.7188 99.6827 99.6474 99.6125 99.5784 99.5447 99.5118 99.4793 99.4476 99.4163 99.3858 99.3558 99.3264 99.2976 99.2694 99.2417 99.2147 99.1883 99.1625 99.1373 99.1128 99.0888 99.0653 99.0426 99.0203 98.9988 98.9778 98.9574 98.9376 98.9184 98.8997 98.8817 98.8644 98.8475 98.8314 98.8157 98.8007 98.7863 98.7725 98.7593 98.7468 98.7348 98.7233 98.7125 98.7023 98.6928 98.6838 98.6753 98.6676 98.6603 98.6538 98.6478 98.6423 98.6376 98.6334 98.6298 98.6268 98.6244 98.6226 98.6214 98.6208 98.6208 98.6214 98.6226 98.6244 98.6268 98.6298 98.6334 98.6376 98.6423 98.6478 98.6538 98.6603 98.6676 98.6753 98.6838 98.6928 98.7023 98.7125 98.7233 98.7348 98.7468 98.7593 98.7725 98.7863 98.8007 98.8157 98.8314 98.8475 98.8644 98.8817 98.8997 98.9184 98.9376 98.9574 98.9778 98.9988 99.0203 99.0426 99.0653 99.0888 99.1128 99.1373 99.1625 99.1883 99.2147 99.2417 99.2694 99.2976 99.3264 99.3558 99.3858 99.4163 99.4476 99.4793 99.5118 99.5447 99.5784 99.6125 99.6474 99.6827 99.7188 99.7553 99.7926 99.8303 99.8688 99.9077 99.9474 99.9875 100.0000 100.0000 100.0000 100.0000 100.0000 100.0000 100.0000 100.0000 100.0000 100.0000 100.0000 100.0000 100.0000 100.0000 100.0000 100.0000 100.0000 100.0000 100.0000 100.0000 100.0000 100.0000 100.0000 100.0000 100.0000 100.0000 100.0000 100.0000 100.0000 100.0000 100.0000 100.0000 100.0000 100.0000 100.0000 100.0000 100.0000 100.0000 100.0000 100.0000 100.0000 100.0000 100.0000 100.0000 100.0000 100.0000 100.0000 100.0000 100.0000 100.0000 100.0000 100.0000
100.0000 100.0000 100.0000 100.0000 100.0000 100.0000 100.0000 100.0000 100.0000 100.0000 100.0000 100.0000 100.0000 100.0000 100.0000 100.0000 100.0000 100.0000 100.0000 100.0000 100.0000 100.0000 100.0000 100.0000 100.0000 100.0000 100.0000 100.0000 100.0000 100.0000 100.0000 100.0000 100.0000 100.0000 100.0000 100.0000 100.0000 100.0000 100.0000 100.0000 100.0000 100.0000 100.0000 100.0000 100.0000 100.0000 100.0000 100.0000 100.0000 100.0000 100.0000 100.0000 100.0000 99.9917 99.9522 99.9132 99.8748 99.8370 99.7998 99.7631 99.7271 99.6917 99.6569 99.6227 99.5892 99.5562 99.5238 99.4920 99.4608 99.4301 99.4001 99.3708 99.3419 99.3137 99.2862 99.2592 99.2327 99.2070 99.1817 99.1572 99.1332 99.1098 99.0870 99.0648 99.0431 99.0221 99.0018 98.9819 98.9627 98.9441 98.9262 98.9087 98.8919 98.8757 98.8602 98.8452 98.8307 98.8170 98.8037 98.7912 98.7792 98.7678 98.7570 98.7468 98.7371 98.7281 98.7198 98.7120 98.7048 98.6981 98.6921 98.6868 98.6820 98.6778 98.6741 98.6711 98.6688 98.6669 98.6658 98.6651 98.6651 98.6658 98.6669 98.6688 98.6711 98.6741 98.6778 98.6820 98.6868 98.6921 98.6981 98.7048 98.7120 98.7198 98.7281 98.7371 98.7468 98.7570 98.7678 98.7792 98.7912 98.8037 98.8170 98.8307 98.8452 98.8602 98.8757 98.8919 98.9087 98.9262 98.9441 98.9627 98.9819 99.0018 99.0221 99.0431 99.0648 99.0870 99.1098 99.1332 99.1572 99.1817 99.2070 99.2327 99.2592 99.2862 99.3137 99.3419 99.3708 99.4001 99.4301 99.4608 99.4920 99.5238 99.5562 99.5892 99.6227 99.6569 99.6917 99.7271 99.7631 99.7998 99.8370 99.8748 99.9132 99.9522 99.9917 100.0000 100.0000 100.0000 100.0000 100.0000 100.0000 100.0000 100.0000 100.0000 100.0000 100.0000 100.0000 100.0000 100.0000 100.0000 100.0000 100.0000 100.0000 100.0000 100.0000 100.0000 100.0000 100.0000 100.0000 100.0000 100.0000 100.0000 100.0000 100.0000 100.0000 100.0000 100.0000 100.0000 100.0000 100.0000 100.0000 100.0000 100.0000 100.0000 100.0000 100.0000 100.0000 100.0000 100.0000 100.0000 100.0000 100.0000 100.0000 100.0000 100.0000 100.0000 100.0000 100.0000
100.0000 100.0000 100.0000 100.0000 100.0000 100.0000 100.0000 100.0000 100.0000 100.0000 100.0000 100.0000 100.0000 100.0000 100.0000 100.0000 100.0000 100.0000 100.0000 100.0000 100.0000 100.0000 100.0000 100.0000 100.0000 100.0000 100.0000 100.0000 100.0000 100.0000 100.0000 100.0000 100.0000 100.0000 100.0000 100.0000 100.0000 100.0000 100.0000 100.0000 100.0000 100.0000 100.0000 100.0000 100.0000 100.0000 100.0000 100.0000 100.0000 100.0000 100.0000 100.0000 100.0000 100.0000 99.9972 99.9582 99.9197 99.8820 99.8448 99.8081 99.7721 99.7368 99.7019 99.6677 99.6342 99.6012 99.5687 99.5370 99.5058 99.4751 99.4451 99.4158 99.3869 99.3588 99.3311 99.3041 99.2777 99.2519 99.2267 99.2022 99.1782 99.1548 99.1320 99.1098 99.0881 99.0671 99.0468 99.0269 99.0078 98.9891 98.9711 98.9537 98.9369 98.9207 98.9052 98.8902 98.8757 98.8620 98.8487 98.8362 98.8242 98.8127 98.8020 98.7917 98.7822 98.7732 98.7648 98.7570 98.7498 98.7431 98.7371 98.7318 98.7270 98.7228 98.7191 98.7161 98.7138 98.7120 98.7108 98.7101 98.7101 98.7108 98.7120 98.7138 98.7161 98.7191 98.7228 98.7270 98.7318 98.7371 98.7431 98.7498 98.7570 98.7648 98.7732 98.7822 98.7917 98.8020 98.8127 98.8242 98.8362 98.8487 98.8620 98.8757 98.8902 98.9052 98.9207 98.9369 98.9537 98.9711 98.9891 99.0078 99.0269 99.0468 99.0671 99.0881 99.1098 99.1320 99.1548 99.1782 99.2022 99.2267 99.2519 99.2777 99.3041 99.3311 99.3588 99.3869 99.4158 99.4451 99.4751 99.5058 99.5370 99.5687 99.6012 99.6342 99.6677 99.7019 99.7368 99.7721 99.8081 99.8448 99.8820 99.9197 99.9582 99.9972 100.0000 100.0000 100.0000 100.0000 100.0000 100.0000 100.0000 100.0000 100.0000 100.0000 100.0000 100.0000 100.0000 100.0000 100.0000 100.0000 100.0000 100.0000 100.0000 100.0000 100.0000 100.0000 100.0000 100.0000 100.0000 100.0000 100.0000 100.0000 100.0000 100.0000 100.0000 100.0000 100.0000 100.0000 100.0000 100.0000 100.0000 100.0000 100.0000 100.0000 100.0000 100.0000 100.0000 100.0000 100.0000 100.0000 100.0000 100.0000 100.0000 100.0000 100.0000 100.0000 100.0000 100.0000
100.0000 100.0000 100.0000 100.0000 100.0000 100.0000 100.0000 100.0000 100.0000 100.0000 100.0000 100.0000 100.0000 100.0000 100.0000 100.0000 100.0000 100.0000 100.0000 100.0000 100.0000 100.0000 100.0000 100.0000 100.0000 100.0000 100.0000 100.0000 100.0000 100.0000 100.0000 100.0000 100.0000 100.0000 100.0000 100.0000 100.0000 100.0000 100.0000 100.0000 100.0000 100.0000 100.0000 100.0000 100.0000 100.0000 100.0000 100.0000 100.0000 100.0000 100.0000 100.0000 100.0000 100.0000 100.0000 100.0000 99.9654 99.9275 99.8903 99.8538 99.8178 99.7823 99.7476 99.7134 99.6797 99.6467 99.6144 99.5825 99.5513 99.5208 99.4908 99.4613 99.4326 99.4043 99.3768 99.3498 99.3234 99.2976 99.2724 99.2477 99.2237 99.2004 99.1775 99.1553 99.1338 99.1128 99.0923 99.0726 99.0533 99.0348 99.0168 98.9994 98.9826 98.9664 98.9507 98.9357 98.9214 98.9076 98.8944 98.8817 98.8697 98.8584 98.8475 98.8374 98.8277 98.8187 98.8103 98.8025 98.7953 98.7887 98.7827 98.7773 98.7725 98.7683 98.7648 98.7618 98.7593 98.7575 98.7563 98.7558 98.7558 98.7563 98.7575 98.7593 98.7618 98.7648 98.7683 98.7725 98.7773 98.7827 98.7887 98.7953 98.8025 98.8103 98.8187 98.8277 98.8374 98.8475 98.8584 98.8697 98.8817 98.8944 98.9076 98.9214 98.9357 98.9507 98.9664 98.9826 98.9994 99.0168 99.0348 99.0533 99.0726 99.0923 99.1128 99.1338 99.1553 99.1775 99.2004 99.2237 99.2477 99.2724 99.2976 99.3234 99.3498 99.3768 99.4043 99.4326 99.4613 99.4908 99.5208 99.5513 99.5825 99.6144 99.6467 99.6797 99.7134 99.7476 99.7823 99.8178 99.8538 99.8903 99.9275 99.9654 100.0000 100.0000 100.0000 100.0000 100.0000 100.0000 100.0000 100.0000 100.0000 100.0000 100.0000 100.0000 100.0000 100.0000 100.0000 100.0000 100.0000 100.0000 100.0000 100.0000 100.0000 100.0000 100.0000 100.0000 100.0000 100.0000 100.0000 100.0000 100.0000 100.0000 100.0000 100.0000 100.0000 100.0000 100.0000 100.0000 100.0000 100.0000 100.0000 100.0000 100.0000 100.0000 100.0000 100.0000 100.0000 100.0000 100.0000 100.0000 100.0000 100.0000 100.0000 100.0000 100.0000 100.0000 100.0000 100.0000
100.0000 100.0000 100.0000 100.0000 100.0000 100.0000 100.0000 100.0000 100.0000 100.0000 100.0000 100.0000 100.0000 100.0000 100.0000 100.0000 100.0000 100.0000 100.0000 100.0000 100.0000 100.0000 100.0000 100.0000 100.0000 100.0000 100.0000 100.0000 100.0000 100.0000 100.0000 100.0000 100.0000 100.0000 100.0000 100.0000 100.0000 100.0000 100.0000 100.0000 100.0000 100.0000 100.0000 100.0000 100.0000 100.0000 100.0000 100.0000 100.0000 100.0000 100.0000 100.0000 100.0000 100.0000 100.0000 100.0000 100.0000 99.9737 99.9365 99.9000 99.8640 99.8286 99.7938 99.7596 99.7259 99.6929 99.6606 99.6287 99.5975 99.5670 99.5370 99.5075 99.4788 99.4505 99.4230 99.3959 99.3696 99.3438 99.3186 99.2939 99.2699 99.2465 99.2237 99.2015 99.1800 99.1590 99.1385 99.1188 99.0995 99.0810 99.0630 99.0456 99.0288 99.0126 98.9969 98.9819 98.9676 98.9537 98.9406 98.9279 98.9159 98.9046 98.8937 98.8835 98.8739 98.8649 98.8565 98.8487 98.8415 98.8350 98.8290 98.8235 98.8187 98.8145 98.8110 98.8080 98.8055 98.8037 98.8025 98.8020 98.8020 98.8025 98.8037 98.8055 98.8080 98.8110 98.8145 98.8187 98.8235 98.8290 98.8350 98.8415 98.8487 98.8565 98.8649 98.8739 98.8835 98.8937 98.9046 98.9159 98.9279 98.9406 98.9537 98.9676 98.9819 98.9969 99.0126 99.0288 99.0456 99.0630 99.0810 99.0995 99.1188 99.1385 99.1590 99.1800 99.2015 99.2237 99.2465 99.2699 99.2939 99.3186 99.3438 99.3696 99.3959 99.4230 99.4505 99.4788 99.5075 99.5370 99.5670 99.5975 99.6287 99.6606 99.6929 99.7259 99.7596 99.7938 99.8286 99.8640 99.9000 99.9365 99.9737 100.0000 100.0000 100.0000 100.0000 100.0000 100.0000 100.0000 100.0000 100.0000 100.0000 100.0000 100.0000 100.0000 100.0000 100.0000 100.0000 100.0000 100.0000 100.0000 100.0000 100.0000 100.0000 100.0000 100.0000 100.0000 100.0000 100.0000 100.0000 100.0000 100.0000 100.0000 100.0000 100.0000 100.0000 100.0000 100.0000 100.0000 100.0000 100.0000 100.0000 100.0000 100.0000 100.0000 100.0000 100.0000 100.0000 100.0000 100.0000 100.0000 100.0000 100.0000 100.0000 100.0000 100.0000 100.0000 100.0000 100.0000
100.0000 100.0000 100.0000 100.0000 100.0000 100.0000 100.0000 100.0000 100.0000 100.0000 100.0000 100.0000 100.0000 100.0000 100.0000 100.0000 100.0000 100.0000 100.0000 100.0000 100.0000 100.0000 100.0000 100.0000 100.0000 100.0000 100.0000 100.0000 100.0000 100.0000 100.0000 100.0000 100.0000 100.0000 100.0000 100.0000 100.0000 100.0000 100.0000 100.0000 100.0000 100.0000 100.0000 100.0000 100.0000 100.0000 100.0000 100.0000 100.0000 100.0000 100.0000 100.0000 100.0000 100.0000 100.0000 100.0000 100.0000 100.0000 99.9834 99.9467 99.9107 99.8753 99.8405 99.8063 99.7728 99.7398 99.7074 99.6756 99.6444 99.6137 99.5837 99.5543 99.5255 99.4973 99.4698 99.4428 99.4163 99.3906 99.3654 99.3407 99.3167 99.2934 99.2706 99.2484 99.2267 99.2057 99.1853 99.1655 99.1463 99.1278 99.1098 99.0923 99.0755 99.0593 99.0438 99.0288 99.0143 99.0006 98.9874 98.9748 98.9627 98.9514 98.9406 98.9304 98.9207 98.9117 98.9034 98.8956 98.8884 98.8817 98.8757 98.8704 98.8655 98.8614 98.8577 98.8547 98.8524 98.8505 98.8494 98.8487 98.8487 98.8494 98.8505 98.8524 98.8547 98.8577 98.8614 98.8655 98.8704 98.8757 98.8817 98.8884 98.8956 98.9034 98.9117 98.9207 98.9304 98.9406 98.9514 98.9627 98.9748 98.9874 99.0006 99.0143 99.0288 99.0438 99.0593 99.0755 99.0923 99.1098 99.1278 99.1463 99.1655 99.1853 99.2057 99.2267 99.2484 99.2706 99.2934 99.3167 99.3407 99.3654 99.3906 99.4163 99.4428 99.4698 99.4973 99.5255 99.5543 99.5837 99.6137 99.6444 99.6756 99.7074 99.7398 99.7728 99.8063 99.8405 99.8753 99.9107 99.9467 99.9834 100.0000 100.0000 100.0000 100.0000 100.0000 100.0000 100.0000 100.0000 100.0000 100.0000 100.0000 100.0000 100.0000 100.0000 100.0000 100.0000 100.0000 100.0000 100.0000 100.0000 100.0000 100.0000 100.0000 100.0000 100.0000 100.0000 100.0000 100.0000 100.0000 100.0000 100.0000 100.0000 100.0000 100.0000 100.0000 100.0000 100.0000 100.0000 100.0000 100.0000 100.0000 100.0000 100.0000 100.0000 100.0000 100.0000 100.0000 100.0000 100.0000 100.0000 100.0000 100.0000 100.0000 100.0000 100.0000 100.0000 100.0000 100.0000
100.0000 100.0000 100.0000 100.0000 100.0000 100.0000 100.0000 100.0000 100.0000 100.0000 100.0000 100.0000 100.0000 100.0000 100.0000 100.0000 100.0000 100.0000 100.0000 100.0000 100.0000 100.0000 100.0000 100.0000 100.0000 100.0000 100.0000 100.0000 100.0000 100.0000 100.0000 100.0000 100.0000 100.0000 100.0000 100.0000 100.0000 100.0000 100.0000 100.0000 100.0000 100.0000 100.0000 100.0000 100.0000 100.0000 100.0000 100.0000 100.0000 100.0000 100.0000 100.0000 100.0000 100.0000 100.0000 100.0000 100.0000 100.0000 100.0000 99.9942 99.9582 99.9227 99.8880 99.8538 99.8201 99.7871 99.7548 99.7229 99.6917 99.6612 99.6312 99.6017 99.5730 99.5447 99.5172 99.4901 99.4638 99.4380 99.4128 99.3881 99.3641 99.3407 99.3179 99.2957 99.2742 99.2532 99.2327 99.2130 99.1937 99.1752 99.1572 99.1398 99.1230 99.1068 99.0911 99.0761 99.0618 99.0480 99.0348 99.0221 99.0101 98.9988 98.9879 98.9778 98.9681 98.9591 98.9507 98.9429 98.9357 98.9291 98.9232 98.9177 98.9129 98.9087 98.9052 98.9022 98.8997 98.8979 98.8967 98.8962 98.8962 98.8967 98.8979 98.8997 98.9022 98.9052 98.9087 98.9129 98.9177 98.9232 98.9291 98.9357 98.9429 98.9507 98.9591 98.9681 98.9778 98.9879 98.9988 99.0101 99.0221 99.0348 99.0480 99.0618 99.0761 99.0911 99.1068 99.1230 99.1398 99.1572 99.1752 99.1937 99.2130 99.2327 99.2532 99.2742 99.2957 99.3179 99.3407 99.3641 99.3881 99.4128 99.4380 99.4638 99.4901 99.5172 99.5447 99.5730 99.6017 99.6312 99.6612 99.6917 99.7229 99.7548 99.7871 99.8201 99.8538 99.8880 99.9227 99.9582 99.9942 100.0000 100.0000 100.0000 100.0000 100.0000 100.0000 100.0000 100.0000 100.0000 100.0000 100.0000 100.0000 100.0000 100.0000 100.0000 100.0000 100.0000 100.0000 100.0000 100.0000 100.0000 100.0000 100.0000 100.0000 100.0000 100.0000 100.0000 100.0000 100.0000 100.0000 100.0000 100.0000 100.0000 100.0000 100.0000 100.0000 100.0000 100.0000 100.0000 100.0000 100.0000 100.0000 100.0000 100.0000 100.0000 100.0000 100.0000 100.0000 100.0000 100.0000 100.0000 100.0000 100.0000 100.0000 100.0000 100.0000 100.0000 100.0000 100.0000
100.0000 100.0000 100.0000 100.0000 100.0000 100.0000 100.0000 100.0000 100.0000 100.0000 100.0000 100.0000 100.0000 100.0000 100.0000 100.0000 100.0000 100.0000 100.0000 100.0000 100.0000 100.0000 100.0000 100.0000 100.0000 100.0000 100.0000 100.0000 100.0000 100.0000 100.0000 100.0000 100.0000 100.0000 100.0000 100.0000 100.0000 100.0000 100.0000 100.0000 100.0000 100.0000 100.0000 100.0000 100.0000 100.0000 100.0000 100.0000 100.0000 100.0000 100.0000 100.0000 100.0000 100.0000 100.0000 100.0000 100.0000 100.0000 100.0000 100.0000 100.0000 99.9707 99.9360 99.9018 99.8681 99.8351 99.8028 99.7709 99.7398 99.7091 99.6791 99.6497 99.6209 99.5927 99.5652 99.5382 99.5118 99.4860 99.4608 99.4361 99.4121 99.3888 99.3659 99.3438 99.3221 99.3012 99.2807 99.2609 99.2417 99.2232 99.2052 99.1877 99.1710 99.1548 99.1392 99.1242 99.1098 99.0960 99.0828 99.0701 99.0581 99.0468 99.0359 99.0258 99.0161 99.0071 98.9988 98.9909 98.9838 98.9771 98.9711 98.9657 98.9609 98.9567 98.9531 98.9501 98.9477 98.9459 98.9447 98.9441 98.9441 98.9447 98.9459 98.9477 98.9501 98.9531 98.9567 98.9609 98.9657 98.9711 98.9771 98.9838 98.9909 98.9988 99.0071 99.0161 99.0258 99.0359 99.0468 99.0581 99.0701 99.0828 99.0960 99.1098 99.1242 99.1392 99.1548 99.1710 99.1877 99.2052 99.2232 99.2417 99.2609 99.2807 99.3012 99.3221 99.3438 99.3659 99.3888 99.4121 99.4361 99.4608 99.4860 99.5118 99.5382 99.5652 99.5927 99.6209 99.6497 99.6791 99.7091 99.7398 99.7709 99.8028 99.8351 99.8681 99.9018 99.9360 99.9707 100.0000 100.0000 100.0000 100.0000 100.0000 100.0000 100.0000 100.0000 100.0000 100.0000 100.0000 100.0000 100.0000 100.0000 100.0000 100.0000 100.0000 100.0000 100.0000 100.0000 100.0000 100.0000 100.0000 100.0000 100.0000 100.0000 100.0000 100.0000 100.0000 100.0000 100.0000 100.0000 100.0000 100.0000 100.0000 100.0000 100.0000 100.0000 100.0000 100.0000 100.0000 100.0000 100.0000 100.0000 100.0000 100.0000 100.0000 100.0000 100.0000 100.0000 100.0000 100.0000 100.0000 100.0000 100.0000 100.0000 100.0000 100.0000 100.0000 100.0000 100.0000
100.0000 100.0000 100.0000 100.0000 100.0000 100.0000 100.0000 100.0000 100.0000 100.0000 100.0000 100.0000 100.0000 100.0000 100.0000 100.0000 100.0000 100.0000 100.0000 100.0000 100.0000 100.0000 100.0000 100.0000 100.0000 100.0000 100.0000 100.0000 100.0000 100.0000 100.0000 100.0000 100.0000 100.0000 100.0000 100.0000 100.0000 100.0000 100.0000 100.0000 100.0000 100.0000 100.0000 100.0000 100.0000 100.0000 100.0000 100.0000 100.0000 100.0000 100.0000 100.0000 100.0000 100.0000 100.0000 100.0000 100.0000 100.0000 100.0000 100.0000 100.0000 100.0000 99.9845 99.9504 99.9167 99.8838 99.8513 99.8196 99.7883 99.7578 99.7278 99.6984 99.6696 99.6414 99.6137 99.5867 99.5603 99.5345 99.5093 99.4848 99.4608 99.4373 99.4146 99.3923 99.3708 99.3498 99.3294 99.3096 99.2904 99.2717 99.2537 99.2364 99.2195 99.2034 99.1877 99.1727 99.1583 99.1445 99.1313 99.1188 99.1068 99.0953 99.0846 99.0743 99.0648 99.0558 99.0473 99.0396 99.0323 99.0258 99.0198 99.0143 99.0096 99.0053 99.0018 98.9988 98.9964 98.9946 98.9934 98.9928 98.9928 98.9934 98.9946 98.9964 98.9988 99.0018 99.0053 99.0096 99.0143 99.0198 99.0258 99.0323 99.0396 99.0473 99.0558 99.0648 99.0743 99.0846 99.0953 99.1068 99.1188 99.1313 99.1445 99.1583 99.1727 99.1877 99.2034 99.2195 99.2364 99.2537 99.2717 99.2904 99.3096 99.3294 99.3498 99.3708 99.3923 99.4146 99.4373 99.4608 99.4848 99.5093 99.5345 99.5603 99.5867 99.6137 99.6414 99.6696 99.6984 99.7278 99.7578 99.7883 99.8196 99.8513 99.8838 99.9167 99.9504 99.9845 100.0000 100.0000 100.0000 100.0000 100.0000 100.0000 100.0000 100.0000 100.0000 100.0000 100.0000 100.0000 100.0000 100.0000 100.0000 100.0000 100.0000 100.0000 100.0000 100.0000 100.0000 100.0000 100.0000 100.0000 100.0000 100.0000 100.0000 100.0000 100.0000 100.0000 100.0000 100.0000 100.0000 100.0000 100.0000 100.0000 100.0000 100.0000 100.0000 100.0000 100.0000 100.0000 100.0000 100.0000 100.0000 100.0000 100.0000 100.0000 100.0000 100.0000 100.0000 100.0000 100.0000 100.0000 100.0000 100.0000 100.0000 100.0000 100.0000 100.0000 100.0000 100.0000
100.0000 100.0000 100.0000 100.0000 100.0000 100.0000 100.0000 100.0000 100.0000 100.0000 100.0000 100.0000 100.0000 100.0000 100.0000 100.0000 100.0000 100.0000 100.0000 100.0000 100.0000 100.0000 100.0000 100.0000 100.0000 100.0000 100.0000 100.0000 100.0000 100.0000 100.0000 100.0000 100.0000 100.0000 100.0000 100.0000 100.0000 100.0000 100.0000 100.0000 100.0000 100.0000 100.0000 100.0000 100.0000 100.0000 100.0000 100.0000 100.0000 100.0000 100.0000 100.0000 100.0000 100.0000 100.0000 100.0000 100.0000 100.0000 100.0000 100.0000 100.0000 100.0000 100.0000 99.9995 99.9660 99.9330 99.9005 99.8688 99.8375 99.8070 99.7769 99.7476 99.7188 99.6906 99.6629 99.6359 99.6095 99.5837 99.5585 99.5340 99.5100 99.4865 99.4638 99.4416 99.4200 99.3989 99.3786 99.3588 99.3396 99.3209 99.3029 99.2856 99.2687 99.2525 99.2370 99.2220 99.2075 99.1937 99.1805 99.1680 99.1560 99.1445 99.1338 99.1235 99.1140 99.1050 99.0965 99.0888 99.0815 99.0750 99.0690 99.0636 99.0588 99.0546 99.0510 99.0480 99.0456 99.0438 99.0426 99.0419 99.0419 99.0426 99.0438 99.0456 99.0480 99.0510 99.0546 99.0588 99.0636 99.0690 99.0750 99.0815 99.0888 99.0965 99.1050 99.1140 99.1235 99.1338 99.1445 99.1560 99.1680 99.1805 99.1937 99.2075 99.2220 99.2370 99.2525 99.2687 99.2856 99.3029 99.3209 99.3396 99.3588 99.3786 99.3989 99.4200 99.4416 99.4638 99.4865 99.5100 99.5340 99.5585 99.5837 99.6095 99.6359 99.6629 99.6906 99.7188 99.7476 99.7769 99.8070 99.8375 99.8688 99.9005 99.9330 99.9660 99.9995 100.0000 100.0000 100.0000 100.0000 100.0000 100.0000 100.0000 100.0000 100.0000 100.0000 100.0000 100.0000 100.0000 100.0000 100.0000 100.0000 100.0000 100.0000 100.0000 100.0000 100.0000 100.0000 100.0000 100.0000 100.0000 100.0000 100.0000 100.0000 100.0000 100.0000 100.0000 100.0000 100.0000 100.0000 100.0000 100.0000 100.0000 100.0000 100.0000 100.0000 100.0000 100.0000 100.0000 100.0000 100.0000 100.0000 100.0000 100.0000 100.0000 100.0000 100.0000 100.0000 100.0000 100.0000 100.0000 100.0000 100.0000 100.0000 100.0000 100.0000 100.0000 100.0000 100.0000
100.0000 100.0000 100.0000 100.0000 100.0000 100.0000 100.0000 100.0000 100.0000 100.0000 100.0000 100.0000 100.0000 100.0000 100.0000 100.0000 100.0000 100.0000 100.0000 100.0000 100.0000 100.0000 100.0000 100.0000 100.0000 100.0000 100.0000 100.0000 100.0000 100.0000 100.0000 100.0000 100.0000 100.0000 100.0000 100.0000 100.0000 100.0000 100.0000 100.0000 100.0000 100.0000 100.0000 100.0000 100.0000 100.0000 100.0000 100.0000 100.0000 100.0000 100.0000 100.0000 100.0000 100.0000 100.0000 100.0000 100.0000 100.0000 100.0000 100.0000 100.0000 100.0000 100.0000 100.0000 100.0000 99.9827 99.9504 99.9185 99.8873 99.8568 99.8268 99.7973 99.7686 99.7404 99.7127 99.6857 99.6594 99.6335 99.6084 99.5837 99.5597 99.5363 99.5135 99.4913 99.4698 99.4488 99.4283 99.4086 99.3893 99.3708 99.3528 99.3354 99.3186 99.3024 99.2867 99.2717 99.2574 99.2435 99.2304 99.2177 99.2057 99.1944 99.1835 99.1733 99.1637 99.1548 99.1463 99.1385 99.1313 99.1248 99.1188 99.1133 99.1085 99.1043 99.1008 99.0978 99.0953 99.0935 99.0923 99.0918 99.0918 99.0923 99.0935 99.0953 99.0978 99.1008 99.1043 99.1085 99.1133 99.1188 99.1248 99.1313 99.1385 99.1463 99.1548 99.1637 99.1733 99.1835 99.1944 99.2057 99.2177 99.2304 99.2435 99.2574 99.2717 99.2867 99.3024 99.3186 99.3354 99.3528 99.3708 99.3893 99.4086 99.4283 99.4488 99.4698 99.4913 99.5135 99.5363 99.5597 99.5837 99.6084 99.6335 99.6594 99.6857 99.7127 99.7404 99.7686 99.7973 99.8268 99.8568 99.8873 99.9185 99.9504 99.9827 100.0000 100.0000 100.0000 100.0000 100.0000 100.0000 100.0000 100.0000 100.0000 100.0000 100.0000 100.0000 100.0000 100.0000 100.0000 100.0000 100.0000 100.0000 100.0000 100.0000 100.0000 100.0000 100.0000 100.0000 100.0000 100.0000 100.0000 100.0000 100.0000 100.0000 100.0000 100.0000 100.0000 100.0000 100.0000 100.0000 100.0000 100.0000 100.0000 100.0000 100.0000 100.0000 100.0000 100.0000 100.0000 100.0000 100.0000 100.0000 100.0000 100.0000 100.0000 100.0000 100.0000 100.0000 100.0000 100.0000 100.0000 100.0000 100.0000 100.0000 100.0000 100.0000 100.0000 100.0000 100.0000
100.0000 100.0000 100.0000 100.0000 100.0000 100.0000 100.0000 100.0000 100.0000 100.0000 100.0000 100.0000 100.0000 100.0000 100.0000 100.0000 100.0000 100.0000 100.0000 100.0000 100.0000 100.0000 100.0000 100.0000 100.0000 100.0000 100.0000 100.0000 100.0000 100.0000 100.0000 100.0000 100.0000 100.0000 100.0000 100.0000 100.0000 100.0000 100.0000 100.0000 100.0000 100.0000 100.0000 100.0000 100.0000 100.0000 100.0000 100.0000 100.0000 100.0000 100.0000 100.0000 100.0000 100.0000 100.0000 100.0000 100.0000 100.0000 100.0000 100.0000 100.0000 100.0000 100.0000 100.0000 100.0000 100.0000 100.0000 99.9690 99.9377 99.9072 99.8772 99.8478 99.8190 99.7908 99.7631 99.7361 99.7097 99.6839 99.6587 99.6342 99.6102 99.5867 99.5640 99.5417 99.5202 99.4992 99.4788 99.4590 99.4398 99.4211 99.4031 99.3858 99.3689 99.3528 99.3371 99.3221 99.3077 99.2939 99.2807 99.2682 99.2562 99.2447 99.2339 99.2237 99.2142 99.2052 99.1967 99.1890 99.1817 99.1752 99.1692 99.1637 99.1590 99.1548 99.1512 99.1482 99.1458 99.1440 99.1428 99.1422 99.1422 99.1428 99.1440 99.1458 99.1482 99.1512 99.1548 99.1590 99.1637 99.1692 99.1752 99.1817 99.1890 99.1967 99.2052 99.2142 99.2237 99.2339 99.2447 99.2562 99.2682 99.2807 99.2939 99.3077 99.3221 99.3371 99.3528 99.3689 99.3858 99.4031 99.4211 99.4398 99.4590 99.4788 99.4992 99.5202 99.5417 99.5640 99.5867 99.6102 99.6342 99.6587 99.6839 99.7097 99.7361 99.7631 99.7908 99.8190 99.8478 99.8772 99.9072 99.9377 99.9690 100.0000 100.0000 100.0000 100.0000 100.0000 100.0000 100.0000 100.0000 100.0000 100.0000 100.0000 100.0000 100.0000 100.0000 100.0000 100.0000 100.0000 100.0000 100.0000 100.0000 100.0000 100.0000 100.0000 100.0000 100.0000 100.0000 100.0000 100.0000 100.0000 100.0000 100.0000 100.0000 100.0000 100.0000 100.0000 100.0000 100.0000 100.0000 100.0000 100.0000 100.0000 100.0000 100.0000 100.0000 100.0000 100.0000 100.0000 100.0000 100.0000 100.0000 100.0000 100.0000 100.0000 100.0000 100.0000 100.0000 100.0000 100.0000 100.0000 100.0000 100.0000 100.0000 100.0000 100.0000 100.0000 100.0000 100.0000
100.0000 100.0000 100.0000 100.0000 100.0000 100.0000 100.0000 100.0000 100.0000 100.0000 100.0000 100.0000 100.0000 100.0000 100.0000 100.0000 100.0000 100.0000 100.0000 100.0000 100.0000 100.0000 100.0000 100.0000 100.0000 100.0000 100.0000 100.0000 100.0000 100.0000 100.0000 100.0000 100.0000 100.0000 100.0000 100.0000 100.0000 100.0000 100.0000 100.0000 100.0000 100.0000 100.0000 100.0000 100.0000 100.0000 100.0000 100.0000 100.0000 100.0000 100.0000 100.0000 100.0000 100.0000 100.0000 100.0000 100.0000 100.0000 100.0000 100.0000 100.0000 100.0000 100.0000 100.0000 100.0000 100.0000 100.0000 100.0000 99.9887 99.9582 99.9282 99.8988 99.8700 99.8418 99.8141 99.7871 99.7608 99.7349 99.7097 99.6851 99.6612 99.6377 99.6149 99.5927 99.5712 99.5502 99.5298 99.5100 99.4908 99.4721 99.4541 99.4368 99.4200 99.4038 99.3881 99.3731 99.3588 99.3449 99.3317 99.3191 99.3072 99.2957 99.2849 99.2747 99.2652 99.2562 99.2477 99.2399 99.2327 99.2262 99.2202 99.2147 99.2100 99.2057 99.2022 99.1992 99.1967 99.1950 99.1937 99.1932 99.1932 99.1937 99.1950 99.1967 99.1992 99.2022 99.2057 99.2100 99.2147 99.2202 99.2262 99.2327 99.2399 99.2477 99.2562 99.2652 99.2747 99.2849 99.2957 99.3072 99.3191 99.3317 99.3449 99.3588 99.3731 99.3881 99.4038 99.4200 99.4368 99.4541 99.4721 99.4908 99.5100 99.5298 99.5502 99.5712 99.5927 99.6149 99.6377 99.6612 99.6851 99.7097 99.7349 99.7608 99.7871 99.8141 99.8418 99.8700 99.8988 99.9282 99.9582 99.9887 100.0000 100.0000 100.0000 100.0000 100.0000 100.0000 100.0000 100.0000 100.0000 100.0000 100.0000 100.0000 100.0000 100.0000 100.0000 100.0000 100.0000 100.0000 100.0000 100.0000 100.0000 100.0000 100.0000 100.0000 100.0000 100.0000 100.0000 100.0000 100.0000 100.0000 100.0000 100.0000 100.0000 100.0000 100.0000 100.0000 100.0000 100.0000 100.0000 100.0000 100.0000 100.0000 100.0000 100.0000 100.0000 100.0000 100.0000 100.0000 100.0000 100.0000 100.0000 100.0000 100.0000 100.0000 100.0000 100.0000 100.0000 100.0000 100.0000 100.0000 100.0000 100.0000 100.0000 100.0000 100.0000 100.0000 100.0000 100.0000
100.0000 100.0000 100.0000 100.0000 100.0000 100.0000 100.0000 100.0000 100.0000 100.0000 100.0000 100.0000 100.0000 100.0000 100.0000 100.0000 100.0000 100.0000 100.0000 100.0000 100.0000 100.0000 100.0000 100.0000 100.0000 100.0000 100.0000 100.0000 100.0000 100.0000 100.0000 100.0000 100.0000 100.0000 100.0000 100.0000 100.0000 100.0000 100.0000 100.0000 100.0000 100.0000 100.0000 100.0000 100.0000 100.0000 100.0000 100.0000 100.0000 100.0000 100.0000 100.0000 100.0000 100.0000 100.0000 100.0000 100.0000 100.0000 100.0000 100.0000 100.0000 100.0000 100.0000 100.0000 100.0000 100.0000 100.0000 100.0000 100.0000 100.0000 99.9797 99.9504 99.9215 99.8933 99.8658 99.8388 99.8123 99.7866 99.7613 99.7368 99.7127 99.6894 99.6666 99.6444 99.6227 99.6017 99.5814 99.5615 99.5423 99.5238 99.5058 99.4883 99.4715 99.4553 99.4398 99.4248 99.4103 99.3966 99.3834 99.3708 99.3588 99.3474 99.3366 99.3264 99.3167 99.3077 99.2994 99.2916 99.2844 99.2777 99.2717 99.2664 99.2615 99.2574 99.2537 99.2507 99.2484 99.2465 99.2454 99.2447 99.2447 99.2454 99.2465 99.2484 99.2507 99.2537 99.2574 99.2615 99.2664 99.2717 99.2777 99.2844 99.2916 99.2994 99.3077 99.3167 99.3264 99.3366 99.3474 99.3588 99.3708 99.3834 99.3966 99.4103 99.4248 99.4398 99.4553 99.4715 99.4883 99.5058 99.5238 99.5423 99.5615 99.5814 99.6017 99.6227 99.6444 99.6666 99.6894 99.7127 99.7368 99.7613 99.7866 99.8123 99.8388 99.8658 99.8933 99.9215 99.9504 99.9797 100.0000 100.0000 100.0000 100.0000 100.0000 100.0000 100.0000 100.0000 100.0000 100.0000 100.0000 100.0000 100.0000 100.0000 100.0000 100.0000 100.0000 100.0000 100.0000 100.0000 100.0000 100.0000 100.0000 100.0000 100.0000 100.0000 100.0000 100.0000 100.0000 100.0000 100.0000 100.0000 100.0000 100.0000 100.0000 100.0000 100.0000 100.0000 100.0000 100.0000 100.0000 100.0000 100.0000 100.0000 100.0000 100.0000 100.0000 100.0000 100.0000 100.0000 100.0000 100.0000 100.0000 100.0000 100.0000 100.0000 100.0000 100.0000 100.0000 100.0000 100.0000 100.0000 100.0000 100.0000 100.0000 100.0000 100.0000 100.0000 100.0000 100.0000
100.0000 100.0000 100.0000 100.0000 100.0000 100.0000 100.0000 100.0000 100.0000 100.0000 100.0000 100.0000 100.0000 100.0000 100.0000 100.0000 100.0000 100.0000 100.0000 100.0000 100.0000 100.0000 100.0000 100.0000 100.0000 100.0000 100.0000 100.0000 100.0000 100.0000 100.0000 100.0000 100.0000 100.0000 100.0000 100.0000 100.0000 100.0000 100.0000 100.0000 100.0000 100.0000 100.0000 100.0000 100.0000 100.0000 100.0000 100.0000 100.0000 100.0000 100.0000 100.0000 100.0000 100.0000 100.0000 100.0000 100.0000 100.0000 100.0000 100.0000 100.0000 100.0000 100.0000 100.0000 100.0000 100.0000 100.0000 100.0000 100.0000 100.0000 100.0000 100.0000 99.9737 99.9455 99.9180 99.8910 99.8645 99.8388 99.8136 99.7889 99.7649 99.7416 99.7188 99.6966 99.6749 99.6539 99.6335 99.6137 99.5945 99.5760 99.5580 99.5405 99.5238 99.5075 99.4920 99.4770 99.4625 99.4488 99.4356 99.4230 99.4109 99.3996 99.3888 99.3786 99.3689 99.3599 99.3516 99.3438 99.3366 99.3299 99.3239 99.3186 99.3137 99.3096 99.3059 99.3029 99.3006 99.2987 99.2976 99.2969 99.2969 99.2976 99.2987 99.3006 99.3029 99.3059 99.3096 99.3137 99.3186 99.3239 99.3299 99.3366 99.3438 99.3516 99.3599 99.3689 99.3786 99.3888 99.3996 99.4109 99.4230 99.4356 99.4488 99.4625 99.4770 99.4920 99.5075 99.5238 99.5405 99.5580 99.5760 99.5945 99.6137 99.6335 99.6539 99.6749 99.6966 99.7188 99.7416 99.7649 99.7889 99.8136 99.8388 99.8645 99.8910 99.9180 99.9455 99.9737 100.0000 100.0000 100.0000 100.0000 100.0000 100.0000 100.0000 100.0000 100.0000 100.0000 100.0000 100.0000 100.0000 100.0000 100.0000 100.0000 100.0000 100.0000 100.0000 100.0000 100.0000 100.0000 100.0000 100.0000 100.0000 100.0000 100.0000 100.0000 100.0000 100.0000 100.0000 100.0000 100.0000 100.0000 100.0000 100.0000 100.0000 100.0000 100.0000 100.0000 100.0000 100.0000 100.0000 100.0000 100.0000 100.0000 100.0000 100.0000 100.0000 100.0000 100.0000 100.0000 100.0000 100.0000 100.0000 100.0000 100.0000 100.0000 100.0000 100.0000 100.0000 100.0000 100.0000 100.0000 100.0000 100.0000 100.0000 100.0000 100.0000 100.0000 100.0000 100.0000
100.0000 100.0000 100.0000 100.0000 100.0000 100.0000 100.0000 100.0000 100.0000 100.0000 100.0000 100.0000 100.0000 100.0000 100.0000 100.0000 100.0000 100.0000 100.0000 100.0000 100.0000 100.0000 100.0000 100.0000 100.0000 100.0000 100.0000 100.0000 100.0000 100.0000 100.0000 100.0000 100.0000 100.0000 100.0000 100.0000 100.0000 100.0000 100.0000 100.0000 100.0000 100.0000 100.0000 100.0000 100.0000 100.0000 100.0000 100.0000 100.0000 100.0000 100.0000 100.0000 100.0000 100.0000 100.0000 100.0000 100.0000 100.0000 100.0000 100.0000 100.0000 100.0000 100.0000 100.0000 100.0000 100.0000 100.0000 100.0000 100.0000 100.0000 100.0000 100.0000 100.0000 99.9984 99.9707 99.9437 99.9173 99.8915 99.8663 99.8418 99.8178 99.7943 99.7716 99.7493 99.7278 99.7067 99.6864 99.6666 99.6474 99.6287 99.6107 99.5934 99.5765 99.5603 99.5447 99.5298 99.5153 99.5015 99.4883 99.4758 99.4638 99.4523 99.4416 99.4313 99.4218 99.4128 99.4043 99.3966 99.3893 99.3828 99.3768 99.3714 99.3666 99.3624 99.3588 99.3558 99.3534 99.3516 99.3504 99.3498 99.3498 99.3504 99.3516 99.3534 99.3558 99.3588 99.3624 99.3666 99.3714 99.3768 99.3828 99.3893 99.3966 99.4043 99.4128 99.4218 99.4313 99.4416 99.4523 99.4638 99.4758 99.4883 99.5015 99.5153 99.5298 99.5447 99.5603 99.5765 99.5934 99.6107 99.6287 99.6474 99.6666 99.6864 99.7067 99.7278 99.7493 99.7716 99.7943 99.8178 99.8418 99.8663 99.8915 99.9173 99.9437 99.9707 99.9984 100.0000 100.0000 100.0000 100.0000 100.0000 100.0000 100.0000 100.0000 100.0000 100.0000 100.0000 100.0000 100.0000 100.0000 100.0000 100.0000 100.0000 100.0000 100.0000 100.0000 100.0000 100.0000 100.0000 100.0000 100.0000 100.0000 100.0000 100.0000 100.0000 100.0000 100.0000 100.0000 100.0000 100.0000 100.0000 100.0000 100.0000 100.0000 100.0000 100.0000 100.0000 100.0000 100.0000 100.0000 100.0000 100.0000 100.0000 100.0000 100.0000 100.0000 100.0000 100.0000 100.0000 100.0000 100.0000 100.0000 100.0000 100.0000 100.0000 100.0000 100.0000 100.0000 100.0000 100.0000 100.0000 100.0000 100.0000 100.0000 100.0000 100.0000 100.0000 100.0000 100.0000
100.0000 100.0000 100.0000 100.0000 100.0000 100.0000 100.0000 100.0000 100.0000 100.0000 100.0000 100.0000 100.0000 100.0000 100.0000 100.0000 100.0000 100.0000 100.0000 100.0000 100.0000 100.0000 100.0000 100.0000 100.0000 100.0000 100.0000 100.0000 100.0000 100.0000 100.0000 100.0000 100.0000 100.0000 100.0000 100.0000 100.0000 100.0000 100.0000 100.0000 100.0000 100.0000 100.0000 100.0000 100.0000 100.0000 100.0000 100.0000 100.0000 100.0000 100.0000 100.0000 100.0000 100.0000 100.0000 100.0000 100.0000 100.0000 100.0000 100.0000 100.0000 100.0000 100.0000 100.0000 100.0000 100.0000 100.0000 100.0000 100.0000 100.0000 100.0000 100.0000 100.0000 100.0000 100.0000 99.9972 99.9707 99.9450 99.9197 99.8952 99.8712 99.8478 99.8250 99.8028 99.7811 99.7601 99.7398 99.7199 99.7007 99.6822 99.6642 99.6467 99.6299 99.6137 99.5982 99.5832 99.5687 99.5550 99.5417 99.5292 99.5172 99.5058 99.4950 99.4848 99.4751 99.4661 99.4578 99.4500 99.4428 99.4361 99.4301 99.4248 99.4200 99.4158 99.4121 99.4091 99.4068 99.4049 99.4038 99.4031 99.4031 99.4038 99.4049 99.4068 99.4091 99.4121 99.4158 99.4200 99.4248 99.4301 99.4361 99.4428 99.4500 99.4578 99.4661 99.4751 99.4848 99.4950 99.5058 99.5172 99.5292 99.5417 99.5550 99.5687 99.5832 99.5982 99.6137 99.6299 99.6467 99.6642 99.6822 99.7007 99.7199 99.7398 99.7601 99.7811 99.8028 99.8250 99.8478 99.8712 99.8952 99.9197 99.9450 99.9707 99.9972 100.0000 100.0000 100.0000 100.0000 100.0000 100.0000 100.0000 100.0000 100.0000 100.0000 100.0000 100.0000 100.0000 100.0000 100.0000 100.0000 100.0000 100.0000 100.0000 100.0000 100.0000 100.0000 100.0000 100.0000 100.0000 100.0000 100.0000 100.0000 100.0000 100.0000 100.0000 100.0000 100.0000 100.0000 100.0000 100.0000 100.0000 100.0000 100.0000 100.0000 100.0000 100.0000 100.0000 100.0000 100.0000 100.0000 100.0000 100.0000 100.0000 100.0000 100.0000 100.0000 100.0000 100.0000 100.0000 100.0000 100.0000 100.0000 100.0000 100.0000 100.0000 100.0000 100.0000 100.0000 100.0000 100.0000 100.0000 100.0000 100.0000 100.0000 100.0000 100.0000 100.0000 100.0000 100.0000
100.0000 100.0000 100.0000 100.0000 100.0000 100.0000 100.0000 100.0000 100.0000 100.0000 100.0000 100.0000 100.0000 100.0000 100.0000 100.0000 100.0000 100.0000 100.0000 100.0000 100.0000 100.0000 100.0000 100.0000 100.0000 100.0000 100.0000 100.0000 100.0000 100.0000 100.0000 100.0000 100.0000 100.0000 100.0000 100.0000 100.0000 100.0000 100.0000 100.0000 100.0000 100.0000 100.0000 100.0000 100.0000 100.0000 100.0000 100.0000 100.0000 100.0000 100.0000 100.0000 100.0000 100.0000 100.0000 100.0000 100.0000 100.0000 100.0000 100.0000 100.0000 100.0000 100.0000 100.0000 100.0000 100.0000 100.0000 100.0000 100.0000 100.0000 100.0000 100.0000 100.0000 100.0000 100.0000 100.0000 100.0000 99.9989 99.9737 99.9492 99.9252 99.9018 99.8790 99.8568 99.8351 99.8141 99.7938 99.7739 99.7548 99.7361 99.7181 99.7007 99.6839 99.6677 99.6522 99.6372 99.6227 99.6089 99.5957 99.5832 99.5712 99.5597 99.5490 99.5387 99.5292 99.5202 99.5118 99.5040 99.4968 99.4901 99.4841 99.4788 99.4740 99.4698 99.4661 99.4631 99.4608 99.4590 99.4578 99.4571 99.4571 99.4578 99.4590 99.4608 99.4631 99.4661 99.4698 99.4740 99.4788 99.4841 99.4901 99.4968 99.5040 99.5118 99.5202 99.5292 99.5387 99.5490 99.5597 99.5712 99.5832 99.5957 99.6089 99.6227 99.6372 99.6522 99.6677 99.6839 99.7007 99.7181 99.7361 99.7548 99.7739 99.7938 99.8141 99.8351 99.8568 99.8790 99.9018 99.9252 99.9492 99.9737 99.9989 100.0000 100.0000 100.0000 100.0000 100.0000 100.0000 100.0000 100.0000 100.0000 100.0000 100.0000 100.0000 100.0000 100.0000 100.0000 100.0000 100.0000 100.0000 100.0000 100.0000 100.0000 100.0000 100.0000 100.0000 100.0000 100.0000 100.0000 100.0000 100.0000 100.0000 100.0000 100.0000 100.0000 100.0000 100.0000 100.0000 100.0000 100.0000 100.0000 100.0000 100.0000 100.0000 100.0000 100.0000 100.0000 100.0000 100.0000 100.0000 100.0000 100.0000 100.0000 100.0000 100.0000 100.0000 100.0000 100.0000 100.0000 100.0000 100.0000 100.0000 100.0000 100.0000 100.0000 100.0000 100.0000 100.0000 100.0000 100.0000 100.0000 100.0000 100.0000 100.0000 100.0000 100.0000 100.0000 100.0000 100.0000
100.0000 100.0000 100.0000 100.0000 100.0000 100.0000 100.0000 100.0000 100.0000 100.0000 100.0000 100.0000 100.0000 100.0000 100.0000 100.0000 100.0000 100.0000 100.0000 100.0000 100.0000 100.0000 100.0000 100.0000 100.0000 100.0000 100.0000 100.0000 100.0000 100.0000 100.0000 100.0000 100.0000 100.0000 100.0000 100.0000 100.0000 100.0000 100.0000 100.0000 100.0000 100.0000 100.0000 100.0000 100.0000 100.0000 100.0000 100.0000 100.0000 100.0000 100.0000 100.0000 100.0000 100.0000 100.0000 100.0000 100.0000 100.0000 100.0000 100.0000 100.0000 100.0000 100.0000 100.0000 100.0000 100.0000 100.0000 100.0000 100.0000 100.0000 100.0000 100.0000 100.0000 100.0000 100.0000 100.0000 100.0000 100.0000 100.0000 100.0000 99.9797 99.9564 99.9335 99.9113 99.8898 99.8688 99.8483 99.8286 99.8093 99.7908 99.7728 99.7553 99.7386 99.7224 99.7067 99.6917 99.6774 99.6636 99.6504 99.6377 99.6257 99.6144 99.6035 99.5934 99.5837 99.5747 99.5663 99.5585 99.5513 99.5447 99.5387 99.5333 99.5285 99.5243 99.5208 99.5178 99.5153 99.5135 99.5123 99.5118 99.5118 99.5123 99.5135 99.5153 99.5178 99.5208 99.5243 99.5285 99.5333 99.5387 99.5447 99.5513 99.5585 99.5663 99.5747 99.5837 99.5934 99.6035 99.6144 99.6257 99.6377 99.6504 99.6636 99.6774 99.6917 99.7067 99.7224 99.7386 99.7553 99.7728 99.7908 99.8093 99.8286 99.8483 99.8688 99.8898 99.9113 99.9335 99.9564 99.9797 100.0000 100.0000 100.0000 100.0000 100.0000 100.0000 100.0000 100.0000 100.0000 100.0000 100.0000 100.0000 100.0000 100.0000 100.0000 100.0000 100.0000 100.0000 100.0000 100.0000 100.0000 100.0000 100.0000 100.0000 100.0000 100.0000 100.0000 100.0000 100.0000 100.0000 100.0000 100.0000 100.0000 100.0000 100.0000 100.0000 100.0000 100.0000 100.0000 100.0000 100.0000 100.0000 100.0000 100.0000 100.0000 100.0000 100.0000 100.0000 100.0000 100.0000 100.0000 100.0000 100.0000 100.0000 100.0000 100.0000 100.0000 100.0000 100.0000 100.0000 100.0000 100.0000 100.0000 100.0000 100.0000 100.0000 100.0000 100.0000 100.0000 100.0000 100.0000 100.0000 100.0000 100.0000 100.0000 100.0000 100.0000 100.0000 100.0000 100.0000
100.0000 100.0000 100.0000 100.0000 100.0000 100.0000 100.0000 100.0000 100.0000 100.0000 100.0000 100.0000 100.0000 100.0000 100.0000 100.0000 100.0000 100.0000 100.0000 100.0000 100.0000 100.0000 100.0000 100.0000 100.0000 100.0000 100.0000 100.0000 100.0000 100.0000 100.0000 100.0000 100.0000 100.0000 100.0000 100.0000 100.0000 100.0000 100.0000 100.0000 100.0000 100.0000 100.0000 100.0000 100.0000 100.0000 100.0000 100.0000 100.0000 100.0000 100.0000 100.0000 100.0000 100.0000 100.0000 100.0000 100.0000 100.0000 100.0000 100.0000 100.0000 100.0000 100.0000 100.0000 100.0000 100.0000 100.0000 100.0000 100.0000 100.0000 100.0000 100.0000 100.0000 100.0000 100.0000 100.0000 100.0000 100.0000 100.0000 100.0000 100.0000 100.0000 99.9887 99.9665 99.9450 99.9240 99.9035 99.8838 99.8645 99.8460 99.8280 99.8106 99.7938 99.7776 99.7619 99.7469 99.7326 99.7188 99.7056 99.6929 99.6809 99.6696 99.6587 99.6486 99.6389 99.6299 99.6215 99.6137 99.6065 99.6000 99.5940 99.5885 99.5837 99.5795 99.5760 99.5730 99.5705 99.5687 99.5675 99.5670 99.5670 99.5675 99.5687 99.5705 99.5730 99.5760 99.5795 99.5837 99.5885 99.5940 99.6000 99.6065 99.6137 99.6215 99.6299 99.6389 99.6486 99.6587 99.6696 99.6809 99.6929 99.7056 99.7188 99.7326 99.7469 99.7619 99.7776 99.7938 99.8106 99.8280 99.8460 99.8645 99.8838 99.9035 99.9240 99.9450 99.9665 99.9887 100.0000 100.0000 100.0000 100.0000 100.0000 100.0000 100.0000 100.0000 100.0000 100.0000 100.0000 100.0000 100.0000 100.0000 100.0000 100.0000 100.0000 100.0000 100.0000 100.0000 100.0000 100.0000 100.0000 100.0000 100.0000 100.0000 100.0000 100.0000 100.0000 100.0000 100.0000 100.0000 100.0000 100.0000 100.0000 100.0000 100.0000 100.0000 100.0000 100.0000 100.0000 100.0000 100.0000 100.0000 100.0000 100.0000 100.0000 100.0000 100.0000 100.0000 100.0000 100.0000 100.0000 100.0000 100.0000 100.0000 100.0000 100.0000 100.0000 100.0000 100.0000 100.0000 100.0000 100.0000 100.0000 100.0000 100.0000 100.0000 100.0000 100.0000 100.0000 100.0000 100.0000 100.0000 100.0000 100.0000 100.0000 100.0000 100.0000 100.0000 100.0000 100.0000
100.0000 100.0000 100.0000 100.0000 100.0000 100.0000 100.0000 100.0000 100.0000 100.0000 100.0000 100.0000 100.0000 100.0000 100.0000 100.0000 100.0000 100.0000 100.0000 100.0000 100.0000 100.0000 100.0000 100.0000 100.0000 100.0000 100.0000 100.0000 100.0000 100.0000 100.0000 100.0000 100.0000 100.0000 100.0000 100.0000 100.0000 100.0000 100.0000 100.0000 100.0000 100.0000 100.0000 100.0000 100.0000 100.0000 100.0000 100.0000 100.0000 100.0000 100.0000 100.0000 100.0000 100.0000 100.0000 100.0000 100.0000 100.0000 100.0000 100.0000 100.0000 100.0000 100.0000 100.0000 100.0000 100.0000 100.0000 100.0000 100.0000 100.0000 100.0000 100.0000 100.0000 100.0000 100.0000 100.0000 100.0000 100.0000 100.0000 100.0000 100.0000 100.0000 100.0000 100.0000 100.0000 99.9797 99.9594 99.9395 99.9203 99.9018 99.8838 99.8663 99.8495 99.8333 99.8178 99.8028 99.7883 99.7746 99.7613 99.7488 99.7368 99.7254 99.7146 99.7044 99.6947 99.6857 99.6774 99.6696 99.6624 99.6557 99.6497 99.6444 99.6395 99.6354 99.6317 99.6287 99.6264 99.6245 99.6234 99.6227 99.6227 99.6234 99.6245 99.6264 99.6287 99.6317 99.6354 99.6395 99.6444 99.6497 99.6557 99.6624 99.6696 99.6774 99.6857 99.6947 99.7044 99.7146 99.7254 99.7368 99.7488 99.7613 99.7746 99.7883 99.8028 99.8178 99.8333 99.8495 99.8663 99.8838 99.9018 99.9203 99.9395 99.9594 99.9797 100.0000 100.0000 100.0000 100.0000 100.0000 100.0000 100.0000 100.0000 100.0000 100.0000 100.0000 100.0000 100.0000 100.0000 100.0000 100.0000 100.0000 100.0000 100.0000 100.0000 100.0000 100.0000 100.0000 100.0000 100.0000 100.0000 100.0000 100.0000 100.0000 100.0000 100.0000 100.0000 100.0000 100.0000 100.0000 100.0000 100.0000 100.0000 100.0000 100.0000 100.0000 100.0000 100.0000 100.0000 100.0000 100.0000 100.0000 100.0000 100.0000 100.0000 100.0000 100.0000 100.0000 100.0000 100.0000 100.0000 100.0000 100.0000 100.0000 100.0000 100.0000 100.0000 100.0000 100.0000 100.0000 100.0000 100.0000 100.0000 100.0000 100.0000 100.0000 100.0000 100.0000 100.0000 100.0000 100.0000 100.0000 100.0000 100.0000 100.0000 100.0000 100.0000 100.0000 100.0000 100.0000
100.0000 100.0000 100.0000 100.0000 100.0000 100.0000 100.0000 100.0000 100.0000 100.0000 100.0000 100.0000 100.0000 100.0000 100.0000 100.0000 100.0000 100.0000 100.0000 100.0000 100.0000 100.0000 100.0000 100.0000 100.0000 100.0000 100.0000 100.0000 100.0000 100.0000 100.0000 100.0000 100.0000 100.0000 100.0000 100.0000 100.0000 100.0000 100.0000 100.0000 100.0000 100.0000 100.0000 100.0000 100.0000 100.0000 100.0000 100.0000 100.0000 100.0000 100.0000 100.0000 100.0000 100.0000 100.0000 100.0000 100.0000 100.0000 100.0000 100.0000 100.0000 100.0000 100.0000 100.0000 100.0000 100.0000 100.0000 100.0000 100.0000 100.0000 100.0000 100.0000 100.0000 100.0000 100.0000 100.0000 100.0000 100.0000 100.0000 100.0000 100.0000 100.0000 100.0000 100.0000 100.0000 100.0000 100.0000 99.9959 99.9767 99.9582 99.9402 99.9227 99.9060 99.8898 99.8742 99.8591 99.8448 99.8310 99.8178 99.8051 99.7931 99.7818 99.7709 99.7608 99.7511 99.7421 99.7338 99.7259 99.7188 99.7121 99.7061 99.7007 99.6959 99.6917 99.6882 99.6851 99.6827 99.6809 99.6797 99.6791 99.6791 99.6797 99.6809 99.6827 99.6851 99.6882 99.6917 99.6959 99.7007 99.7061 99.7121 99.7188 99.7259 99.7338 99.7421 99.7511 99.7608 99.7709 99.7818 99.7931 99.8051 99.8178 99.8310 99.8448 99.8591 99.8742 99.8898 99.9060 99.9227 99.9402 99.9582 99.9767 99.9959 100.0000 100.0000 100.0000 100.0000 100.0000 100.0000 100.0000 100.0000 100.0000 100.0000 100.0000 100.0000 100.0000 100.0000 100.0000 100.0000 100.0000 100.0000 100.0000 100.0000 100.0000 100.0000 100.0000 100.0000 100.0000 100.0000 100.0000 100.0000 100.0000 100.0000 100.0000 100.0000 100.0000 100.0000 100.0000 100.0000 100.0000 100.0000 100.0000 100.0000 100.0000 100.0000 100.0000 100.0000 100.0000 100.0000 100.0000 100.0000 100.0000 100.0000 100.0000 100.0000 100.0000 100.0000 100.0000 100.0000 100.0000 100.0000 100.0000 100.0000 100.0000 100.0000 100.0000 100.0000 100.0000 100.0000 100.0000 100.0000 100.0000 100.0000 100.0000 100.0000 100.0000 100.0000 100.0000 100.0000 100.0000 100.0000 100.0000 100.0000 100.0000 100.0000 100.0000 100.0000 100.0000 100.0000 100.0000
100.0000 100.0000 100.0000 100.0000 100.0000 100.0000 100.0000 100.0000 100.0000 100.0000 100.0000 100.0000 100.0000 100.0000 100.0000 100.0000 100.0000 100.0000 100.0000 100.0000 100.0000 100.0000 100.0000 100.0000 100.0000 100.0000 100.0000 100.0000 100.0000 100.0000 100.0000 100.0000 100.0000 100.0000 100.0000 100.0000 100.0000 100.0000 100.0000 100.0000 100.0000 100.0000 100.0000 100.0000 100.0000 100.0000 100.0000 100.0000 100.0000 100.0000 100.0000 100.0000 100.0000 100.0000 100.0000 100.0000 100.0000 100.0000 100.0000 100.0000 100.0000 100.0000 100.0000 100.0000 100.0000 100.0000 100.0000 100.0000 100.0000 100.0000 100.0000 100.0000 100.0000 100.0000 100.0000 100.0000 100.0000 100.0000 100.0000 100.0000 100.0000 100.0000 100.0000 100.0000 100.0000 100.0000 100.0000 100.0000 100.0000 100.0000 99.9972 99.9797 99.9630 99.9467 99.9312 99.9162 99.9018 99.8880 99.8748 99.8621 99.8501 99.8388 99.8280 99.8178 99.8081 99.7991 99.7908 99.7829 99.7758 99.7691 99.7631 99.7578 99.7529 99.7488 99.7451 99.7421 99.7398 99.7379 99.7368 99.7361 99.7361 99.7368 99.7379 99.7398 99.7421 99.7451 99.7488 99.7529 99.7578 99.7631 99.7691 99.7758 99.7829 99.7908 99.7991 99.8081 99.8178 99.8280 99.8388 99.8501 99.8621 99.8748 99.8880 99.9018 99.9162 99.9312 99.9467 99.9630 99.9797 99.9972 100.0000 100.0000 100.0000 100.0000 100.0000 100.0000 100.0000 100.0000 100.0000 100.0000 100.0000 100.0000 100.0000 100.0000 100.0000 100.0000 100.0000 100.0000 100.0000 100.0000 100.0000 100.0000 100.0000 100.0000 100.0000 100.0000 100.0000 100.0000 100.0000 100.0000 100.0000 100.0000 100.0000 100.0000 100.0000 100.0000 100.0000 100.0000 100.0000 100.0000 100.0000 100.0000 100.0000 100.0000 100.0000 100.0000 100.0000 100.0000 100.0000 100.0000 100.0000 100.0000 100.0000 100.0000 100.0000 100.0000 100.0000 100.0000 100.0000 100.0000 100.0000 100.0000 100.0000 100.0000 100.0000 100.0000 100.0000 100.0000 100.0000 100.0000 100.0000 100.0000 100.0000 100.0000 100.0000 100.0000 100.0000 100.0000 100.0000 100.0000 100.0000 100.0000 100.0000 100.0000 100.0000 100.0000 100.0000 100.0000 100.0000 100.0000
100.0000 100.0000 100.0000 100.0000 100.0000 100.0000 100.0000 100.0000 100.0000 100.0000 100.0000 100.0000 100.0000 100.0000 100.0000 100.0000 100.0000 100.0000 100.0000 100.0000 100.0000 100.0000 100.0000 100.0000 100.0000 100.0000 100.0000 100.0000 100.0000 100.0000 100.0000 100.0000 100.0000 100.0000 100.0000 100.0000 100.0000 100.0000 100.0000 100.0000 100.0000 100.0000 100.0000 100.0000 100.0000 100.0000 100.0000 100.0000 100.0000 100.0000 100.0000 100.0000 100.0000 100.0000 100.0000 100.0000 100.0000 100.0000 100.0000 100.0000 100.0000 100.0000 100.0000 100.0000 100.0000 100.0000 100.0000 100.0000 100.0000 100.0000 100.0000 100.0000 100.0000 100.0000 100.0000 100.0000 100.0000 100.0000 100.0000 100.0000 100.0000 100.0000 100.0000 100.0000 100.0000 100.0000 100.0000 100.0000 100.0000 100.0000 100.0000 100.0000 100.0000 100.0000 99.9887 99.9737 99.9594 99.9455 99.9323 99.9197 99.9077 99.8963 99.8855 99.8753 99.8658 99.8568 99.8483 99.8405 99.8333 99.8268 99.8208 99.8153 99.8106 99.8063 99.8028 99.7998 99.7973 99.7956 99.7943 99.7938 99.7938 99.7943 99.7956 99.7973 99.7998 99.8028 99.8063 99.8106 99.8153 99.8208 99.8268 99.8333 99.8405 99.8483 99.8568 99.8658 99.8753 99.8855 99.8963 99.9077 99.9197 99.9323 99.9455 99.9594 99.9737 99.9887 100.0000 100.0000 100.0000 100.0000 100.0000 100.0000 100.0000 100.0000 100.0000 100.0000 100.0000 100.0000 100.0000 100.0000 100.0000 100.0000 100.0000 100.0000 100.0000 100.0000 100.0000 100.0000 100.0000 100.0000 100.0000 100.0000 100.0000 100.0000 100.0000 100.0000 100.0000 100.0000 100.0000 100.0000 100.0000 100.0000 100.0000 100.0000 100.0000 100.0000 100.0000 100.0000 100.0000 100.0000 100.0000 100.0000 100.0000 100.0000 100.0000 100.0000 100.0000 100.0000 100.0000 100.0000 100.0000 100.0000 100.0000 100.0000 100.0000 100.0000 100.0000 100.0000 100.0000 100.0000 100.0000 100.0000 100.0000 100.0000 100.0000 100.0000 100.0000 100.0000 100.0000 100.0000 100.0000 100.0000 100.0000 100.0000 100.0000 100.0000 100.0000 100.0000 100.0000 100.0000 100.0000 100.0000 100.0000 100.0000 100.0000 100.0000 100.0000 100.0000 100.0000 100.0000
100.0000 100.0000 100.0000 100.0000 100.0000 100.0000 100.0000 100.0000 100.0000 100.0000 100.0000 100.0000 100.0000 100.0000 100.0000 100.0000 100.0000 100.0000 100.0000 100.0000 100.0000 100.0000 100.0000 100.0000 100.0000 100.0000 100.0000 100.0000 100.0000 100.0000 100.0000 100.0000 100.0000 100.0000 100.0000 100.0000 100.0000 100.0000 100.0000 100.0000 100.0000 100.0000 100.0000 100.0000 100.0000 100.0000 100.0000 100.0000 100.0000 100.0000 100.0000 100.0000 100.0000 100.0000 100.0000 100.0000 100.0000 100.0000 100.0000 100.0000 100.0000 100.0000 100.0000 100.0000 100.0000 100.0000 100.0000 100.0000 100.0000 100.0000 100.0000 100.0000 100.0000 100.0000 100.0000 100.0000 100.0000 100.0000 100.0000 100.0000 100.0000 100.0000 100.0000 100.0000 100.0000 100.0000 100.0000 100.0000 100.0000 100.0000 100.0000 100.0000 100.0000 100.0000 100.0000 100.0000 100.0000 100.0000 99.9905 99.9779 99.9660 99.9545 99.9437 99.9335 99.9240 99.9150 99.9065 99.8988 99.8915 99.8850 99.8790 99.8735 99.8688 99.8645 99.8610 99.8580 99.8555 99.8538 99.8525 99.8520 99.8520 99.8525 99.8538 99.8555 99.8580 99.8610 99.8645 99.8688 99.8735 99.8790 99.8850 99.8915 99.8988 99.9065 99.9150 99.9240 99.9335 99.9437 99.9545 99.9660 99.9779 99.9905 100.0000 100.0000 100.0000 100.0000 100.0000 100.0000 100.0000 100.0000 100.0000 100.0000 100.0000 100.0000 100.0000 100.0000 100.0000 100.0000 100.0000 100.0000 100.0000 100.0000 100.0000 100.0000 100.0000 100.0000 100.0000 100.0000 100.0000 100.0000 100.0000 100.0000 100.0000 100.0000 100.0000 100.0000 100.0000 100.0000 100.0000 100.0000 100.0000 100.0000 100.0000 100.0000 100.0000 100.0000 100.0000 100.0000 100.0000 100.0000 100.0000 100.0000 100.0000 100.0000 100.0000 100.0000 100.0000 100.0000 100.0000 100.0000 100.0000 100.0000 100.0000 100.0000 100.0000 100.0000 100.0000 100.0000 100.0000 100.0000 100.0000 100.0000 100.0000 100.0000 100.0000 100.0000 100.0000 100.0000 100.0000 100.0000 100.0000 100.0000 100.0000 100.0000 100.0000 100.0000 100.0000 100.0000 100.0000 100.0000 100.0000 100.0000 100.0000 100.0000 100.0000 100.0000 100.0000 100.0000 100.0000 100.0000
100.0000 100.0000 100.0000 100.0000 100.0000 100.0000 100.0000 100.0000 100.0000 100.0000 100.0000 100.0000 100.0000 100.0000 100.0000 100.0000 100.0000 100.0000 100.0000 100.0000 100.0000 100.0000 100.0000 100.0000 100.0000 100.0000 100.0000 100.0000 100.0000 100.0000 100.0000 100.0000 100.0000 100.0000 100.0000 100.0000 100.0000 100.0000 100.0000 100.0000 100.0000 100.0000 100.0000 100.0000 100.0000 100.0000 100.0000 100.0000 100.0000 100.0000 100.0000 100.0000 100.0000 100.0000 100.0000 100.0000 100.0000 100.0000 100.0000 100.0000 100.0000 100.0000 100.0000 100.0000 100.0000 100.0000 100.0000 100.0000 100.0000 100.0000 100.0000 100.0000 100.0000 100.0000 100.0000 100.0000 100.0000 100.0000 100.0000 100.0000 100.0000 100.0000 100.0000 100.0000 100.0000 100.0000 100.0000 100.0000 100.0000 100.0000 100.0000 100.0000 100.0000 100.0000 100.0000 100.0000 100.0000 100.0000 100.0000 100.0000 100.0000 100.0000 100.0000 99.9924 99.9827 99.9737 99.9654 99.9575 99.9504 99.9437 99.9377 99.9323 99.9275 99.9233 99.9197 99.9167 99.9143 99.9125 99.9113 99.9107 99.9107 99.9113 99.9125 99.9143 99.9167 99.9197 99.9233 99.9275 99.9323 99.9377 99.9437 99.9504 99.9575 99.9654 99.9737 99.9827 99.9924 100.0000 100.0000 100.0000 100.0000 100.0000 100.0000 100.0000 100.0000 100.0000 100.0000 100.0000 100.0000 100.0000 100.0000 100.0000 100.0000 100.0000 100.0000 100.0000 100.0000 100.0000 100.0000 100.0000 100.0000 100.0000 100.0000 100.0000 100.0000 100.0000 100.0000 100.0000 100.0000 100.0000 100.0000 100.0000 100.0000 100.0000 100.0000 100.0000 100.0000 100.0000 100.0000 100.0000 100.0000 100.0000 100.0000 100.0000 100.0000 100.0000 100.0000 100.0000 100.0000 100.0000 100.0000 100.0000 100.0000 100.0000 100.0000 100.0000 100.0000 100.0000 100.0000 100.0000 100.0000 100.0000 100.0000 100.0000 100.0000 100.0000 100.0000 100.0000 100.0000 100.0000 100.0000 100.0000 100.0000 100.0000 100.0000 100.0000 100.0000 100.0000 100.0000 100.0000 100.0000 100.0000 100.0000 100.0000 100.0000 100.0000 100.0000 100.0000 100.0000 100.0000 100.0000 100.0000 100.0000 100.0000 100.0000 100.0000 100.0000 100.0000 100.0000 100.0000
100.0000 100.0000 100.0000 100.0000 100.0000 100.0000 100.0000 100.0000 100.0000 100.0000 100.0000 100.0000 100.0000 100.0000 100.0000 100.0000 100.0000 100.0000 100.0000 100.0000 100.0000 100.0000 100.0000 100.0000 100.0000 100.0000 100.0000 100.0000 100.0000 100.0000 100.0000 100.0000 100.0000 100.0000 100.0000 100.0000 100.0000 100.0000 100.0000 100.0000 100.0000 100.0000 100.0000 100.0000 100.0000 100.0000 100.0000 100.0000 100.0000 100.0000 100.0000 100.0000 100.0000 100.0000 100.0000 100.0000 100.0000 100.0000 100.0000 100.0000 100.0000 100.0000 100.0000 100.0000 100.0000 100.0000 100.0000 100.0000 100.0000 100.0000 100.0000 100.0000 100.0000 100.0000 100.0000 100.0000 100.0000 100.0000 100.0000 100.0000 100.0000 100.0000 100.0000 100.0000 100.0000 100.0000 100.0000 100.0000 100.0000 100.0000 100.0000 100.0000 100.0000 100.0000 100.0000 100.0000 100.0000 100.0000 100.0000 100.0000 100.0000 100.0000 100.0000 100.0000 100.0000 100.0000 100.0000 100.0000 100.0000 100.0000 99.9972 99.9917 99.9870 99.9827 99.9792 99.9762 99.9737 99.9720 99.9707 99.9702 99.9702 99.9707 99.9720 99.9737 99.9762 99.9792 99.9827 99.9870 99.9917 99.9972 100.0000 100.0000 100.0000 100.0000 100.0000 100.0000 100.0000 100.0000 100.0000 100.0000 100.0000 100.0000 100.0000 100.0000 100.0000 100.0000 100.0000 100.0000 100.0000 100.0000 100.0000 100.0000 100.0000 100.0000 100.0000 100.0000 100.0000 100.0000 100.0000 100.0000 100.0000 100.0000 100.0000 100.0000 100.0000 100.0000 100.0000 100.0000 100.0000 100.0000 100.0000 100.0000 100.0000 100.0000 100.0000 100.0000 100.0000 100.0000 100.0000 100.0000 100.0000 100.0000 100.0000 100.0000 100.0000 100.0000 100.0000 100.0000 100.0000 100.0000 100.0000 100.0000 100.0000 100.0000 100.0000 100.0000 100.0000 100.0000 100.0000 100.0000 100.0000 100.0000 100.0000 100.0000 100.0000 100.0000 100.0000 100.0000 100.0000 100.0000 100.0000 100.0000 100.0000 100.0000 100.0000 100.0000 100.0000 100.0000 100.0000 100.0000 100.0000 100.0000 100.0000 100.0000 100.0000 100.0000 100.0000 100.0000 100.0000 100.0000 100.0000 100.0000 100.0000 100.0000 100.0000 100.0000 100.0000 100.0000 100.0000 100.0000
100.0000 100.0000 100.0000 100.0000 100.0000 100.0000 100.0000 100.0000 100.0000 100.0000 100.0000 100.0000 100.0000 100.0000 100.0000 100.0000 100.0000 100.0000 100.0000 100.0000 100.0000 100.0000 100.0000 100.0000 100.0000 100.0000 100.0000 100.0000 100.0000 100.0000 100.0000 100.0000 100.0000 100.0000 100.0000 100.0000 100.0000 100.0000 100.0000 100.0000 100.0000 100.0000 100.0000 100.0000 100.0000 100.0000 100.0000 100.0000 100.0000 100.0000 100.0000 100.0000 100.0000 100.0000 100.0000 100.0000 100.0000 100.0000 100.0000 100.0000 100.0000 100.0000 100.0000 100.0000 100.0000 100.0000 100.0000 100.0000 100.0000 100.0000 100.0000 100.0000 100.0000 100.0000 100.0000 100.0000 100.0000 100.0000 100.0000 100.0000 100.0000 100.0000 100.0000 100.0000 100.0000 100.0000 100.0000 100.0000 100.0000 100.0000 100.0000 100.0000 100.0000 100.0000 100.0000 100.0000 100.0000 100.0000 100.0000 100.0000 100.0000 100.0000 100.0000 100.0000 100.0000 100.0000 100.0000 100.0000 100.0000 100.0000 100.0000 100.0000 100.0000 100.0000 100.0000 100.0000 100.0000 100.0000 100.0000 100.0000 100.0000 100.0000 100.0000 100.0000 100.0000 100.0000 100.0000 100.0000 100.0000 100.0000 100.0000 100.0000 100.0000 100.0000 100.0000 100.0000 100.0000 100.0000 100.0000 100.0000 100.0000 100.0000 100.0000 100.0000 100.0000 100.0000 100.0000 100.0000 100.0000 100.0000 100.0000 100.0000 100.0000 100.0000 100.0000 100.0000 100.0000 100.0000 100.0000 100.0000 100.0000 100.0000 100.0000 100.0000 100.0000 100.0000 100.0000 100.0000 100.0000 100.0000 100.0000 100.0000 100.0000 100.0000 100.0000 100.0000 100.0000 100.0000 100.0000 100.0000 100.0000 100.0000 100.0000 100.0000 100.0000 100.0000 100.0000 100.0000 100.0000 100.0000 100.0000 100.0000 100.0000 100.0000 100.0000 100.0000 100.0000 100.0000 100.0000 100.0000 100.0000 100.0000 100.0000 100.0000 100.0000 100.0000 100.0000 100.0000 100.0000 100.0000 100.0000 100.0000 100.0000 100.0000 100.0000 100.0000 100.0000 100.0000 100.0000 100.0000 100.0000 100.0000 100.0000 100.0000 100.0000 100.0000 100.0000 100.0000 100.0000 100.0000 100.0000 100.0000 100.0000 100.0000 100.0000 100.0000 100.0000 100.0000 100.0000 100.0000
100.0000 100.0000 100.0000 100.0000 100.0000 100.0000 100.0000 100.0000 100.0000 100.0000 100.0000 100.0000 100.0000 100.0000 100.0000 100.0000 100.0000 100.0000 100.0000 100.0000 100.0000 100.0000 100.0000 100.0000 100.0000 100.0000 100.0000 100.0000 100.0000 100.0000 100.0000 100.0000 100.0000 100.0000 100.0000 100.0000 100.0000 100.0000 100.0000 100.0000 100.0000 100.0000 100.0000 100.0000 100.0000 100.0000 100.0000 100.0000 100.0000 100.0000 100.0000 100.0000 100.0000 100.0000 100.0000 100.0000 100.0000 100.0000 100.0000 100.0000 100.0000 100.0000 100.0000 100.0000 100.0000 100.0000 100.0000 100.0000 100.0000 100.0000 100.0000 100.0000 100.0000 100.0000 100.0000 100.0000 100.0000 100.0000 100.0000 100.0000 100.0000 100.0000 100.0000 100.0000 100.0000 100.0000 100.0000 100.0000 100.0000 100.0000 100.0000 100.0000 100.0000 100.0000 100.0000 100.0000 100.0000 100.0000 100.0000 100.0000 100.0000 100.0000 100.0000 100.0000 100.0000 100.0000 100.0000 100.0000 100.0000 100.0000 100.0000 100.0000 100.0000 100.0000 100.0000 100.0000 100.0000 100.0000 100.0000 100.0000 100.0000 100.0000 100.0000 100.0000 100.0000 100.0000 100.0000 100.0000 100.0000 100.0000 100.0000 100.0000 100.0000 100.0000 100.0000 100.0000 100.0000 100.0000 100.0000 100.0000 100.0000 100.0000 100.0000 100.0000 100.0000 100.0000 100.0000 100.0000 100.0000 100.0000 100.0000 100.0000 100.0000 100.0000 100.0000 100.0000 100.0000 100.0000 100.0000 100.0000 100.0000 100.0000 100.0000 100.0000 100.0000 100.0000 100.0000 100.0000 100.0000 100.0000 100.0000 100.0000 100.0000 100.0000 100.0000 100.0000 100.0000 100.0000 100.0000 100.0000 100.0000 100.0000 100.0000 100.0000 100.0000 100.0000 100.0000 100.0000 100.0000 100.0000 100.0000 100.0000 100.0000 100.0000 100.0000 100.0000 100.0000 100.0000 100.0000 100.0000 100.0000 100.0000 100.0000 100.0000 100.0000 100.0000 100.0000 100.0000 100.0000 100.0000 100.0000 100.0000 100.0000 100.0000 100.0000 100.0000 100.0000 100.0000 100.0000 100.0000 100.0000 100.0000 100.0000 100.0000 100.0000 100.0000 100.0000 100.0000 100.0000 100.0000 100.0000 100.0000 100.0000 100.0000 100.0000 100.0000 100.0000 100.0000 100.0000 100.0000
100.0000 100.0000 100.0000 100.0000 100.0000 100.0000 100.0000 100.0000 100.0000 100.0000 100.0000 100.0000 100.0000 100.0000 100.0000 100.0000 100.0000 100.0000 100.0000 100.0000 100.0000 100.0000 100.0000 100.0000 100.0000 100.0000 100.0000 100.0000 100.0000 100.0000 100.0000 100.0000 100.0000 100.0000 100.0000 100.0000 100.0000 100.0000 100.0000 100.0000 100.0000 100.0000 100.0000 100.0000 100.0000 100.0000 100.0000 100.0000 100.0000 100.0000 100.0000 100.0000 100.0000 100.0000 100.0000 100.0000 100.0000 100.0000 100.0000 100.0000 100.0000 100.0000 100.0000 100.0000 100.0000 100.0000 100.0000 100.0000 100.0000 100.0000 100.0000 100.0000 100.0000 100.0000 100.0000 100.0000 100.0000 100.0000 100.0000 100.0000 100.0000 100.0000 100.0000 100.0000 100.0000 100.0000 100.0000 100.0000 100.0000 100.0000 100.0000 100.0000 100.0000 100.0000 100.0000 100.0000 100.0000 100.0000 100.0000 100.0000 100.0000 100.0000 100.0000 100.0000 100.0000 100.0000 100.0000 100.0000 100.0000 100.0000 100.0000 100.0000 100.0000 100.0000 100.0000 100.0000 100.0000 100.0000 100.0000 100.0000 100.0000 100.0000 100.0000 100.0000 100.0000 100.0000 100.0000 100.0000 100.0000 100.0000 100.0000 100.0000 100.0000 100.0000 100.0000 100.0000 100.0000 100.0000 100.0000 100.0000 100.0000 100.0000 100.0000 100.0000 100.0000 100.0000 100.0000 100.0000 100.0000 100.0000 100.0000 100.0000 100.0000 100.0000 100.0000 100.0000 100.0000 100.0000 100.0000 100.0000 100.0000 100.0000 100.0000 100.0000 100.0000 100.0000 100.0000 100.0000 100.0000 100.0000 100.0000 100.0000 100.0000 100.0000 100.0000 100.0000 100.0000 100.0000 100.0000 100.0000 100.0000 100.0000 100.0000 100.0000 100.0000 100.0000 100.0000 100.0000 100.0000 100.0000 100.0000 100.0000 100.0000 100.0000 100.0000 100.0000 100.0000 100.0000 100.0000 100.0000 100.0000 100.0000 100.0000 100.0000 100.0000 100.0000 100.0000 100.0000 100.0000 100.0000 100.0000 100.0000 100.0000 100.0000 100.0000 100.0000 100.0000 100.0000 100.0000 100.0000 100.0000 100.0000 100.0000 100.0000 100.0000 100.0000 100.0000 100.0000 100.0000 100.0000 100.0000 100.0000 100.0000 100.0000 100.0000 100.0000 100.0000 100.0000 100.0000 100.0000
100.0000 100.0000 100.0000 100.0000 100.0000 100.0000 100.0000 100.0000 100.0000 100.0000 100.0000 100.0000 100.0000 100.0000 100.0000 100.0000 100.0000 100.0000 100.0000 100.0000 100.0000 100.0000 100.0000 100.0000 100.0000 100.0000 100.0000 100.0000 100.0000 100.0000 100.0000 100.0000 100.0000 100.0000 100.0000 100.0000 100.0000 100.0000 100.0000 100.0000 100.0000 100.0000 100.0000 100.0000 100.0000 100.0000 100.0000 100.0000 100.0000 100.0000 100.0000 100.0000 100.0000 100.0000 100.0000 100.0000 100.0000 100.0000 100.0000 100.0000 100.0000 100.0000 100.0000 100.0000 100.0000 100.0000 100.0000 100.0000 100.0000 100.0000 100.0000 100.0000 100.0000 100.0000 100.0000 100.0000 100.0000 100.0000 100.0000 100.0000 100.0000 100.0000 100.0000 100.0000 100.0000 100.0000 100.0000 100.0000 100.0000 100.0000 100.0000 100.0000 100.0000 100.0000 100.0000 100.0000 100.0000 100.0000 100.0000 100.0000 100.0000 100.0000 100.0000 100.0000 100.0000 100.0000 100.0000 100.0000 100.0000 100.0000 100.0000 100.0000 100.0000 100.0000 100.0000 100.0000 100.0000 100.0000 100.0000 100.0000 100.0000 100.0000 100.0000 100.0000 100.0000 100.0000 100.0000 100.0000 100.0000 100.0000 100.0000 100.0000 100.0000 100.0000 100.0000 100.0000 100.0000 100.0000 100.0000 100.0000 100.0000 100.0000 100.0000 100.0000 100.0000 100.0000 100.0000 100.0000 100.0000 100.0000 100.0000 100.0000 100.0000 100.0000 100.0000 100.0000 100.0000 100.0000 100.0000 100.0000 100.0000 100.0000 100.0000 100.0000 100.0000 100.0000 100.0000 100.0000 100.0000 100.0000 100.0000 100.0000 100.0000 100.0000 100.0000 100.0000 100.0000 100.0000 100.0000 100.0000 100.0000 100.0000 100.0000 100.0000 100.0000 100.0000 100.0000 100.0000 100.0000 100.0000 100.0000 100.0000 100.0000 100.0000 100.0000 100.0000 100.0000 100.0000 100.0000 100.0000 100.0000 100.0000 100.0000 100.0000 100.0000 100.0000 100.0000 100.0000 100.0000 100.0000 100.0000 100.0000 100.0000 100.0000 100.0000 100.0000 100.0000 100.0000 100.0000 100.0000 100.0000 100.0000 100.0000 100.0000 100.0000 100.0000 100.0000 100.0000 100.0000 100.0000 100.0000 100.0000 100.0000 100.0000 100.0000 100.0000 100.0000 100.0000 100.0000 100.0000
100.0000 100.0000 100.0000 100.0000 100.0000 100.0000 100.0000 100.0000 100.0000 100.0000 100.0000 100.0000 100.0000 100.0000 100.0000 100.0000 100.0000 100.0000 100.0000 100.0000 100.0000 100.0000 100.0000 100.0000 100.0000 100.0000 100.0000 100.0000 100.0000 100.0000 100.0000 100.0000 100.0000 100.0000 100.0000 100.0000 100.0000 100.0000 100.0000 100.0000 100.0000 100.0000 100.0000 100.0000 100.0000 100.0000 100.0000 100.0000 100.0000 100.0000 100.0000 100.0000 100.0000 100.0000 100.0000 100.0000 100.0000 100.0000 100.0000 100.0000 100.0000 100.0000 100.0000 100.0000 100.0000 100.0000 100.0000 100.0000 100.0000 100.0000 100.0000 100.0000 100.0000 100.0000 100.0000 100.0000 100.0000 100.0000 100.0000 100.0000 100.0000 100.0000 100.0000 100.0000 100.0000 100.0000 100.0000 100.0000 100.0000 100.0000 100.0000 100.0000 100.0000 100.0000 100.0000 100.0000 100.0000 100.0000 100.0000 100.0000 100.0000 100.0000 100.0000 100.0000 100.0000 100.0000 100.0000 100.0000 100.0000 100.0000 100.0000 100.0000 100.0000 100.0000 100.0000 100.0000 100.0000 100.0000 100.0000 100.0000 100.0000 100.0000 100.0000 100.0000 100.0000 100.0000 100.0000 100.0000 100.0000 100.0000 100.0000 100.0000 100.0000 100.0000 100.0000 100.0000 100.0000 100.0000 100.0000 100.0000 100.0000 100.0000 100.0000 100.0000 100.0000 100.0000 100.0000 100.0000 100.0000 100.0000 100.0000 100.0000 100.0000 100.0000 100.0000 100.0000 100.0000 100.0000 100.0000 100.0000 100.0000 100.0000 100.0000 100.0000 100.0000 100.0000 100.0000 100.0000 100.0000 100.0000 100.0000 100.0000 100.0000 100.0000 100.0000 100.0000 100.0000 100.0000 100.0000 100.0000 100.0000 100.0000 100.0000 100.0000 100.0000 100.0000 100.0000 100.0000 100.0000 100.0000 100.0000 100.0000 100.0000 100.0000 100.0000 100.0000 100.0000 100.0000 100.0000 100.0000 100.0000 100.0000 100.0000 100.0000 100.0000 100.0000 100.0000 100.0000 100.0000 100.0000 100.0000 100.0000 100.0000 100.0000 100.0000 100.0000 100.0000 100.0000 100.0000 100.0000 100.0000 100.0000 100.0000 100.0000 100.0000 100.0000 100.0000 100.0000 100.0000 100.0000 100.0000 100.0000 100.0000 100.0000 100.0000 100.0000 100.0000 100.0000 100.0000 100.0000
100.0000 100.0000 100.0000 100.0000 100.0000 100.0000 100.0000 100.0000 100.0000 100.0000 100.0000 100.0000 100.0000 100.0000 100.0000 100.0000 100.0000 100.0000 100.0000 100.0000 100.0000 100.0000 100.0000 100.0000 100.0000 100.0000 100.0000 100.0000 100.0000 100.0000 100.0000 100.0000 100.0000 100.0000 100.0000 100.0000 100.0000 100.0000 100.0000 100.0000 100.0000 100.0000 100.0000 100.0000 100.0000 100.0000 100.0000 100.0000 100.0000 100.0000 100.0000 100.0000 100.0000 100.0000 100.0000 100.0000 100.0000 100.0000 100.0000 100.0000 100.0000 100.0000 100.0000 100.0000 100.0000 100.0000 100.0000 100.0000 100.0000 100.0000 100.0000 100.0000 100.0000 100.0000 100.0000 100.0000 100.0000 100.0000 100.0000 100.0000 100.0000 100.0000 100.0000 100.0000 100.0000 100.0000 100.0000 100.0000 100.0000 100.0000 100.0000 100.0000 100.0000 100.0000 100.0000 100.0000 100.0000 100.0000 100.0000 100.0000 100.0000 100.0000 100.0000 100.0000 100.0000 100.0000 100.0000 100.0000 100.0000 100.0000 100.0000 100.0000 100.0000 100.0000 100.0000 100.0000 100.0000 100.0000 100.0000 100.0000 100.0000 100.0000 100.0000 100.0000 100.0000 100.0000 100.0000 100.0000 100.0000 100.0000 100.0000 100.0000 100.0000 100.0000 100.0000 100.0000 100.0000 100.0000 100.0000 100.0000 100.0000 100.0000 100.0000 100.0000 100.0000 100.0000 100.0000 100.0000 100.0000 100.0000 100.0000 100.0000 100.0000 100.0000 100.0000 100.0000 100.0000 100.0000 100.0000 100.0000 100.0000 100.0000 100.0000 100.0000 100.0000 100.0000 100.0000 100.0000 100.0000 100.0000 100.0000 100.0000 100.0000 100.0000 100.0000 100.0000 100.0000 100.0000 100.0000 100.0000 100.0000 100.0000 100.0000 100.0000 100.0000 100.0000 100.0000 100.0000 100.0000 100.0000 100.0000 100.0000 100.0000 100.0000 100.0000 100.0000 100.0000 100.0000 100.0000 100.0000 100.0000 100.0000 100.0000 100.0000 100.0000 100.0000 100.0000 100.0000 100.0000 100.0000 100.0000 100.0000 100.0000 100.0000 100.0000 100.0000 100.0000 100.0000 100.0000 100.0000 100.0000 100.0000 100.0000 100.0000 100.0000 100.0000 100.0000 100.0000 100.0000 100.0000 100.0000 100.0000 100.0000 100.0000 100.0000 100.0000 100.0000 100.0000 100.0000 100.0000
100.0000 100.0000 100.0000 100.0000 100.0000 100.0000 100.0000 100.0000 100.0000 100.0000 100.0000 100.0000 100.0000 100.0000 100.0000 100.0000 100.0000 100.0000 100.0000 100.0000 100.0000 100.0000 100.0000 100.0000 100.0000 100.0000 100.0000 100.0000 100.0000 100.0000 100.0000 100.0000 100.0000 100.0000 100.0000 100.0000 100.0000 100.0000 100.0000 100.0000 100.0000 100.0000 100.0000 100.0000 100.0000 100.0000 100.0000 100.0000 100.0000 100.0000 100.0000 100.0000 100.0000 100.0000 100.0000 100.0000 100.0000 100.0000 100.0000 100.0000 100.0000 100.0000 100.0000 100.0000 100.0000 100.0000 100.0000 100.0000 100.0000 100.0000 100.0000 100.0000 100.0000 100.0000 100.0000 100.0000 100.0000 100.0000 100.0000 100.0000 100.0000 100.0000 100.0000 100.0000 100.0000 100.0000 100.0000 100.0000 100.0000 100.0000 100.0000 100.0000 100.0000 100.0000 100.0000 100.0000 100.0000 100.0000 100.0000 100.0000 100.0000 100.0000 100.0000 100.0000 100.0000 100.0000 100.0000 100.0000 100.0000 100.0000 100.0000 100.0000 100.0000 100.0000 100.0000 100.0000 100.0000 100.0000 100.0000 100.0000 100.0000 100.0000 100.0000 100.0000 100.0000 100.0000 100.0000 100.0000 100.0000 100.0000 100.0000 100.0000 100.0000 100.0000 100.0000 100.0000 100.0000 100.0000 100.0000 100.0000 100.0000 100.0000 100.0000 100.0000 100.0000 100.0000 100.0000 100.0000 100.0000 100.0000 100.0000 100.0000 100.0000 100.0000 100.0000 100.0000 100.0000 100.0000 100.0000 100.0000 100.0000 100.0000 100.0000 100.0000 100.0000 100.0000 100.0000 100.0000 100.0000 100.0000 100.0000 100.0000 100.0000 100.0000 100.0000 100.0000 100.0000 100.0000 100.0000 100.0000 100.0000 100.0000 100.0000 100.0000 100.0000 100.0000 100.0000 100.0000 100.0000 100.0000 100.0000 100.0000 100.0000 100.0000 100.0000 100.0000 100.0000 100.0000 100.0000 100.0000 100.0000 100.0000 100.0000 100.0000 100.0000 100.0000 100.0000 100.0000 100.0000 100.0000 100.0000 100.0000 100.0000 100.0000 100.0000 100.0000 100.0000 100.0000 100.0000 100.0000 100.0000 100.0000 100.0000 100.0000 100.0000 100.0000 100.0000 100.0000 100.0000 100.0000 100.0000 100.0000 100.0000 100.0000 100.0000 100.0000 100.0000 100.0000 100.0000 100.0000
100.0000 100.0000 100.0000 100.0000 100.0000 100.0000 100.0000 100.0000 100.0000 100.0000 100.0000 100.0000 100.0000 100.0000 100.0000 100.0000 100.0000 100.0000 100.0000 100.0000 100.0000 100.0000 100.0000 100.0000 100.0000 100.0000 100.0000 100.0000 100.0000 100.0000 100.0000 100.0000 100.0000 100.0000 100.0000 100.0000 100.0000 100.0000 100.0000 100.0000 100.0000 100.0000 100.0000 100.0000 100.0000 100.0000 100.0000 100.0000 100.0000 100.0000 100.0000 100.0000 100.0000 100.0000 100.0000 100.0000 100.0000 100.0000 100.0000 100.0000 100.0000 100.0000 100.0000 100.0000 100.0000 100.0000 100.0000 100.0000 100.0000 100.0000 100.0000 100.0000 100.0000 100.0000 100.0000 100.0000 100.0000 100.0000 100.0000 100.0000 100.0000 100.0000 100.0000 100.0000 100.0000 100.0000 100.0000 100.0000 100.0000 100.0000 100.0000 100.0000 100.0000 100.0000 100.0000 100.0000 100.0000 100.0000 100.0000 100.0000 100.0000 100.0000 100.0000 100.0000 100.0000 100.0000 100.0000 100.0000 100.0000 100.0000 100.0000 100.0000 100.0000 100.0000 100.0000 100.0000 100.0000 100.0000 100.0000 100.0000 100.0000 100.0000 100.0000 100.0000 100.0000 100.0000 100.0000 100.0000 100.0000 100.0000 100.0000 100.0000 100.0000 100.0000 100.0000 100.0000 100.0000 100.0000 100.0000 100.0000 100.0000 100.0000 100.0000 100.0000 100.0000 100.0000 100.0000 100.0000 100.0000 100.0000 100.0000 100.0000 100.0000 100.0000 100.0000 100.0000 100.0000 100.0000 100.0000 100.0000 100.0000 100.0000 100.0000 100.0000 100.0000 100.0000 100.0000 100.0000 100.0000 100.0000 100.0000 100.0000 100.0000 100.0000 100.0000 100.0000 100.0000 100.0000 100.0000 100.0000 100.0000 100.0000 100.0000 100.0000 100.0000 100.0000 100.0000 100.0000 100.0000 100.0000 100.0000 100.0000 100.0000 100.0000 100.0000 100.0000 100.0000 100.0000 100.0000 100.0000 100.0000 100.0000 100.0000 100.0000 100.0000 100.0000 100.0000 100.0000 100.0000 100.0000 100.0000 100.0000 100.0000 100.0000 100.0000 100.0000 100.0000 100.0000 100.0000 100.0000 100.0000 100.0000 100.0000 100.0000 100.0000 100.0000 100.0000 100.0000 100.0000 100.0000 100.0000 100.0000 100.0000 100.0000 100.0000 100.0000 100.0000 100.0000 100.0000 100.0000
100.0000 100.0000 100.0000 100.0000 100.0000 100.0000 100.0000 100.0000 100.0000 100.0000 100.0000 100.0000 100.0000 100.0000 100.0000 100.0000 100.0000 100.0000 100.0000 100.0000 100.0000 100.0000 100.0000 100.0000 100.0000 100.0000 100.0000 100.0000 100.0000 100.0000 100.0000 100.0000 100.0000 100.0000 100.0000 100.0000 100.0000 100.0000 100.0000 100.0000 100.0000 100.0000 100.0000 100.0000 100.0000 100.0000 100.0000 100.0000 100.0000 100.0000 100.0000 100.0000 100.0000 100.0000 100.0000 100.0000 100.0000 100.0000 100.0000 100.0000 100.0000 100.0000 100.0000 100.0000 100.0000 100.0000 100.0000 100.0000 100.0000 100.0000 100.0000 100.0000 100.0000 100.0000 100.0000 100.0000 100.0000 100.0000 100.0000 100.0000 100.0000 100.0000 100.0000 100.0000 100.0000 100.0000 100.0000 100.0000 100.0000 100.0000 100.0000 100.0000 100.0000 100.0000 100.0000 100.0000 100.0000 100.0000 100.0000 100.0000 100.0000 100.0000 100.0000 100.0000 100.0000 100.0000 100.0000 100.0000 100.0000 100.0000 100.0000 100.0000 100.0000 100.0000 100.0000 100.0000 100.0000 100.0000 100.0000 100.0000 100.0000 100.0000 100.0000 100.0000 100.0000 100.0000 100.0000 100.0000 100.0000 100.0000 100.0000 100.0000 100.0000 100.0000 100.0000 100.0000 100.0000 100.0000 100.0000 100.0000 100.0000 100.0000 100.0000 100.0000 100.0000 100.0000 100.0000 100.0000 100.0000 100.0000 100.0000 100.0000 100.0000 100.0000 100.0000 100.0000 100.0000 100.0000 100.0000 100.0000 100.0000 100.0000 100.0000 100.0000 100.0000 100.0000 100.0000 100.0000 100.0000 100.0000 100.0000 100.0000 100.0000 100.0000 100.0000 100.0000 100.0000 100.0000 100.0000 100.0000 100.0000 100.0000 100.0000 100.0000 100.0000 100.0000 100.0000 100.0000 100.0000 100.0000 100.0000 100.0000 100.0000 100.0000 100.0000 100.0000 100.0000 100.0000 100.0000 100.0000 100.0000 100.0000 100.0000 100.0000 100.0000 100.0000 100.0000 100.0000 100.0000 100.0000 100.0000 100.0000 100.0000 100.0000 100.0000 100.0000 100.0000 100.0000 100.0000 100.0000 100.0000 100.0000 100.0000 100.0000 100.0000 100.0000 100.0000 100.0000 100.0000 100.0000 100.0000 100.0000 100.0000 100.0000 100.0000 100.0000 100.0000 100.0000 100.0000 100.0000
100.0000 100.0000 100.0000 100.0000 100.0000 100.0000 100.0000 100.0000 100.0000 100.0000 100.0000 100.0000 100.0000 100.0000 100.0000 100.0000 100.0000 100.0000 100.0000 100.0000 100.0000 100.0000 100.0000 100.0000 100.0000 100.0000 100.0000 100.0000 100.0000 100.0000 100.0000 100.0000 100.0000 100.0000 100.0000 100.0000 100.0000 100.0000 100.0000 100.0000 100.0000 100.0000 100.0000 100.0000 100.0000 100.0000 100.0000 100.0000 100.0000 100.0000 100.0000 100.0000 100.0000 100.0000 100.0000 100.0000 100.0000 100.0000 100.0000 100.0000 100.0000 100.0000 100.0000 100.0000 100.0000 100.0000 100.0000 100.0000 100.0000 100.0000 100.0000 100.0000 100.0000 100.0000 100.0000 100.0000 100.0000 100.0000 100.0000 100.0000 100.0000 100.0000 100.0000 100.0000 100.0000 100.0000 100.0000 100.0000 100.0000 100.0000 100.0000 100.0000 100.0000 100.0000 100.0000 100.0000 100.0000 100.0000 100.0000 100.0000 100.0000 100.0000 100.0000 100.0000 100.0000 100.0000 100.0000 100.0000 100.0000 100.0000 100.0000 100.0000 100.0000 100.0000 100.0000 100.0000 100.0000 100.0000 100.0000 100.0000 100.0000 100.0000 100.0000 100.0000 100.0000 100.0000 100.0000 100.0000 100.0000 100.0000 100.0000 100.0000 100.0000 100.0000 100.0000 100.0000 100.0000 100.0000 100.0000 100.0000 100.0000 100.0000 100.0000 100.0000 100.0000 100.0000 100.0000 100.0000 100.0000 100.0000 100.0000 100.0000 100.0000 100.0000 100.0000 100.0000 100.0000 100.0000 100.0000 100.0000 100.0000 100.0000 100.0000 100.0000 100.0000 100.0000 100.0000 100.0000 100.0000 100.0000 100.0000 100.0000 100.0000 100.0000 100.0000 100.0000 100.0000 100.0000 100.0000 100.0000 100.0000 100.0000 100.0000 100.0000 100.0000 100.0000 100.0000 100.0000 100.0000 100.0000 100.0000 100.0000 100.0000 100.0000 100.0000 100.0000 100.0000 100.0000 100.0000 100.0000 100.0000 100.0000 100.0000 100.0000 100.0000 100.0000 100.0000 100.0000 100.0000 100.0000 100.0000 100.0000 100.0000 100.0000 100.0000 100.0000 100.0000 100.0000 100.0000 100.0000 100.0000 100.0000 100.0000 100.0000 100.0000 100.0000 100.0000 100.0000 100.0000 100.0000 100.0000 100.0000 100.0000 100.0000 100.0000 100.0000 100.0000 100.0000 100.0000 100.0000
100.0000 100.0000 100.0000 100.0000 100.0000 100.0000 100.0000 100.0000 100.0000 100.0000 100.0000 100.0000 100.0000 100.0000 100.0000 100.0000 100.0000 100.0000 100.0000 100.0000 100.0000 100.0000 100.0000 100.0000 100.0000 100.0000 100.0000 100.0000 100.0000 100.0000 100.0000 100.0000 100.0000 100.0000 100.0000 100.0000 100.0000 100.0000 100.0000 100.0000 100.0000 100.0000 100.0000 100.0000 100.0000 100.0000 100.0000 100.0000 100.0000 100.0000 100.0000 100.0000 100.0000 100.0000 100.0000 100.0000 100.0000 100.0000 100.0000 100.0000 100.0000 100.0000 100.0000 100.0000 100.0000 100.0000 100.0000 100.0000 100.0000 100.0000 100.0000 100.0000 100.0000 100.0000 100.0000 100.0000 100.0000 100.0000 100.0000 100.0000 100.0000 100.0000 100.0000 100.0000 100.0000 100.0000 100.0000 100.0000 100.0000 100.0000 100.0000 100.0000 100.0000 100.0000 100.0000 100.0000 100.0000 100.0000 100.0000 100.0000 100.0000 100.0000 100.0000 100.0000 100.0000 100.0000 100.0000 100.0000 100.0000 100.0000 100.0000 100.0000 100.0000 100.0000 100.0000 100.0000 100.0000 100.0000 100.0000 100.0000 100.0000 100.0000 100.0000 100.0000 100.0000 100.0000 100.0000 100.0000 100.0000 100.0000 100.0000 100.0000 100.0000 100.0000 100.0000 100.0000 100.0000 100.0000 100.0000 100.0000 100.0000 100.0000 100.0000 100.0000 100.0000 100.0000 100.0000 100.0000 100.0000 100.0000 100.0000 100.0000 100.0000 100.0000 100.0000 100.0000 100.0000 100.0000 100.0000 100.0000 100.0000 100.0000 100.0000 100.0000 100.0000 100.0000 100.0000 100.0000 100.0000 100.0000 100.0000 100.0000 100.0000 100.0000 100.0000 100.0000 100.0000 100.0000 100.0000 100.0000 100.0000 100.0000 100.0000 100.0000 100.0000 100.0000 100.0000 100.0000 100.0000 100.0000 100.0000 100.0000 100.0000 100.0000 100.0000 100.0000 100.0000 100.0000 100.0000 100.0000 100.0000 100.0000 100.0000 100.0000 100.0000 100.0000 100.0000 100.0000 100.0000 100.0000 100.0000 100.0000 100.0000 100.0000 100.0000 100.0000 100.0000 100.0000 100.0000 100.0000 100.0000 100.0000 100.0000 100.0000 100.0000 100.0000 100.0000 100.0000 100.0000 100.0000 100.0000 100.0000 100.0000 100.0000 100.0000 100.0000 100.0000 100.0000 100.0000 100.0000
100.0000 100.0000 100.0000 100.0000 100.0000 100.0000 100.0000 100.0000 100.0000 100.0000 100.0000 100.0000 100.0000 100.0000 100.0000 100.0000 100.0000 100.0000 100.0000 100.0000 100.0000 100.0000 100.0000 100.0000 100.0000 100.0000 100.0000 100.0000 100.0000 100.0000 100.0000 100.0000 100.0000 100.0000 100.0000 100.0000 100.0000 100.0000 100.0000 100.0000 100.0000 100.0000 100.0000 100.0000 100.0000 100.0000 100.0000 100.0000 100.0000 100.0000 100.0000 100.0000 100.0000 100.0000 100.0000 100.0000 100.0000 100.0000 100.0000 100.0000 100.0000 100.0000 100.0000 100.0000 100.0000 100.0000 100.0000 100.0000 100.0000 100.0000 100.0000 100.0000 100.0000 100.0000 100.0000 100.0000 100.0000 100.0000 100.0000 100.0000 100.0000 100.0000 100.0000 100.0000 100.0000 100.0000 100.0000 100.0000 100.0000 100.0000 100.0000 100.0000 100.0000 100.0000 100.0000 100.0000 100.0000 100.0000 100.0000 100.0000 100.0000 100.0000 100.0000 100.0000 100.0000 100.0000 100.0000 100.0000 100.0000 100.0000 100.0000 100.0000 100.0000 100.0000 100.0000 100.0000 100.0000 100.0000 100.0000 100.0000 100.0000 100.0000 100.0000 100.0000 100.0000 100.0000 100.0000 100.0000 100.0000 100.0000 100.0000 100.0000 100.0000 100.0000 100.0000 100.0000 100.0000 100.0000 100.0000 100.0000 100.0000 100.0000 100.0000 100.0000 100.0000 100.0000 100.0000 100.0000 100.0000 100.0000 100.0000 100.0000 100.0000 100.0000 100.0000 100.0000 100.0000 100.0000 100.0000 100.0000 100.0000 100.0000 100.0000 100.0000 100.0000 100.0000 100.0000 100.0000 100.0000 100.0000 100.0000 100.0000 100.0000 100.0000 100.0000 100.0000 100.0000 100.0000 100.0000 100.0000 100.0000 100.0000 100.0000 100.0000 100.0000 100.0000 100.0000 100.0000 100.0000 100.0000 100.0000 100.0000 100.0000 100.0000 100.0000 100.0000 100.0000 100.0000 100.0000 100.0000 100.0000 100.0000 100.0000 100.0000 100.0000 100.0000 100.0000 100.0000 100.0000 100.0000 100.0000 100.0000 100.0000 100.0000 100.0000 100.0000 100.0000 100.0000 100.0000 100.0000 100.0000 100.0000 100.0000 100.0000 100.0000 100.0000 100.0000 100.0000 100.0000 100.0000 100.0000 100.0000 100.0000 100.0000 100.0000 100.0000 100.0000 100.0000 100.0000 100.0000
100.0000 100.0000 100.0000 100.0000 100.0000 100.0000 100.0000 100.0000 100.0000 100.0000 100.0000 100.0000 100.0000 100.0000 100.0000 100.0000 100.0000 100.0000 100.0000 100.0000 100.0000 100.0000 100.0000 100.0000 100.0000 100.0000 100.0000 100.0000 100.0000 100.0000 100.0000 100.0000 100.0000 100.0000 100.0000 100.0000 100.0000 100.0000 100.0000 100.0000 100.0000 100.0000 100.0000 100.0000 100.0000 100.0000 100.0000 100.0000 100.0000 100.0000 100.0000 100.0000 100.0000 100.0000 100.0000 100.0000 100.0000 100.0000 100.0000 100.0000 100.0000 100.0000 100.0000 100.0000 100.0000 100.0000 100.0000 100.0000 100.0000 100.0000 100.0000 100.0000 100.0000 100.0000 100.0000 100.0000 100.0000 100.0000 100.0000 100.0000 100.0000 100.0000 100.0000 100.0000 100.0000 100.0000 100.0000 100.0000 100.0000 100.0000 100.0000 100.0000 100.0000 100.0000 100.0000 100.0000 100.0000 100.0000 100.0000 100.0000 100.0000 100.0000 100.0000 100.0000 100.0000 100.0000 100.0000 100.0000 100.0000 100.0000 100.0000 100.0000 100.0000 100.0000 100.0000 100.0000 100.0000 100.0000 100.0000 100.0000 100.0000 100.0000 100.0000 100.0000 100.0000 100.0000 100.0000 100.0000 100.0000 100.0000 100.0000 100.0000 100.0000 100.0000 100.0000 100.0000 100.0000 100.0000 100.0000 100.0000 100.0000 100.0000 100.0000 100.0000 100.0000 100.0000 100.0000 100.0000 100.0000 100.0000 100.0000 100.0000 100.0000 100.0000 100.0000 100.0000 100.0000 100.0000 100.0000 100.0000 100.0000 100.0000 100.0000 100.0000 100.0000 100.0000 100.0000 100.0000 100.0000 100.0000 100.0000 100.0000 100.0000 100.0000 100.0000 100.0000 100.0000 100.0000 100.0000 100.0000 100.0000 100.0000 100.0000 100.0000 100.0000 100.0000 100.0000 100.0000 100.0000 100.0000 100.0000 100.0000 100.0000 100.0000 100.0000 100.0000 100.0000 100.0000 100.0000 100.0000 100.0000 100.0000 100.0000 100.0000 100.0000 100.0000 100.0000 100.0000 100.0000 100.0000 100.0000 100.0000 100.0000 100.0000 100.0000 100.0000 100.0000 100.0000 100.0000 100.0000 100.0000 100.0000 100.0000 100.0000 100.0000 100.0000 100.0000 100.0000 100.0000 100.0000 100.0000 100.0000 100.0000 100.0000 100.0000 100.0000 100.0000 100.0000 100.0000 100.0000
100.0000 100.0000 100.0000 100.0000 100.0000 100.0000 100.0000 100.0000 100.0000 100.0000 100.0000 100.0000 100.0000 100.0000 100.0000 100.0000 100.0000 100.0000 100.0000 100.0000 100.0000 100.0000 100.0000 100.0000 100.0000 100.0000 100.0000 100.0000 100.0000 100.0000 100.0000 100.0000 100.0000 100.0000 100.0000 100.0000 100.0000 100.0000 100.0000 100.0000 100.0000 100.0000 100.0000 100.0000 100.0000 100.0000 100.0000 100.0000 100.0000 100.0000 100.0000 100.0000 100.0000 100.0000 100.0000 100.0000 100.0000 100.0000 100.0000 100.0000 100.0000 100.0000 100.0000 100.0000 100.0000 100.0000 100.0000 100.0000 100.0000 100.0000 100.0000 100.0000 100.0000 100.0000 100.0000 100.0000 100.0000 100.0000 100.0000 100.0000 100.0000 100.0000 100.0000 100.0000 100.0000 100.0000 100.0000 100.0000 100.0000 100.0000 100.0000 100.0000 100.0000 100.0000 100.0000 100.0000 100.0000 100.0000 100.0000 100.0000 100.0000 100.0000 100.0000 100.0000 100.0000 100.0000 100.0000 100.0000 100.0000 100.0000 100.0000 100.0000 100.0000 100.0000 100.0000 100.0000 100.0000 100.0000 100.0000 100.0000 100.0000 100.0000 100.0000 100.0000 100.0000 100.0000 100.0000 100.0000 100.0000 100.0000 100.0000 100.0000 100.0000 100.0000 100.0000 100.0000 100.0000 100.0000 100.0000 100.0000 100.0000 100.0000 100.0000 100.0000 100.0000 100.0000 100.0000 100.0000 100.0000 100.0000 100.0000 100.0000 100.0000 100.0000 100.0000 100.0000 100.0000 100.0000 100.0000 100.0000 100.0000 100.0000 100.0000 100.0000 100.0000 100.0000 100.0000 100.0000 100.0000 100.0000 100.0000 100.0000 100.0000 100.0000 100.0000 100.0000 100.0000 100.0000 100.0000 100.0000 100.0000 100.0000 100.0000 100.0000 100.0000 100.0000 100.0000 100.0000 100.0000 100.0000 100.0000 100.0000 100.0000 100.0000 100.0000 100.0000 100.0000 100.0000 100.0000 100.0000 100.0000 100.0000 100.0000 100.0000 100.0000 100.0000 100.0000 100.0000 100.0000 100.0000 100.0000 100.0000 100.0000 100.0000 100.0000 100.0000 100.0000 100.0000 100.0000 100.0000 100.0000 100.0000 100.0000 100.0000 100.0000 100.0000 100.0000 100.0000 100.0000 100.0000 100.0000 100.0000 100.0000 100.0000 100.0000 100.0000 100.0000 100.0000 100.0000 100.0000
100.0000 100.0000 100.0000 100.0000 100.0000 100.0000 100.0000 100.0000 100.0000 100.0000 100.0000 100.0000 100.0000 100.0000 100.0000 100.0000 100.0000 100.0000 100.0000 100.0000 100.0000 100.0000 100.0000 100.0000 100.0000 100.0000 100.0000 100.0000 100.0000 100.0000 100.0000 100.0000 100.0000 100.0000 100.0000 100.0000 100.0000 100.0000 100.0000 100.0000 100.0000 100.0000 100.0000 100.0000 100.0000 100.0000 100.0000 100.0000 100.0000 100.0000 100.0000 100.0000 100.0000 100.0000 100.0000 100.0000 100.0000 100.0000 100.0000 100.0000 100.0000 100.0000 100.0000 100.0000 100.0000 100.0000 100.0000 100.0000 100.0000 100.0000 100.0000 100.0000 100.0000 100.0000 100.0000 100.0000 100.0000 100.0000 100.0000 100.0000 100.0000 100.0000 100.0000 100.0000 100.0000 100.0000 100.0000 100.0000 100.0000 100.0000 100.0000 100.0000 100.0000 100.0000 100.0000 100.0000 100.0000 100.0000 100.0000 100.0000 100.0000 100.0000 100.0000 100.0000 100.0000 100.0000 100.0000 100.0000 100.0000 100.0000 100.0000 100.0000 100.0000 100.0000 100.0000 100.0000 100.0000 100.0000 100.0000 100.0000 100.0000 100.0000 100.0000 100.0000 100.0000 100.0000 100.0000 100.0000 100.0000 100.0000 100.0000 100.0000 100.0000 100.0000 100.0000 100.0000 100.0000 100.0000 100.0000 100.0000 100.0000 100.0000 100.0000 100.0000 100.0000 100.0000 100.0000 100.0000 100.0000 100.0000 100.0000 100.0000 100.0000 100.0000 100.0000 100.0000 100.0000 100.0000 100.0000 100.0000 100.0000 100.0000 100.0000 100.0000 100.0000 100.0000 100.0000 100.0000 100.0000 100.0000 100.0000 100.0000 100.0000 100.0000 100.0000 100.0000 100.0000 100.0000 100.0000 100.0000 100.0000 100.0000 100.0000 100.0000 100.0000 100.0000 100.0000 100.0000 100.0000 100.0000 100.0000 100.0000 100.0000 100.0000 100.0000 100.0000 100.0000 100.0000 100.0000 100.0000 100.0000 100.0000 100.0000 100.0000 100.0000 100.0000 100.0000 100.0000 100.0000 100.0000 100.0000 100.0000 100.0000 100.0000 100.0000 100.0000 100.0000 100.0000 100.0000 100.0000 100.0000 100.0000 100.0000 100.0000 100.0000 100.0000 100.0000 100.0000 100.0000 100.0000 100.0000 100.0000 100.0000 100.0000 100.0000 100.0000 100.0000 100.0000 100.0000 100.0000
100.0000 100.0000 100.0000 100.0000 100.0000 100.0000 100.0000 100.0000 100.0000 100.0000 100.0000 100.0000 100.0000 100.0000 100.0000 100.0000 100.0000 100.0000 100.0000 100.0000 100.0000 100.0000 100.0000 100.0000 100.0000 100.0000 100.0000 100.0000 100.0000 100.0000 100.0000 100.0000 100.0000 100.0000 100.0000 100.0000 100.0000 100.0000 100.0000 100.0000 100.0000 100.0000 100.0000 100.0000 100.0000 100.0000 100.0000 100.0000 100.0000 100.0000 100.0000 100.0000 100.0000 100.0000 100.0000 100.0000 100.0000 100.0000 100.0000 100.0000 100.0000 100.0000 100.0000 100.0000 100.0000 100.0000 100.0000 100.0000 100.0000 100.0000 100.0000 100.0000 100.0000 100.0000 100.0000 100.0000 100.0000 100.0000 100.0000 100.0000 100.0000 100.0000 100.0000 100.0000 100.0000 100.0000 100.0000 100.0000 100.0000 100.0000 100.0000 100.0000 100.0000 100.0000 100.0000 100.0000 100.0000 100.0000 100.0000 100.0000 100.0000 100.0000 100.0000 100.0000 100.0000 100.0000 100.0000 100.0000 100.0000 100.0000 100.0000 100.0000 100.0000 100.0000 100.0000 100.0000 100.0000 100.0000 100.0000 100.0000 100.0000 100.0000 100.0000 100.0000 100.0000 100.0000 100.0000 100.0000 100.0000 100.0000 100.0000 100.0000 100.0000 100.0000 100.0000 100.0000 100.0000 100.0000 100.0000 100.0000 100.0000 100.0000 100.0000 100.0000 100.0000 100.0000 100.0000 100.0000 100.0000 100.0000 100.0000 100.0000 100.0000 100.0000 100.0000 100.0000 100.0000 100.0000 100.0000 100.0000 100.0000 100.0000 100.0000 100.0000 100.0000 100.0000 100.0000 100.0000 100.0000 100.0000 100.0000 100.0000 100.0000 100.0000 100.0000 100.0000 100.0000 100.0000 100.0000 100.0000 100.0000 100.0000 100.0000 100.0000 100.0000 100.0000 100.0000 100.0000 100.0000 100.0000 100.0000 100.0000 100.0000 100.0000 100.0000 100.0000 100.0000 100.0000 100.0000 100.0000 100.0000 100.0000 100.0000 100.0000 100.0000 100.0000 100.0000 100.0000 100.0000 100.0000 100.0000 100.0000 100.0000 100.0000 100.0000 100.0000 100.0000 100.0000 100.0000 100.0000 100.0000 100.0000 100.0000 100.0000 100.0000 100.0000 100.0000 100.0000 100.0000 100.0000 100.0000 100.0000 100.0000 100.0000 100.0000 100.0000 100.0000 100.0000 100.0000 100.0000
100.0000 100.0000 100.0000 100.0000 100.0000 100.0000 100.0000 100.0000 100.0000 100.0000 100.0000 100.0000 100.0000 100.0000 100.0000 100.0000 100.0000 100.0000 100.0000 100.0000 100.0000 100.0000 100.0000 100.0000 100.0000 100.0000 100.0000 100.0000 100.0000 100.0000 100.0000 100.0000 100.0000 100.0000 100.0000 100.0000 100.0000 100.0000 100.0000 100.0000 100.0000 100.0000 100.0000 100.0000 100.0000 100.0000 100.0000 100.0000 100.0000 100.0000 100.0000 100.0000 100.0000 100.0000 100.0000 100.0000 100.0000 100.0000 100.0000 100.0000 100.0000 100.0000 100.0000 100.0000 100.0000 100.0000 100.0000 100.0000 100.0000 100.0000 100.0000 100.0000 100.0000 100.0000 100.0000 100.0000 100.0000 100.0000 100.0000 100.0000 100.0000 100.0000 100.0000 100.0000 100.0000 100.0000 100.0000 100.0000 100.0000 100.0000 100.0000 100.0000 100.0000 100.0000 100.0000 100.0000 100.0000 100.0000 100.0000 100.0000 100.0000 100.0000 100.0000 100.0000 100.0000 100.0000 100.0000 100.0000 100.0000 100.0000 100.0000 100.0000 100.0000 100.0000 100.0000 100.0000 100.0000 100.0000 100.0000 100.0000 100.0000 100.0000 100.0000 100.0000 100.0000 100.0000 100.0000 100.0000 100.0000 100.0000 100.0000 100.0000 100.0000 100.0000 100.0000 100.0000 100.0000 100.0000 100.0000 100.0000 100.0000 100.0000 100.0000 100.0000 100.0000 100.0000 100.0000 100.0000 100.0000 100.0000 100.0000 100.0000 100.0000 100.0000 100.0000 100.0000 100.0000 100.0000 100.0000 100.0000 100.0000 100.0000 100.0000 100.0000 100.0000 100.0000 100.0000 100.0000 100.0000 100.0000 100.0000 100.0000 100.0000 100.0000 100.0000 100.0000 100.0000 100.0000 100.0000 100.0000 100.0000 100.0000 100.0000 100.0000 100.0000 100.0000 100.0000 100.0000 100.0000 100.0000 100.0000 100.0000 100.0000 100.0000 100.0000 100.0000 100.0000 100.0000 100.0000 100.0000 100.0000 100.0000 100.0000 100.0000 100.0000 100.0000 100.0000 100.0000 100.0000 100.0000 100.0000 100.0000 100.0000 100.0000 100.0000 100.0000 100.0000 100.0000 100.0000 100.0000 100.0000 100.0000 100.0000 100.0000 100.0000 100.0000 100.0000 100.0000 100.0000 100.0000 100.0000 100.0000 100.0000 100.0000 100.0000 100.0000 100.0000 100.0000 100.0000 100.0000
100.0000 100.0000 100.0000 100.0000 100.0000 100.0000 100.0000 100.0000 100.0000 100.0000 100.0000 100.0000 100.0000 100.0000 100.0000 100.0000 100.0000 100.0000 100.0000 100.0000 100.0000 100.0000 100.0000 100.0000 100.0000 100.0000 100.0000 100.0000 100.0000 100.0000 100.0000 100.0000 100.0000 100.0000 100.0000 100.0000 100.0000 100.0000 100.0000 100.0000 100.0000 100.0000 100.0000 100.0000 100.0000 100.0000 100.0000 100.0000 100.0000 100.0000 100.0000 100.0000 100.0000 100.0000 100.0000 100.0000 100.0000 100.0000 100.0000 100.0000 100.0000 100.0000 100.0000 100.0000 100.0000 100.0000 100.0000 100.0000 100.0000 100.0000 100.0000 100.0000 100.0000 100.0000 100.0000 100.0000 100.0000 100.0000 100.0000 100.0000 100.0000 100.0000 100.0000 100.0000 100.0000 100.0000 100.0000 100.0000 100.0000 100.0000 100.0000 100.0000 100.0000 100.0000 100.0000 100.0000 100.0000 100.0000 100.0000 100.0000 100.0000 100.0000 100.0000 100.0000 100.0000 100.0000 100.0000 100.0000 100.0000 100.0000 100.0000 100.0000 100.0000 100.0000 100.0000 100.0000 100.0000 100.0000 100.0000 100.0000 100.0000 100.0000 100.0000 100.0000 100.0000 100.0000 100.0000 100.0000 100.0000 100.0000 100.0000 100.0000 100.0000 100.0000 100.0000 100.0000 100.0000 100.0000 100.0000 100.0000 100.0000 100.0000 100.0000 100.0000 100.0000 100.0000 100.0000 100.0000 100.0000 100.0000 100.0000 100.0000 100.0000 100.0000 100.0000 100.0000 100.0000 100.0000 100.0000 100.0000 100.0000 100.0000 100.0000 100.0000 100.0000 100.0000 100.0000 100.0000 100.0000 100.0000 100.0000 100.0000 100.0000 100.0000 100.0000 100.0000 100.0000 100.0000 100.0000 100.0000 100.0000 100.0000 100.0000 100.0000 100.0000 100.0000 100.0000 100.0000 100.0000 100.0000 100.0000 100.0000 100.0000 100.0000 100.0000 100.0000 100.0000 100.0000 100.0000 100.0000 100.0000 100.0000 100.0000 100.0000 100.0000 100.0000 100.0000 100.0000 100.0000 100.0000 100.0000 100.0000 100.0000 100.0000 100.0000 100.0000 100.0000 100.0000 100.0000 100.0000 100.0000 100.0000 100.0000 100.0000 100.0000 100.0000 100.0000 100.0000 100.0000 100.0000 100.0000 100.0000 100.0000 100.0000 100.0000 100.0000 100.0000 100.0000 100.0000 100.0000
100.0000 100.0000 100.0000 100.0000 100.0000 100.0000 100.0000 100.0000 100.0000 100.0000 100.0000 100.0000 100.0000 100.0000 100.0000 100.0000 100.0000 100.0000 100.0000 100.0000 100.0000 100.0000 100.0000 100.0000 100.0000 100.0000 100.0000 100.0000 100.0000 100.0000 100.0000 100.0000 100.0000 100.0000 100.0000 100.0000 100.0000 100.0000 100.0000 100.0000 100.0000 100.0000 100.0000 100.0000 100.0000 100.0000 100.0000 100.0000 100.0000 100.0000 100.0000 100.0000 100.0000 100.0000 100.0000 100.0000 100.0000 100.0000 100.0000 100.0000 100.0000 100.0000 100.0000 100.0000 100.0000 100.0000 100.0000 100.0000 100.0000 100.0000 100.0000 100.0000 100.0000 100.0000 100.0000 100.0000 100.0000 100.0000 100.0000 100.0000 100.0000 100.0000 100.0000 100.0000 100.0000 100.0000 100.0000 100.0000 100.0000 100.0000 100.0000 100.0000 100.0000 100.0000 100.0000 100.0000 100.0000 100.0000 100.0000 100.0000 100.0000 100.0000 100.0000 100.0000 100.0000 100.0000 100.0000 100.0000 100.0000 100.0000 100.0000 100.0000 100.0000 100.0000 100.0000 100.0000 100.0000 100.0000 100.0000 100.0000 100.0000 100.0000 100.0000 100.0000 100.0000 100.0000 100.0000 100.0000 100.0000 100.0000 100.0000 100.0000 100.0000 100.0000 100.0000 100.0000 100.0000 100.0000 100.0000 100.0000 100.0000 100.0000 100.0000 100.0000 100.0000 100.0000 100.0000 100.0000 100.0000 100.0000 100.0000 100.0000 100.0000 100.0000 100.0000 100.0000 100.0000 100.0000 100.0000 100.0000 100.0000 100.0000 100.0000 100.0000 100.0000 100.0000 100.0000 100.0000 100.0000 100.0000 100.0000 100.0000 100.0000 100.0000 100.0000 100.0000 100.0000 100.0000 100.0000 100.0000 100.0000 100.0000 100.0000 100.0000 100.0000 100.0000 100.0000 100.0000 100.0000 100.0000 100.0000 100.0000 100.0000 100.0000 100.0000 100.0000 100.0000 100.0000 100.0000 100.0000 100.0000 100.0000 100.0000 100.0000 100.0000 100.0000 100.0000 100.0000 100.0000 100.0000 100.0000 100.0000 100.0000 100.0000 100.0000 100.0000 100.0000 100.0000 100.0000 100.0000 100.0000 100.0000 100.0000 100.0000 100.0000 100.0000 100.0000 100.0000 100.0000 100.0000 100.0000 100.0000 100.0000 100.0000 100.0000 100.0000 100.0000 100.0000 100.0000 100.0000
100.0000 100.0000 100.0000 100.0000 100.0000 100.0000 100.0000 100.0000 100.0000 100.0000 100.0000 100.0000 100.0000 100.0000 100.0000 100.0000 100.0000 100.0000 100.0000 100.0000 100.0000 100.0000 100.0000 100.0000 100.0000 100.0000 100.0000 100.0000 100.0000 100.0000 100.0000 100.0000 100.0000 100.0000 100.0000 100.0000 100.0000 100.0000 100.0000 100.0000 100.0000 100.0000 100.0000 100.0000 100.0000 100.0000 100.0000 100.0000 100.0000 100.0000 100.0000 100.0000 100.0000 100.0000 100.0000 100.0000 100.0000 100.0000 100.0000 100.0000 100.0000 100.0000 100.0000 100.0000 100.0000 100.0000 100.0000 100.0000 100.0000 100.0000 100.0000 100.0000 100.0000 100.0000 100.0000 100.0000 100.0000 100.0000 100.0000 100.0000 100.0000 100.0000 100.0000 100.0000 100.0000 100.0000 100.0000 100.0000 100.0000 100.0000 100.0000 100.0000 100.0000 100.0000 100.0000 100.0000 100.0000 100.0000 100.0000 100.0000 100.0000 100.0000 100.0000 100.0000 100.0000 100.0000 100.0000 100.0000 100.0000 100.0000 100.0000 100.0000 100.0000 100.0000 100.0000 100.0000 100.0000 100.0000 100.0000 100.0000 100.0000 100.0000 100.0000 100.0000 100.0000 100.0000 100.0000 100.0000 100.0000 100.0000 100.0000 100.0000 100.0000 100.0000 100.0000 100.0000 100.0000 100.0000 100.0000 100.0000 100.0000 100.0000 100.0000 100.0000 100.0000 100.0000 100.0000 100.0000 100.0000 100.0000 100.0000 100.0000 100.0000 100.0000 100.0000 100.0000 100.0000 100.0000 100.0000 100.0000 100.0000 100.0000 100.0000 100.0000 100.0000 100.0000 100.0000 100.0000 100.0000 100.0000 100.0000 100.0000 100.0000 100.0000 100.0000 100.0000 100.0000 100.0000 100.0000 100.0000 100.0000 100.0000 100.0000 100.0000 100.0000 100.0000 100.0000 100.0000 100.0000 100.0000 100.0000 100.0000 100.0000 100.0000 100.0000 100.0000 100.0000 100.0000 100.0000 100.0000 100.0000 100.0000 100.0000 100.0000 100.0000 100.0000 100.0000 100.0000 100.0000 100.0000 100.0000 100.0000 100.0000 100.0000 100.0000 100.0000 100.0000 100.0000 100.0000 100.0000 100.0000 100.0000 100.0000 100.0000 100.0000 100.0000 100.0000 100.0000 100.0000 100.0000 100.0000 100.0000 100.0000 100.0000 100.0000 100.0000 100.0000 100.0000 100.0000 100.0000
